/* XPM */
static char *portal_sq[] = {
/* columns rows colors chars-per-pixel */
"512 512 237 2 ",
"   c #181A19",
".  c #101013",
"X  c #1C211D",
"o  c #1E1C21",
"O  c #251D23",
"+  c #1C2323",
"@  c #2C2B2B",
"#  c #262728",
"$  c #34282A",
"%  c #2D322D",
"&  c #34332E",
"*  c #382D34",
"=  c #2D3431",
"-  c #333333",
";  c #3C3C3B",
":  c #383837",
">  c #2C2D32",
",  c #271C1E",
"<  c #44373A",
"1  c #493134",
"2  c #3C423C",
"3  c #45443D",
"4  c #3D3C42",
"5  c #453D43",
"6  c #553D43",
"7  c #3E4543",
"8  c #3D504E",
"9  c #444444",
"0  c #4C4C4B",
"q  c #484847",
"w  c #524C4C",
"e  c #524849",
"r  c #4C534D",
"t  c #485149",
"y  c #52534D",
"u  c #56574C",
"i  c #4D4D52",
"p  c #4B4851",
"a  c #534D53",
"s  c #594C53",
"d  c #4C5452",
"f  c #4D5954",
"g  c #535453",
"h  c #5A5455",
"j  c #545B54",
"k  c #5B5B55",
"l  c #545C5A",
"z  c #5B5D5B",
"x  c #57545A",
"c  c #635D5C",
"v  c #655758",
"b  c #56625C",
"n  c #5C635C",
"m  c #5B6356",
"M  c #57604F",
"N  c #62635D",
"B  c #646A5E",
"V  c #67665C",
"C  c #706A5E",
"Z  c #5C5D62",
"A  c #645E64",
"S  c #715F6A",
"D  c #5D6462",
"F  c #5D6A64",
"G  c #5A6866",
"H  c #636563",
"J  c #6A6464",
"K  c #646B64",
"L  c #6A6C65",
"P  c #64656A",
"I  c #656C6A",
"U  c #6B6D6B",
"Y  c #6A656B",
"T  c #726D6B",
"R  c #756769",
"E  c #6C7266",
"W  c #66726C",
"Q  c #6C726C",
"!  c #6B766B",
"~  c #72746D",
"^  c #74796E",
"/  c #767769",
"(  c #6C6C72",
")  c #686B72",
"_  c #736C73",
"`  c #7A6B72",
"'  c #6D7472",
"]  c #6E7973",
"[  c #6E7B7A",
"{  c #6A7476",
"}  c #737572",
"|  c #7A7573",
" . c #747B74",
".. c #7A7C75",
"X. c #74757A",
"o. c #757C7A",
"O. c #7B7E7A",
"+. c #7A747B",
"@. c #817E7B",
"#. c #837A78",
"$. c #7B8176",
"%. c #76817B",
"&. c #7D827C",
"*. c #7D897E",
"=. c #758276",
"-. c #748177",
";. c #82847D",
":. c #83897E",
">. c #86877B",
",. c #8C927C",
"<. c #757C81",
"1. c #7C7D82",
"2. c #7A7883",
"3. c #847D82",
"4. c #768282",
"5. c #7D8482",
"6. c #7E8983",
"7. c #7D8589",
"8. c #7E8B8A",
"9. c #778986",
"0. c #7E908B",
"q. c #838682",
"w. c #898683",
"e. c #858A84",
"r. c #8A8C85",
"t. c #838589",
"y. c #858C8A",
"u. c #8B8E8A",
"i. c #89868B",
"p. c #918E8B",
"a. c #918B86",
"s. c #859186",
"d. c #8B9186",
"f. c #86918B",
"g. c #8D928C",
"h. c #8D988E",
"j. c #919286",
"k. c #91948E",
"l. c #99958E",
"z. c #93998E",
"x. c #999A8E",
"c. c #969A87",
"v. c #858E91",
"b. c #8B8E92",
"n. c #878993",
"m. c #948D94",
"M. c #869292",
"N. c #8D9492",
"B. c #8E9993",
"V. c #8D9699",
"C. c #8E9A9A",
"Z. c #879694",
"A. c #929692",
"S. c #999693",
"D. c #949A95",
"F. c #999C96",
"G. c #939699",
"H. c #959C9A",
"J. c #9A9E9A",
"K. c #9A9599",
"L. c #A19E9B",
"P. c #A39C98",
"I. c #8EA298",
"U. c #95A096",
"Y. c #9BA196",
"T. c #96A19C",
"R. c #9CA29D",
"E. c #9DA89E",
"W. c #95A89F",
"Q. c #9DA08D",
"!. c #A0A297",
"~. c #A1A49E",
"^. c #A2A99E",
"/. c #A9A89E",
"(. c #959EA1",
"). c #9B9EA1",
"_. c #8D9AA0",
"`. c #A29FA2",
"'. c #96A2A1",
"]. c #9DA4A2",
"[. c #9EA9A4",
"{. c #9EA6A9",
"}. c #9EAAA9",
"|. c #97A8A6",
" X c #9CAEAC",
".X c #A1A6A2",
"XX c #A9A6A3",
"oX c #A3AAA4",
"OX c #A9ACA6",
"+X c #A2A6A9",
"@X c #A4ACAA",
"#X c #A9AEAA",
"$X c #ABA7A9",
"%X c #B1AEAA",
"&X c #A5B0A6",
"*X c #AAB1A6",
"=X c #A6B1AC",
"-X c #ABB2AC",
";X c #ACB9AF",
":X c #B1B4AE",
">X c #B2B8AD",
",X c #A6AEB1",
"<X c #A9AEB1",
"1X c #A6B2B1",
"2X c #ABB4B2",
"3X c #AEB9B4",
"4X c #ADB6B9",
"5X c #AEBABA",
"6X c #A7B7B7",
"7X c #B1B6B2",
"8X c #B3BAB4",
"9X c #B9BCB6",
"0X c #B2B6B9",
"qX c #B3BCBA",
"wX c #B9BEBA",
"eX c #BAB7B4",
"rX c #B1AFB3",
"tX c #B5C1BC",
"yX c #BBC2BD",
"uX c #B6C1B7",
"iX c #AFC1BC",
"pX c #C1C4BE",
"aX c #B4BEC1",
"sX c #BABEC1",
"dX c #AEBDC1",
"fX c #B6C2C2",
"gX c #BBC4C2",
"hX c #BDC9C4",
"jX c #BCC9C9",
"kX c #AFC2C0",
"lX c #C1C6C3",
"zX c #C3CAC4",
"xX c #C3CCCA",
"cX c #C8CDC9",
"vX c #C8D2CE",
"bX c #D6E2DB",
"nX c #C2BFB8",
/* pixels */
"# # + + = - = = % : % - 9 - % % 4 % # = + + # # @ : = = - 2 > = ; : % # : ; 0 g : : : 2 # = 7 % & & : % : - = = = @ - = # # : + # # # # # @ o # # @ # # - X     - :   X     ; X   + + + . > # > # # # # 5 x c x g g - 9 % - - & , $ $ # , o q o < : : 3 ; n 9 ; i 0 a > . * * : - ; ; : : - ; - @ & @ # @ # # # # # # # - * * s 7 +   4 7 # # + , 5 5 < ; ; g ; ; d d - ; < ; 5 ; 9 : 9 q 9 x l 0 w 9 y w h y Y c V c c N N H n k k n j k h & ^ } ~ k 9 < e e S 9 J J 9 g v .   w a Y 3.J V ^ | } o.} : o o   p d D P d P P q 9 x a z g g x   : w V e s e < < w N k c k 3 y L L t B N 0 r z l d 3 3 3 9 9 q 0 9 g - ; - 9 9 q 9 : < : ; 5 5 ; ; 2 H r 7 L L r U # q g z H N K E U W d n U k c k z h h z x I %.I k z N c J 3 3 L k N k c < h v v 5 < 1 1 v J | U ` | T | w...| T _ i.O.@.i.} ( ( ' z D D i z x a h H a x a p i D ( U Z q 5 q e 5 5 Z l D A A 0 4 v v < < A s #.` ( x x Y ` c c v H z H } U X.D z c h T h e # w e a s e $ * * v * ; 5 ; * * * $ * * * * $ * * 5 * * : * * < < < < ; : 5 < * 1 1 1 $ $ $ $ $ $ $ - ; - : ; q 0 r = e e 0 @ . 2 . . ",
"# : 2 d d d g q ; 7 i 9 q q 9 0 9 d - > + 4 # + ; @ % - @ % 9 @ % 7 : @ ; i 5 0 ; 9 : - g @ - % : & : : % : = = - : > @ 4 : # # @ # @ @ # # # # # @ @ #   : :           + # + + + + #     .   . @ # @ 5 q z x z g x : > : g : : $ $ , e _ o 5 q < 3 9 - 3 x ; 9 0 a i > . * - - ; * - : - 4 i - & # $ q q q 9 q # $ O $ * $ * s 4 p 4 q p 4 : # o Y Z Z x z P x i P P ; 7 g x i x U U ( U P X.} _ X.H z _ q.J J c @.;...N } U H ~ } l 9 h s c X.k z k h J J J A J A J A A x z h 0 0 A 1.} ..&.} } i ..a ( 5 p 5 D U H p I I H q x U z } } g : : u ~ ~ N @.@.c Y k z U ~ k y y 3 3 0 y d d d t t j y z x z x z q : 2 x h 9 ; 9 z h c x x a 5 a Y N h c c g g g w g z U U o.} } o. .W F I L z } E ' ' } l D I D W } &.z z r.r.L z q.U U ~ T ~ ~ U R @.#.v T ~ U Q } ..O.;.u.e.w.q.w.| J q.O...P U D G { u.t.g H P Z X.1.( A P X.' I b.5.I H H 4 p 9 l l { H Y 3.y.G.u.).A.i.X.V.y.V.1.1.1.i.e.e.O.i.X.' y.<.5.' ' z h z X.} ( ( ( _ _ _ a s +.+.x 4 x x A x s x a a e s g z i a : : 4 ; * : 5 < * 5 5 : * * * * * $ $ $ 0 0 w - # : ; ; : - : % = $ ; @ - ; ; 9 : ",
"t F D Z I p P l } D D d q H H q 9 # > 9 i 7 4 > # : = - % @ : - # : g g i i - g g z o o @ i 0 @ 0 : ; i i U z g @ > q 0 ; 5 ; 5 4 0 Z 5 # O 4 4 @ ; 5 5 : 0 w : - - - : ; - - # > > 4 a x # @ > 5 p A Y Z ( z z i i g x a g _ - 6 R 5 _ Y Y Y ) x g _ A H z z 4 > 0 0 p - Z x x ( ) ( X.) <.7.) U _ ( U X.t.U Z p p p Y +.+.2._ ) ) ( P A p P A Z <.Z P ) I ) g P ' P i 5 p p x ( x x x i P X.( A Z X.X.A H ( t.e.@.O.q.U t.t.} } y.v.X.A.X.G.b.A.A.r.S.F.O.J.O.i.i.u.u.G.G.K.G.H.1.1.G.&.*.f.5.+.X.S.A.J.A.G.K.X.0 H I I z P I ' Q Q  .} Q } ~ k  .z U ..X.U <.w.q.A.e.K V V N n H K D l I [ W I <.1.X.5.t.U x g U ' j z n z X.| O.U | +.A Y | ] l L  .I K W W ' ) ) { o.7.4.7. .' [ ] f. .q.6.5.y.y.7.y.N.C.M.y.N.u.N.t.5.y.t.F.A.A.H.6.M.6.f.~.F.A.~ r.q.6.T.y.y.D.B.J.J.J.R.i.t.+.e.O.t.H } o.' I y.M.D o.u.2.) 7.2.{ X.y.f.{ <.7.{ n.( x <.{ C.(.C.v.+X).#XC.V.V.M.|.'.'.{.G.M.H.V.V.H.H.H.).).G.).t.b.G.G.A.G.A.b.A.G.G.G.+X( _ ).A.A.( +.A 2.2.1._ +.p.A.n.n.b.t.M.M.V.( [ <.<.X.X._ _ ` +.2.2.2.+.3.#.x Y Y Y ( P P ( ( L L Y P 0 h q 0 a 0 - w H H ; H ",
"r K l H N.I ( I X.P D } D P { I D x P d ( p f d H %.H D K 9 - g 4 d i Z X.H U P <.<.5.X._ Y i._ 1.P D U ) t.P a 0 H 1.t.( } ( _ <.} X.Z P Y ( a ` R S S R A R ` l d ' X.D P D p i 4 > 9 x x x x A ) t.A Z Z ' y.) n.1.t.i.G.i.b.K.p.K.p.K.b.m.m.m.m.m.X.A.O.].J.e.r.r.U 1.1.u.3.i.b.t.y.7.7.7.7.i.5.y.u.t.I Z t._ i.m.m.m.m.K.K.b.) ) G.X.2.3.1.7.7.7.x ( ( t.U t.1.5.O.7 P 2.X.1.( U U P } } X.X.( t.u.G.G.u.A.D.G.H.H.V.b.H.b.v.b.t.y.V.G.V.G.u.N.A.r.J.A.H.J.u.#X+X2X).G.+XG.V.b.b.G.g.y.B.M.G.b.N.A.N.F.J.G.J...H.o.4.#XI D o.5.Q &.U  .~ } } o.' o.H 1.<.X.y.u.J.&.N B B V } K Q ' D L %.%.5.<.X.X.( q.O.Q ' O.u.Q ' Q o.Q } u.O.o...U } O.] ] ] W ' 5.o.I ) ) { I [ o.%.[ L W b W ' &.' e.y.y.6.e.%.%.f.[ B.o.Q o.y.t.5.u.t.5.y.4.y.f.f.8.A.D.J.&.&.y.y.7.N.y.B.y.g.B.A.H.u.O.} } @.X.Z ( 5.' D [ [ o.[ 5.X.<.<.1.d X.} y.7.<.7.o.v.<.( { 4.f.Z.y.y.].y.+XV.G.b.A.A.u.N.y.G.u.A.N.H.T.B.C.u.G.b.H.G.G.G.b.A.G.G.t.G.b.G.b.A.).X.( X.G.X.} } t.H.).V.J.G.V.n.5.u.v.8.{ M.M.o.[ o.<.b.G.p.A.G.).G.).).1.X.2.i.b.t.t.U t.e.e.J L J..X3.t.O.U O.+.H O.S.r.k.H ",
"q q.L Q Q 5.Q o.O.O.X.b.V.v.7.<.v.t.[ I 7.7.[ G 8.6.] t f 2 7 t Z X.' H G.@XV.A.n.7.7.V.n.b.b.).H.H.V.v.y.G.1.2.t.y.5.t.5.V.G.b.y.4.t.t.u.X.X.X.4.[ 4.9.0.8.8.[ O.' ( X.P P t.X.) { { { I { Y X.<.X.V.<.M.7.7.C.(.V.V.7.b.V.).G.).).{.5.y.V.b.n.7.5.t.X.y.o.u.A.k.k.t.u.G.A.n.b.H.N.6.N.N.y.4.N.N.N.'.7.7.y.V.t.o.C.C.C.,X1XC.H.].X.y.G.N.J.J.N.N.H.o.X.o.G.+.u.u.H.F..Xy.u.X.U e.g.r.&.t.u.o.t.b.X.5.O.y.N.g.B.y.+XM.t.y.5.V.V.N.5.A.N.].H.V.N.R.].'.[.].'.].y.G.+XV.7.7.7.<.).(.4X|.M.H.D.T.].'.H.+X}.].H.'.'...q.H.#Xy.<.o.U I Q U  .r.;.~ E 5.O.5.' g x i.5.%.o.e. .L / E B  .~ &.e. .!  .Q 5.t.o.q.e.e.Q e.} ..t.X.O.I H U X.A.e.O.O.X...O.^ L | ..T | O.O.A.D.g.U ' Q f.%. .Q ..O.O.&.e.y... .u.g.q.s.=. .O.;.O.r.O.&.t.t.O.q.&.&.;. .r.k.;.D.A.q.o.5.y.5.g.q.g.e.g.F.J.J.G.q.r.u.;...q.O.e.%.%.e.U g.%.&.p. .q.K } O.} I y.q.} y.t.u.u.t.%.o.&.R.D.J.e.q.u.u.u.k.w.r.S.S.k.p.A.k.u.u.e.g.e.q.O.r.J.q.q.i.D.g.;.r.u.A.N..XJ.).J.1.A ..A.A.XX].@X].A.H.N.H.A.e.t.6.%.G ] [ ( ' O.<.g.u.e.y.].y.y.n.i.u.y.t.G.A..Xr.r.q.k.O.U I H.M.y.b.N.} U { H.+XB.u.5.e.",
"k B ..K u.e.r.Q  .K 5.N.5.y.M.M.8.8.9.V.y.M.8.M.9.9.f.] W W Q H t.5.b.J.b.G.H.N.|.{.{.(.H.'.G.H.C.'.(.M.v.V.n.M.7.M.v.H.M.7.v.M.B.g.y.u.D.t.y.g.( <.X.X.o.y.e.4.t.} <.X.X.t.' 7.9.<.4.<.7.5.{ <.7.4.7.<.(.}.C.C.v.}.M.'.(.(.(.7.5.y.6.7.4.7.v.9.7.{ 5.y.' 6.[ y.A.f.u.e.N.4.N..Xf.%.y.T.N.6.6.B.B.B.C.y.f.y.N.N.H.H.D.D.D.H.D.A.C.N.y.y.o.B.%.u.g.u.u.R.k.w.L A..Xg.u.J.oX.X].N.e.A.F.A.f..Xk.&.N.o.u.D.D.D.D.q.B.y.o.H.N.y.V.G.y.u.u.u.y.B.A.D.e.K I 5.y.N.%.4.G.u.7.7.y.v.).M.M.C.M.Z.H.g.H.N.y.].N.y.H.C.o.7. .g.'.].Z.o.I I  .H X.U } ;.w.z ~ U B.O.U _ Y i.s.Q K H L / / / ^ $.:.>...&.*.Q ..O.D.F.k.e. .^ &. .O.y.}  .} L }  .U } g.J..XOXp...;.k.r.w.u.A...r.u.r.&.y.f.*.q.;.;.k.B.H.u.u.;.~ ;.F.D.x.r.^ >.~.^.zXg.g.R.e.oX#X;.r.j.l.l.p.F.#XF.D.R.e.&.&.q.;.u.u.L.OX#X#Xy.u..X8Xk.q.@.O.r.;.O...N ;.k.A.k.w.&.....S.t.G.k.k...r.d.r.r.d.&.&.r.F.J.F.&.w.^.k.g.e.q.D.A.F.S.L.L.F.k.k.d.d.F.F.A.D..Xe.q.A.F.F.k.~.J.~.A.F.#Xr.J.F.F.F.A.A.q.g.D.oXR.B.y.4.;.w.O.}  .=.e. .m.w.S.F.F.&. .g.u.' I O.H.N.O.H.5.y.N.e.~ U ~ } I o.H.y.C.y.%.K ' 5.'.o.T.6.%.[ ",
"^ K K ;.&.;.&.d.R.L  .g.7.7.v.M.0.Z.4.[ 7.7.{ 9.[ W D W j y k ..t.X.' } 4.o.l o.<.{ o.<.{ 7.M.4.[ [ { o.4.7.y.7.%.H.C.y.y.{ { V.f.f.e.5.e.u.D.B.5.H.A.A.N.g.y.y.&.u.t.<.b.V.v.V.[ 9.9.[ y.M.M.M.D.].'.N.7.Z.y.7.7.7.v.{ 8.V.].H.F C.y.}.C.].].Z.@X@X].R.y.A.L q.r.A.J.R.D.u.u.J.5.o.y.B.g.5.5.y.g.y.' 5.B.y.7.V.B.B.B.T.T.H.T.f.Z.N.M.6.N.5.o.5.k.u.u.R.g.D.q.&.J.R.u.e.A.].].b.D.J.J.A.&.D.J.f.&.J.J.g.A.H.R.A.].7.o.'.g.y.B.@X].XXOXS.[.[.@XF.5.5.7 %.qX'.H.3Xb.H.H.<.y.).@XXX}.(.M.V.H.g..XH.o.H.].y.}.H.C.].e.f.C.'.8.Z.M.I K U H ;.k ;.A.n E g.%.%.w.F.e.t.z.&.! U E E / / ,...^ &.e.q.e.g.;.F.XXr.d.e.&.s.;.D.r.D.e.u. ...e.O.~ ~ r.F.F.XXq.q.&.&.D.-XoXU.k.d.u.F.O.g.' ' f.y.O.O.H.H.g.u.u.U ~ u.k.:.F...$.>.$.oXD.g.y.g.J..Xu.r.!.!./.!.OX#Xk.O.J.D.R.R.:.g.F.J.#X:X8X2XH.N.J.9Xk.k. .O.e.;...O.O.k././.F.w.;...k.OXXX.X..k.k.e.F.F.F.;.=.e..X.XY.*.k @.*XY.E.U.D.E.J.g.oXOXF..XoX~.F.A.^.!.~..XOXL.a.u.oXF.!.F..X:X#XF.*XA.-X:XoXoX*XoXJ.].H.oX@X#X@X@XoXXXD.D.f.q.g.J.OXp.k.k.^.g.y.R.t.u.H.'.J.H.D.A.r.r.H.u.k.&.q.O.I y.H.y.6.4.o.O.f.f.B.H.B.5.T.6.",
"k q.;.&.} k.w... .f.f.e.C.M.V.V.0.8.9.M.M.v.4.7.{ [ ' ] U L ;.@.q.;.q.t.N.B.H.[ y.M.b.N.o.v.H.<.5.o. .N.y.y.A.y.B.y.f.y.v.V.M.t.B.f.t.u.e.u.A.5.u.e.A.B.e.5.M.o.K u.y.5.t.u.V.5.M.7.W W o.{ o.5.e.y.g.N.[ 5.y.7.y.t.H.(.'.V.1X7.t R.6.5.T.T.C.'.N.A.B.D.d.A.z.g.r.e.T.f.[.D.B.q.Z.N.N.y.A.b.5.u.u.g.O.V.t.t.V.(.} H.o.} g.u.A.F.N.V.N.G.G.<.G..XD.R.g.g.g.6.e.e.R.A.N.R.} N.].b.u.].e.u..X#Xu.g.F.F.S.H.A.u.H.g.N.'.H.y.R.R.t.A.N..XrXJ.D.@XR.R.5.5.q e.2X'.2X'.q.@X+X].].@XR.w.H.fX|.M.8X#XoXJ.g. .R.oXJ.H.|.M.g.B.B.C.%.'.M.I } Q r.;.q.q.B.D.Q E.y.g.J.A.J.D.s.f.6.} B E $.>.,.>. ...d.A.A.S.k.S.!.l.r.q.y.&XoX^.e.k.u.k.;.r.:.$.w.r.J.~.r.;.;.r.k.w.;.;.>.F.R.O.g.g.u.y.H K s.e...g.f.C.y.5.p. .g.e.D.......^.j n &.B.D.f.N.g.A.&.J.:X9XoX:XyXF.A.q.J.r.^.*Xd.!.!.!.#X.XoX.XA.H.oXr.0 S.F.....O.;.r.k.XX/.XXJ.X.u.A.#Xk.k.D.&.r.u.d.F.^.Y.k.y.H.J.F.H.R.J.w.!.:Xe.&.>X.Xk.S.J.#XR.@XD.&.g.oXOXF.F..Xp.A.p.`.d.f.*X-XOX@X#X].&X=XA.Y.*XOX*X=X<X<X2X,X@X#X4.o.eXeXA.D.J.R.J.L.~..XOX&.O.%.y.H.b.].H.)..X].J.H.N.H.H.H.J..XJ.S.e.H.y.C.y.B.q.O.&.A.f.Y.e.6.#X6.",
"K  .$.N q.H.5.*.}  . .*.g.B.N.y.g.g.e.A.B.f.6.q.y.=.6.f.D.;.L ;.A.S.J.B.D.D.H.N.r.A.f.A.@X[.D.5.&.R.y. .g.g.g. .g.u.&.&.d.D.D.q.f.f.y.&.e.d.q.e.e.e.A.D.A.r.r.;.&.y.&.q. . .w.w.F.;.&.r.f.~ Q Q &.f.u. .A.r.L ..u.u.D.D.J.A.].D.O.N.J.e.D.D.B.B.N.y.].D.e.g.f.D.r.;.u.F.f.u.D.y.w.k.A.r.A.q.f.g.D.q.r.e.y.B.u.R.O. .D.A.d.g.g.OX&.O.f.D.^...R.d.&.R.A.u..XD.D.g.eXR.R.D.D.R.H.R.f.g.^.d.F.F.;.k.~.r..X~.D.d.J.d.B.H.T.[.g.;.#XE.A.R.#XJ.A.S..X#XF.r...w.^.^.*XoXT.].2X+X2X@X<XG.T.[.;XOXD.oXD..XD.f.r.f.D.Y.J.q.B.%.T.H.' R.} ~ }  .E. .r.~ ..F.~ ;.L .X^.Y.q.q.D.H.H.*.=./ c.>.q ..d.z.*.k.u.~.~.k.F.k.} O.o.Y.].B.B.R.D.D.*.g.>...r.Y.D.F.d.r.k.~.r.k.;.$.e.x.;.;...;.^.D.e.F.;.e.q.q.y.h.y.g.w.;.k.^.D.;.;.e.;.L u L >.k.F.F.D.e...*X7XOX#XwX:Xs.$.r.k.F.oXoXB.D.k..X*XoX7X^.u.u.;.;.;.#X#XA.w.^ F.u.y.oXOX3XD.*.E.oXE.r.k.f.D.Y.D.8Xz.g.h.&XE.E.y.f.T.@XoXT.D.#X}  .E.A.D..X*XoXR.A.;.L ;.R.@XoX.XD.F.:.k.~.u.d.*XF.D.OXoXR.OXoX.X[.&X&X&XtXoXW.[.oXf. .n f.7Xw.k.~.R.D.oXoX].].H.F.OX~..X.XE.6.R.H.A.D.F.@.e.D.^.Y.D.Y.T.R.S.XXF.w.L  .=.h.A.y.N.].%.y.]. .",
"Q E ..&.o.y.} D.U &.*.q.e.5.B.N.e.g.k.A.g.e.e.y.g.g.%.U.F.w.k ;.S.g.N.y.e.B.y.e.A.A.f.g.D.g.f.y.*.A.Y.&.*.*.&.k.Y.g.k.f.} } g.D.f.y. .O.e.J.u.r.q.u.u.u.J.u.&.r.&.&.O.*.5.e.u.u.k.A.k.u.u.&.L B.;.D.g. .K r.e.q.u.e.g.A.g..XA.J.-XD.u.B.g.T.B.f.H.f.R.g.f.u.;.&.@.J.u.D.D.q.y.g.w.r.r.w.d.g.q.g.r.r.d.e.k.g.g.A.J.g.d.k.;.q.q.Y.*.} Y.D.D.g.R.D.r.R.~.J.oXJ.H.D..XR.].A.H.H.T.D.J.g.R.oXd.D.OXk.OX~.~..XJ.R.J.oX[.H.e.[.D.g.A.Y.u.u.F.D.J.F.R.OXOX~.d.r.oXoXoXOX].].2X2X].2X].@X@XT.g.D.D.J.H.D.E.J.Y.E  .Y.A.D.B.e.@Xe.t..X} Q H ;.^.D.~ ;.F.OX;.F. .^.*.q.D.*.5.D.g.=.,.,.,./ q &. . .;.;.;.J.~.k.OXOXA.O.g.E.R.e.O.e.oXR.g.r.,.>.k.*XoXoXoX9XF.D.d.r.r.;.k.k.^.w.d.oXd.r..X&.K &.D.A.y.A.B.h.;.w.k.d.Y.&.....w.;.;.F.w.r.w.r.k.s.g.d.*X*XoX#Xk.f.y.r.k.F.e.s.*.D.XX/.*X&X*X.XJ.F.J.k.A.O.O.e.;...;.&.e.R.oXD.q.*..X.XA.y.&.A.F.F.F.:.s.oXg.r.g.Y.D.[.E.D.g.B.OXF.q.OXh.g.].].J.Y.Y. .L Q e.^.oX].*X*XF.e.~.*X~.J.F.k.F.:XOXJ.F.oX-X@X&X&XB.D.U.OXoXy.A.f. .OX-XF.#X.Xk.Y.E.oX].@XR..X.XoXOXOXD.D.H.B.T.Y.r.w.D.D.D.g.A.Y.Y.A.~.S.F.O.j *.g.s.A.5.N.g.y.].e.! ",
"n :.:.;.q.o.O.g.u.e.g.*.&.g.D.e.N.B.u.e.g.f.g.e.g.5.%.T.k...L ~ D.g.D.g.5.D.f.g.y.q.q.q.f.f.5.6.} Y.D.y.A.&. .E.A.q.u.u.*.u.k.y.e.y. .;.w.k.u.w.g.&.N.A.e.e.A.r.O.q.y.f.O.Q &.r.A.u.r.A.k.g.} u.&.A.e.&. ...~ y.D.J.g.K g.D.B.oXH.J.J.O.g.g.D.D.B.B.].e.y.*.D.OXu.J.u.J.J.e.u.N.O.r.r.;.u.u.} f.;.k.u.O.D.D.D.5.u.r.D.r.k.&.s.f.Y.y.D.E.A.R.Q R.J.J.~.F.D.D.D.J.D.J.J..XB.D.R.B.A.A.E.D.Y.F.k.F.J.r.X.~.^.oX;.g.B.A.f.g.E..XY.OXR.D.k.e.A.R.XXOX>XOXD.r.OX*X.XoX3XH.2X@XH..X2X<X@XE.A.D.A.f..XR.D.D.oXy.g.E. .y.N.B.y.%.oXe.j } ..&.r.;.r.w.D.oXk.x.u.d. .;.e.g.g.D.q. .>.>.>./ ..s. . .e.>.J..XR.F.OX:Xy.} D.7X-Xu.5.u..Xd.u.*.k.;.r.^.^.*XOXoX^.OXk.r. .k.OXOX.X;.r.d.:.;.;.D.r.d.e.y.Y.[.g.g.;.e./.g.q. .F.;.;.:.F.;.;.k.^.e.g.F.*XOXoXoXR.#X.Xk...k.;.w.D.e.e.A.9XOXR.*XOXD.D.R.d.OXOXD.E &.;.O. .q.A.^.R.r. .g.Y.A.k.f.} ;.D.oX..k  .OXk.&.q.R.E.Y.J.E.J.g.d.q.e.*Xg.g.J.].D.~ ;.} Q e.z.Y.#XoXOXY.R.e.R.OXr.F.R.F.R.OXOXR.oX#X7X[.E.R.f.E.oXz.E.z.g.Y.g.oX-X9X^.d.k.U.Y.F.H.oX.XE..X^.e.z =XD.y.[.U.Y.k.d.R.D.F.J.A.f.g.g.;.k u.n U L s.! g.D.H.f. .].Q L ",
"d. .E ;.e.5.A...Q  .L } f.} %.e.N.u.q.&.g.N.B.e.5.f.s.e.J.;.;.&.N.y.g.g.y.B.B.g.u.e.f.y.g.D.e.%.&.} D.A.q.y.&.A.A.A.A.A.A.f.O...~ &.w.r.A.d.k.;.5.&.u.q.&.e.A.&.} y. . .}  .e.I w.;.O.J.e...} O.u.u.J.e.r.q.O.} y.S.A.g.g.%.e.A.J.g.H.J.g.g.B.N.D.H.].B.T.f.T.E.D.A.J.F.D.A.u.S.;.O.u.u.d.e.*.&.u.w...r.~.e...q.} y.A.q.q.e.e.r.g.q.*.O.} J.L Y.OXJ.J.g.g.D.A.R..XR.A.R.A.R.T.oX.Xg.oXR.oXD.y.g..X} k R.^.*Xf.oXe.e.q.&.oXOX^.Y.g.Y.*XE.R.F.J.oXOX*XOXk.Y..XR.oX&X-XR.oX@X#X.X@XOX*XR.B.y.f.E.A.&.Y.J.Y.J.oXq.e.'.'.'.%.y..X} Q w...r.&.^ F.F.F.k.r.k.^.A.~ &.D.s. .Q e.>.$.>./ d.k.d.g.f.;.*X#XOX:XOXF.e.A.OX*X.X;.&.A.r.&.;.q. .&.s.R.OXoXD.F.k.z.s.;. . .k.R.F.;.~ D.R.g.f.R.A.e.d.D.A.z.g.f.Y.k.F.d.&.;.^.r.D.*.e.&...k.^.F.-XD.g.OXoX*X>X~./.Y...d.r.w.F.D.&.k.^.k.R.-XE.Y.J.oXJ.^.#XD.;.D.*.q.;.;.u.^.k.w.A.E.d.u.oXd.;.U &.D.Y.:.~.:.>...A.Y.R.R.g.f.k.R.k.r.e.*.y.f.R.oXu.u.Y.e.k.^.D.^.D.R.E.D.F.w.r.r.;.k.F.u.E.^.OXOX.X.XoXY..XR.u.R./.V &.R.g.OXE.;X.XD.~.A.y.[.D.F.&X@XY.A.^.OXE.;.R.@Xe.f.g.D.k.u.R.A.k.D.g.f.g.e.!.F.F.~ n q.y.=.D.B.H.5.6.D.u.E ",
"~ U ..} ' A.5.~ D.Q } &.*.y.B.N.y.g.y.N.B.B.B.D.e.H.f.f.r.r.D.A.N.f.f.B.D.g.D.f.A.e.f.y.g.Y.f.e.g. .J.R.y.y.&.D.A.y.y.k.k.&. .g.q.e.q.q.A.k.A.q.O.&.q.&.e.g.u.O.o.O. .q.E H Q *.;.u.u.D.r.O...r.H.u.D.} w.~ N N O.A.A.&.D.e.e.e.J.f.H.].H.D.B.f.R.R.T.T.E.g.f.*.f.D.-XF.F.A.i.p.;.e.e.r.~.D.u.q.k.e.;.k.k.O.L r.y.g.F.u.g.R.d.k.&.Q f.*.&.A.A.J.D.Y.oXR..XXXA.J.D.Y.J.R.OXoXe.B.R.A.A.E.Y.D.E.A.~.&.U .X.XR.e.@Xg.A.F..X^.g.D.OXY.k.g.g.J.S.D.#X*XoXoXA.D.R.E.J.;X&XD.B.D..XOX.XY.#X@Xg.&.g.E.^.g..XD.D.k.D.D.A.}.].7.y.u.A.O.O.k.} w.....r.e.F.&.e.:XeXD.u.r.w.d. .} g.,.,.>./ g.s.:.:.y.d.oX#X:XOX:XR.R.5.g.-XR.r.q.A.A.R.d.A.D.k.*.g.8X-XR.-X^.OXF.$.&.;.A.F.d.g.k.^.D.A.D.D.q.*. .&.Y.oXg.g.R.OX;.;.r.:...s.R.:.s.g.:.r.A.F.Y.k.^.oX~.oXyXoXd.d.D.e.;.k.k.Y.oXR.^.oX^.*XOXA.F.R.D.J.A.f.q.D.} u.f.O.} r.u.u.e.e...e.#Xk.r.~ *.z.U.d.D.oXe.;.A.k.A.F.d.d.u.D.F.e.y.} ;.g.#X'.R.e.r.:.g.oX*X^.A.A.k.^.r.r.r.:.w.d.R.d.^.OXoXOX-X*XA.f.R..X~.J./.$.:.Y.F.D. .g.*XA...u.Y.U.A.D.D.Y.T.oXoX^.^.OXD.F.q.q.:.j.XX.XD.F.D.d.e.f.D.y.k.F.^.;.r.f.g.&.H.H.N.y.A.A.A.$.",
"k O.r.~ J.@Xt.q.pXk. .r.*.6.T.y.N.H.V.H.B.B.C.H.B.g.8.f.} ..A.g.B.T.D.H.D.e.D.A.A.t.u.f.g.g.6.e.q.q.&.A.A.$.Q f.A.*.&.z.Y.D.R.R.e.g.&.;.u.A.e.&.5.e.y.q.y.5.e.B.g.e.q.Q L q.Q Q O...e.;.O.e...X.g.].R.} u.g.O.;.A...A.Q u.A.#XD.y.g.Y.y.R.B.H.H.F.R.T.R.B.f.f.f.e.e..XOXR.r.p.i.5.N.q.u.F.J.u.y.e.u.r.r.;.r.O.q.Y.*.f.;.D.A.;.:.&.O.R.R.A.u.A.D.R.oXoXF.D.~.J.7XE.Y.D.Y.Q g.*.g.A..Xf.A.B.oXD.H.OX.Xg.D.H.g.5.&XJ.u.A..XOXd.A.^.R.R..XE.#X.XJ.oXoXH.R.A.B.J.oXJ.*X*XoXQ Y.R.J.#XOXJ.A.y.A.*XF.g.#XR..XA.J.D.A.r.|.].f.y.oXoXH O.U ;...~ ;.Y.F.Y.E &.^..XD.#X;...Q &.&.:.d.Q.z.j.Y.g.s.:.e.^.*X*X%X:X^.:.y.y.e.D.^.R.F.k.*X9XD.J.D.g.g.A.R.~.:X9X~.oXg.;.*.A.g.r.e.D.oXg.;.q.=.y.&.} &.q.g.D.D.D.d.A.;.k.~ :.e.E A.s.R.F.Y.d.D.A.d.g.^.^.XX9X/.k.A.y.F.k.;.a.F.k.D.^.U.oX:X>XOX[.k.g.D.d.A.F.Y.u.g.g. .q.u.u.d.;.O.&.O.E &.e.u.A.*.h.U.h.U.g.g.s.g.f.g.A.F.OX^.D.Y.y.y.e.r.f.H.f.d.e.&.:.D.z.z.^.R.d.q.r.F.w.r.k.k.F.F.F.oX7XR.[.#X*XE.OX*XoX^.J.x.k.D.d.D.A. .u.*XO.u.J.g.D.g.R.U.OXF.OX.XoXY.oX!.w.u.OX/.x.OXF.d.x.k.d.$.Q $.=./.k.k.k.g.&.g.f.f.@XN.y.g.OXe. .",
"h u.:XQ y.].8X&.9XE ~ Y.*.] &.f.v.N.N.N.N.B.M.y.g.N.g.6.q.} e.N.M.H.B.g.g.*.d.U.H.u.D.D.B.f.5.&.e.} q.A.y.d.q.&.q.s.q.g.f.e.z.:. .e.r.e.D.A.O.o. .g.u.&.g.o. .J.g.o.%.Q &.f.&.Q ..X.r.w.O.w.O...4.' } &.q.O.u.k.;.} u.D.F.g.g.oXR.f.g.R.H.T.H.H.J.J.].[.B.f.6.&.e. .A.#XH.p.S.p.N.q.A.J...g.A.O.p.w.&.k.u.u.u.r..Xu.&.g.q.d. .r.O.u.D.u.&.g.e.B.J.^.#X#X.X~.D..XoXY.J.*XH f.g.g.oXY.E.].g.oXD.N.u.J.D.A.R.A.e.R.A.r.J.J.oXA.k.oXR.OXoXA..X.XA.u.u.D..XJ.g.u.R.@XoX*X*XD.^.#XR.~..XD.D.q.A.J.:.&.].J..Xu.F..XR.k.'.C.7.H.oXR.U H r...F.F.F.>.Y.z.U *.E D.#XA.w.u.K *.e.;.>.>.>.:.h.D.oXD.z.oX-X@X%X>Xg.e. . .q.*XD.k.d.r..X.XA.D.Y.A.Y.^.~.F.k.L oX$.&...q. .f.D.d.y.f.Y.B.6.y.Q &.q.g.g.Y.z.s.g.*.D.&.;.;.x.:.n F.D.d./.R.F.u.F.x.z.D.!.F.eXd.w.d.R.d.D.F.p.k.j.F.^.&X8X>X7X>XY.D.^.z.A. .Y.R.Y.g.A.D.Y.g.~ ..e.O.A.R.e.k.;...;.*.$.f Y.OXr.k.*XD.g.D.E.F.^.!.oXD.e. .r.F.Y.oX=X/.z.k.&.$.D.&Xh.y.q.....oXr.....~.F.;.f.Y.8XOXoX*X^.E.*XOXF.!.OXF.x.k.;.;.g.A.J.D.e.e.D.@XR.A.A.D.E.D.oXOXR.A.E.>X.XA.k.F.F.F.k.R.F.k.D.k.&.&...Y.d.x.k.;.d.^.J.B.T.N.o.H.*Xk.B ",
"| k.:X .e.#XoX} D.~ y Q } =.%.f.4.N.H.A.'.C.B.6.H.D.@XoXD.y.T.C.N.f.=.%.y.g.f.E.N.y.g.A.A.D.B.e.O.t.%.r...y.Y.=.&.D.u.g.g.$.g.Y.H.J.N.} g.q.} O.O.O.g.D.g.q.e.%.]  .O.o.u.O.f.Q ;.u...;.A.e...p.H.N.}  .O.U r.r.;.O.w.e.u.u.D.e.f.A.H.g.].'.H.H.F.D.oX[.f.%. .] %.q.J.D.e.R.u..XG.A.J.g.r.A.e.&.p.w.w.F.d.q.A.e.5.5.f..XA.d.r.D.g.%.J.D.B.H.e.B.7XoXOX-XR.J.J.R.-XoXY..XoXoXoXE.E.f.A.oXH.D.2XT.A.F.R.A.g.g.B.R.D.e.;.k.k.F.~ k.Y.*XOXf.g.g.g.J.A.F.F.F.R.A.J.R.oX-XOXk.OXR.^.S.D.A.A. .g.D.g.z.S.F.S.F.A.d.k.#X'.V.o.y.D..XH U r.^ F.:X!.!.r.R.K e.q.w.J.F.XXF.*.} &.w.^ / ..>.g.U.e.E x.*XoX[.*X~.*.s.e.] f.^./.e.:.Y.F.k.D.A.f.D.g.D.7XL.w.| d.$.g.g. .*.A.g.A.e.A.D.D.h.B.A.q.g.D.q.y.A.D.s.g.d.e.k.w.;.:.m :.k.;.;.d.D.k.r.z.Y.oXOXk.XXF.;.u.D.A.D.;.F./.Y.k.oX=X8X:X9XOXD.A.s.s.q... .r.g.}  .k.q.&.....e.d.D.F.r.OX~ } ;.&.&.j $.d.;...k.h.h.D.g.d.oX^.k.-Xk.&.D.^.D.T.D.^ $.^.z. .*.z.e.$.e...r.k.F.>...;.u.&.d.D.oX*X&X^.D.^.*X-X*X/.!.x.k.r.D.r.A.N.D.*XJ.J.y.h.U.g.d.oXY.^.^.^.n Q OX!.D.D.~.Y.F.^.F.e.R.k.r.r.d.D.e.$.$.j.z.;.d.D.oX}.T.N.B.A.A.k.B ",
"H f.D.y.7Xf.} oXY.7Xq.Q Q Q Q ..B.g.B.f.T.B.f.%.g.g.U.U.B.f.f.e.q.u.q.u.r.y.H.H.s.y.r.$.g.f.f. . .g.:.z.y.g.A.$.d.k.g.].y. .A.J.y.B.T.D.g.6.q.} e.A.&.e.D.u.k.D.W ' f.f.5.o.%.e.=.y.y.Q } q. .q.u.D.u.~ &.w...;.A.f.D.e.*.D.k.q.k.k.J.J.H.|.'.C.T.D.T.T.y. . .e.O.} R.B.5.D.y.N.g.D.J.;.F.~.A.w.g.e.r.D.k.&.;.s.:.e.e.D.u.O.J.&.;.&.y. .J.k.r.O.;.F.d.r.k.F.R.-X}.'.].H.g.J.R.D.[.H.].oXoX%.I S.g.J.u.H.R.H.oX8XA.g.XX~.XXF.@.p.].@X].D.A.R.S.OXD./.F.F.F.[.A..XJ.2XXXu.F.J.k.k.g.J.#XE.oXOXoXD.A.k.A.g.A.D.f.[.-XD.5.y.E.E.L E &.*.^.oXk.e.E Q &.z.>X;.E ^ eXF.J.w.w.r.r.>.e.$.w...A.e.d.J.OX:X*X>XD.O.u.A.x.*XD.g.D.F.g.z.g...w.k.F.r..X>X9X-X>X*Xd.r.~ g.s.y.f.g.J.oXk.r.z.&.F.F.J.r.d.e.J.F.r.e.r.r.&.q.e.R.Y.D.g.u.Y.E.D.R.R.f.OXD.oXoXz.d.k.D.*XJ.d.u.d.D.z.7X7XeX>X-XOXJ.r.u.r.r.f.J.J. .r...U K O.e.q.y.D.E.A.D.5.' o.y.A.A...;.&..XJ.Q A.w.D.g.r.d.D.Y.Y...e.^.J.D.B.D.r.....r.;.e.U.s.OXz.d.R.*X-Xy.f.D.e.A.D.d.D.>XR.J.k.OXF.A.OXXXJ.A.A..X.Xk.h.h.oXOXF.R.k.e..XF.F.:.OXR.oX*Xy.J.].^.^.R.>XOXA.XXF.r.r.e.O.w.!.:... .e./.*. .k.g.oX2X@XH.N.H.R.&.*.",
"..Q  ...7Xe..Xy.~ R.r.~ H ..~ E ] 6.f.B.B.B.6.%.&.! 0.T. .Q &. ...e.u.p.O.S.S.].f.D.k.&.h.s.e.r.*.e.&.A.Q y.r.*.F.g.u.R.y.q.R.H.e.]. .F D.*.g.*.e.A.S.O.e.R.A.F.f.5.y.e.e.'  .T.y. .&.&.U } q.q.D.B.} r.k.O.d.F.R.D.Y.A.A.oXY.d.u.A..XJ.H.'.'.{.B.H.T.R.'.o.g.u.;.e.oXD.e.y.4.y.q.u.g.O.u.J.u.J.A.u.k.g...q...;.D.F.F.r.w.d.k.w.~ f.B.y.u.A.q...O.D.^..XOXR.R..X}.H.].].D.A.D.D.B.H.D.].oXU K A.B..XR..X.XR.R.R.e.R.7XwXF.S.u.~.R.@XoXB.N.@X@X#XY.F.S.F.k.Y.J.F..X].J.J.F.J.L.F..XR.oXD.J..XoXoXJ.~.A.A.oXD.@X@X'.H.].6.T.T.L Q &. .oXE.y.Y.*Xy.e.d.k.;.r.;.#X%XA.F.d...d.z.s.&.U ..F.F.>X#XF.D.F.D. .H u.^.-X:XR.k.d.g.D.D.:.~ d.k.u.D.k.*XwX*X!.R.J.r.u.k.D.D.y.f.A.D.d...e.e.k.k.F.F.D.d.D.Y.>.$.d.&.F.&.q.D.F.$.e.A.k.D..X@Xs.*.J.E.A.$.A.&.D.*XOXk.R.r.;.F.*X-X7XE.*X7X7XF.u.d..Xk.D.F.g.e.O.o.e.U } y.} } g.E.f.u.o.Q %.6.k.d...e.g.D.D.g.F.A.A.F.g.D.A.f.d.k d.R.D. .q.].x.r.$.j.x.r.D.^./.Y.oXD.*X*X*XE.g.A.R.^.~.e.g.oXOX.XR.OXF.J.d.k..Xg..Xe.L &.oXR.R.k.OXOXR.OXA.w.f R.r.r.oXR.A.D.g.k.k.>XR.R.F.F.!.r.r.u.w.k.;...F.F.D.A.A.D.E.OX'.y.T.y.5.R.E.L ",
"y. .K ~ J.8X7Xk.U U ;.~ ~ ;.E } Q e.f.B.N.N.4.%. .-.6.h.!  .y.6.&.;.O.u.q...J..XU.D.g.q.:.:.q.e.&.g.A.A.d.&.Q &.r.D.k.H.Q q.J.r.} t.K K R.g..XD.;.O.D.u.q.5. .J.H.o.5.f.6. .o.o.*. .y.f. .} q.e.e.R.Q y.~.;.O.F.g.y.g.A.A.A.R.oXA.D.J.J.].].H.(.D.].B.B.y. .u.A.F.J..Xg.g.y.5.%.e.*.O.f.r.A.F.~.D.e.r.r.} d.e.e.:.k.k.R.J.D.e.R. .e.&.y.e.R.f.k.F.R.oX#XOXD.D.D.@XR.].J.B.A.D.R.@X@XH.].-XA.D.@XJ.J.J.oX#XJ.].].5.R.#Xg.u.D.d.OX@XJ.R.H.H.H.J.#X^.A.S.!.F.F.J.~.R.H.].oXA.u.F..X@XD.D.A.R..XD.A.XX#XR.D.oXB.@X[.g.D.g.Y.y.q.L L k.q.&.A.*.;.D.*.&.!.A.O.F.J.#X:XF.A.d.:.:.$.:.g.A.D..XoX:XOX.XA.x.D.&.;.f.g.Y.Y.-Xq...y.z.Y.Y.E.D.k.;.e.r.E.zXOXr...u.r.D.A.A.q.D.Y.g.^.r.A.*.d.D.k.k.r.k.F.R.J.:.r.d.:.Y.F.D.R.z.$.^ ..r.oXoXD.y.f.s.D.g...g.&.;.D.^.^.D.q.y.f.r.OX7XoX*X^..XY.k.J.D.d.D.;.e.O.O.D.D.&. . .A.r.&.f. .&...Q 5.5.A.XXk.e.^.D.k.Y.D.F.A.J.F.R.D.f.F.!.^.f.q.O.} D.d.;.>.x.d.$.d.Y./.OX^.z.:X*XF.e.q.g.e.&.R.Y.g.^.oXd.w.R.OXD.;.r.J.J..Xe.D.R.@X&XR.D.OX^.J.F.q...r.oXr.r.^..Xg.g.D.;.u.&.k.F.^.F./.k.r.q.&.F.x.e.k.....R.oXf.A.E.H.y.f.R.R.q.&.n ",
"e.u.r.~ g.9XJ. .u.Q g.&.;.O.~ L %.y.g.f.T.f.6.6.g.s.f.B.! &.Y.U.g.r.;.A.O.J.J.].B.g.h.D.*.&.:.w.Q ..&.A.*.*.} ..w.e.f.H.5.O.A.H. .O.X.e.~.k.} ;.w.e.g.B.u.q.q.u.y.{ '  .e.o.] ]  . .y.f.u.A.q.' { 5.O.g.g.k.r.A.B.D.f.e.y.D.H.e.A.J..X].'.T.C.|.].H.q.u.H.^.u.w.A.A.R.q.q.e.B.B.g. .e.D.g.Y.f.Y.F.d.k.J.e.e.k.d.r..X..F.r.r.r.!.e.r.q.&.O.y.r.F.OXD.F.oXOX.X#X.XR.R.R.B.f.D.Y.Y.E.f.H.R.oX@XoXA.oXA.A.R.oXD.oX*X'.D.].B..XY.J.^.B.H.].N.R.#X#XOXoXOX~.F.F.k.F..Xg.g.D.D.d.u.u.~.D.g.R.D.g.u.e.F.~.~.OX.XoXD.e.f.A.u.g.g.t 6.Q q.R.z.Q f.f.D.&. .k.XXJ.k.>X*X#XOXA.r.;.&.>.:.e.r.d.^.^.^.7XOXOXoX:X-Xz.F.g..X>X>Xz.k.q. .g.E.A.D.R.7XE.f.g.g.uXE...^ e.R.y.u.A.g.g.A.E.D.;.r.q.d.F.^.J.q.F.D.oXR.w.d.r.k.:.R.Y.z.^ ;.*.O.e.R.D.q.s.Y.D.^.z./.k.e.>.x.d.d.R.g.;.g.s.E.oX9XOXOX*XD.D.J.OXk.e. ...;.q.&.*.}  .q.D.D.e.d...O. .Q &.&.O.r.J.F.;. .r.&.D.D.u.q.d.y.D.J.k.e.r.d.A.q.A.D.:.;.r.k.$.^ d.d.D.F.*X*Xe.^ ;.&.J.A.f.e.F.D.D.^.#Xk.J.F.:X#XF.k.R.D.u.d.A.D.&.g.^.OXoXF..X.XS.J.E.E.E..XoXJ.J.#Xg.h.OX^.OX^.R.R.F.k.r.O...Y.!.d.~ ..F.^.oXoXg.e.y.B.y.D.H t q.y.",
"U ..f.&.E D.-XF.D. .e.R.D. .%.q.%.6.e.y.H.f.y.N.B.T.f.h.g.B ! E.D.q.y.y.g.T.T.B.R.R.B.T.F.k.&.$.&.q.&.A.f.g.e.&.;.e.R.B.D.Q g.].e.K ..~.F.J.&.&.q.u.y.u.u.g.].J.y.o. .%.q.} '  .&.&.D.d.e.J.g. .y.&.y.D.q.g.e.D.D.D.B.D.J.R.J.u.H.R.H.H.'.'.'.].D.B.g.u.oX~.u.O..XH.#Xq.o.u.A.y.&.F.r.f.J.g.y.g.k.w.k.oXk.d.d.e.u.!...F.k.r.w...A.S.k.w.;.k.d.u.A.;.q..XoXoXOXY.Y.Y.oXR.Y..XY.D.R.u.Y.@X.XR..XA.7XR.k.A.E.E.oXY.@X&X].D.oXR.R.R.J.-X#Xe.H.7X-X#XE.&XE.D.J.J.A.&.H.N.H.D.A.OXR.oXD.A.R.A.q.q.d.*X:XF.OX.XoXT.e.g.F.;.Y.A.q.;X*.%.d.oXoXs.Q g. .D.A.oX9X*X-X@X-X&X~.D.&.;.g. .N $.*.g.OX-XF.D.>X^.s.oX*X^.k.OXOXx.Q ^ *.*.g.OX.XB.^.7XA.J.oXOX7Xq.k.J.D.eXf.r.g.E.s.g.U.f.g.A.y.k.g.OX^.D.OXf.R..XF.k.k.d.....r.s.k.k.d.g.e.d.g.y.g.g.k.s.E x.k.d.;.$.OXyX/.OXOXD.g.OXE.oXoX8XY.E.F.F.OXJ.e.;.;.;.e.~ ~ }  ...*.$.w.r.e...E ~ ;.e.;.@.F.7Xk.;.g.e.D.R.J.R.oXg.A.D.F.r.r.>XY.d.k.F.;.k.d.>.k.Y./.OXY.z.D.g.r...r.w.e.k.F.*.q.F.oX~.R.J.OXF.A.OX.XA.H.R.D.oX^.R. .r.z.R.^.F.J..XR.J.A.E.OXR.R..XJ.~.E.U.T.oXoXr.g.OXF.D.g.u.r.g.s.k.k.D.:XR.Y.-XA.r.D.g.y.J.&.q.oX*.",
"d.L &.L ~ d.9X*XB.f.D.y.o.g.&. .5.y.y.B.B.N.y.H.D.B.B.T.E.n E s.U.g.*.J.g.T.[.[.D.h.f.T.Y.R.u.&.f.H.g.u.D.e.q.O.O.A.R.u.A.5.g.A.u.r.w.A.~.D.e.d.F.d.A.D.y.&.e.R.H.y.y.e.5.&.e.! y.g.R.q.} &.e.S.y.y.e.B.g.g.f.F.y.g.D.H.J.].].].T.T.A.H.].|.'.N.[.R.%.f..X^.F.O.R.e.H.q.q.D.D.u.e.J.J.&.A.R.y.e.....e.k...u...;.O.;.r.F.!.k.k...S.l.r.k.k.oXF.D.E.D.A.OXoX^.^.E.^.R.^.oXOXoXD.A.A.Y.D.R.].H.#X.XOXoXoX^.F.A.^.7X[.g.@X6.f.D.A.J.e.u.D.J.#X*XR.oXB.h.B.[.A.A..XD.D.g.oXD.&.J.E.oX@X].R.H.A.F.J.OX*XF.D.D.*XB.R.H.D.D.^.Y.Y.R.*.A.e.Y.r.g.R.e.&.>Xg.R.gX8X[.R.3X&Xr.J.u... .&. .$.q.E.*XR.q.;.F.D.e.R.-Xk.e.k.k.:.*.q...e.oXoXD.D.y.d.A.OXoXE.9XJ.k..Xk.-XF.y.&.D.s.D.A.D.-XOX*.g.f.OXD.d.D.g.F.F.F.F.k.>.&. .$.&.>XR.&.r.A.F.g.g.e.s.k.d.r.k.w.w.>.d.*X:XOX-XoX*Xg.D.7XA.q.OXU.U.F.F.F.oXJ.k.k...d.;.O.e...^ :...} ~ e.r.;...;.F.!...k.9Xe.r.oXd.D.D.d.J.F.A.k.R.r.e.-XR.R.q.r.F.r.e.s.z.Y.*X:XOX^.Y.R.~.r.!./.r.Q  .g.D.OXE.D.^.oXR..X.XJ.D.-XR.R.oXoXJ.R.^.w.;.R.R.R.R.e.D..Xr.e.H Q OX^.^.A.~.R.D.s.Y.OXy.d.^.F.D.u.A.D.x.g.Y.:XJ.F.J.~.J.r.A.A.u.D.f.D.Y.k.e.",
"k.F.R.A.L ;.O.d.y.y.g.o.O.A.t.u.y.N.N.H.Z.Z.M.C.B.D.C.D.OX .$.=.q.&.A...q.U.T.T.D.U.[.[.*.;.w.&.B.g.g.A.' y.g.e.k.u.q.B.R.D.A.J.r.r.u.d.u.q.F.k.D.r.k.A.A.D.g.H.H.T.5.} r.A.g.&.A.J.g.q.e.e.A..XB.6.e.T.g.g.A.*.C.R.H.&.u.#XR.5.C.'.R.T.T.'.'.N.f.D.5.Y.D.F.D.w.H.5.u.u.q.O.O.e.e.A.B.g.D.H.T.&.>.x.!.!.;.k...k.w.p.!.w.w.k.!.F.k.j.p.F.u.F.D.oX#X.XR..XE.Y.oXOX^.J.Y.T.R.Y.k.k.e.E.D.R.@X].-X].#XJ.k.R.#X#X.X*X-XI @X].D.A.D.R.R.g.A.k.D.R.Y..XY.D.B.D.H g O.J.D.Y.E.Y.=.g.R.E.'.@X].].J.R..X~.D.k.D.R.-Xe.H.f.r.k.D.q.*.;Xo.e. .r.~ D.eX . .R.#XR.oX8X2X[.[.[.F.r.&.q.&...$.,.B.D.Y.g.&.d.F.&.e.g.e.:.e.k.k.k.e.s.*.s.U.oXE.*.Y.g.D.oXOXoX7XoX..w.r..XA.y.&.D.*.e.Y.g.oXf.q.q.f.Y.Y.r.f.A.F.r.D.oXR.oXR.R.k.e.u.D.e.k.F.Y.k.A.g.g.r.>.F.k...r.$.F.k.k.*XOXe.D.Y.oX7Xy.y.R.A.^.x.l.*X#X^.D.r.k.k.~ ;.;...F.k.r.&.~ w.R.^.r.j.x.k.F.k.k...;.k.z.y.u.g.R.Y.F.k.F.e.^ -X8XD.r.r.k.z.e.Y.oXh.g.k.&.D.*X^.OX!.:Xr.w.R.R.OXY.E.E.R.XX7X.XR..X.XB.].D.r.&.Y.E.R.^.F.} ^.Y.d.A.O.D.oXA.g. . .r.L k.^..XD.@XT.OXoXk.k.XXF.F.d.g.d.Y.^.oXF.F.F.~.#XR.y.r.q.&.J.u.q.Y.R.s.",
"L ^.D.R.r.J.^.w. .J.u.t.S.t..XS.7.y.N.f.Z.Z.C.Z.B.f.D.D.g...g.! ~ ..e.w.r.d.D.D.h.T.W.B.y.r.k.k.6.&.y.q.e.B.e.&.A.g.E.g.D.%.D.J.r.e.r.e.&.&.F.D.Y.k.A.D.D.B.y.B.I.N.y.u.k.u.u.}  .o. .y.q.q.R.A.f.%.=.g.oXR.g.A.T.g.g.y.J.#XH.B.'.T.D.B.C.|.}.N.R.H.H.R.^.^.D.r.=Xg.5.A.A...} r.O.e.g.H.R.B.e.y...j.r.F.!.F.;...u.r.F./.F.l.j.!.k.k.k.k.k.^.[.[.@X#XOXoX-XoXOXOX^..XE.U.R.oXY.D.Y.D.E.oX].H.oX.Xk.F.F.~.OX*XY.R.g.&XB.B.Y.D.D.oXoXA.R.#XR.#XoXE.D.E.B.J.q.#.w.S.D.J.&.f.A.oX[.D.T.].g.g.D.oX#XJ.~.oXoX#XoXe.R.H.;.r.;.D.g.-XH.%. .e.r...e.^.*X^.#XwXwXwX-X&XT.].e.q.&.A.k...^ ~.OX[.g.*.A.*X^.;.*.E.:.k.:.x.k.F.y.f.} *.D.U.Y.e.oXOXA.OXE.7XJ.oX/.&.d..Xf.H.g.D.g.:.D.h.*.f.D.y.s.f.tXOXY.g.A.q.D.k.D.OXd.r.F.R.!.J.R.OXr.g.Y.D.Y.r.d.w.k.F...r.>.z.x.F.k.Y.oX*XJ.*X9X#XU.g.g.g.x.F./..XoXw.r.k.;...;.k.;.k.j.>.;.&.;.k.~.F.F.>.j.!.;...r.k.r.;.f.y.F.A.D.d.r.k.d.e.D.Y.D.f.w.k.g.z.oX@Xg.*.&.;.Y.R.^.Y.!.k.^ a.^.k.oXoXoXoXJ.D.R.#X.X].N.#XJ.J.D.g.D.D.^.k.w.k.R.OXe.k.u.R.]..X[.E.oXoXA.A.k.k.y.s.D.y..X~  .;.x.F.R.F.*.s.R.oXJ.F.~.^.OXD.e.E.A.q.*.d.&.D.*XB.",
"..L.].J.J.^.>XU...~ ;. .f.[.&XD.4.8.v.V.C.M.N.B.T.C.g.! ! :.A.u.s.&.U.U. .r..XH.Y.Y.D.q.R.B.g.H.u. .} g.q.O.&.o.u.5.e.e.u...Y.Y.A.d.k.g.y.Y.T.Y.Y.d.J.d.g.A.g.A.B.B.g.D.e.O.p.;...&.g.&.q.q.y.y.A.;.e.&.d.*.q.g.g.F.g.g.oXY.oX[.A.].A.M.{.'.'._.F.F.g.Y.E.k.F..XJ.R.g.e.d.N K j.*.r.A.F.e.J.g.e.&.yXR.n J.u.u.F.k.F.d.Y.OX.XOXOXD.@XD.A.J.A.F.OX.X.XoX@XoX.XoXOXoX^.E..XR.J.*XOX^.e.E.E.oXoXE.@X].].-X2X-X].].].A.D.g.g.D.T.T.g.H.T.@X@X[.[.[.T.R.R.;.D.g.D.u.H.f.F.f.D.Y.D.*X*XoXJ.q.Y.9X.X7X-X&X*X#X*XF.d.E.D.A.S.J.F.#XwXO.X. .A.;.u.^.-XA.g.R.R.@X#X[.@Xf.g.;.e.r.&.&.U O.u.z.oXoXr.E.&XoXf.r.F.^.oXF.XXk.w.} Q q.f.g.oXF.u.>.k.R.oXA.e.D.oXR.B.u.D.q.A.A.f.f.y.f.f.q.^.^.&.f.Y.oXoXD.A.D.D.Y.D.e.>...;.;.>.s.oX^.x.Y.F.k.k.r.r...;.w.#XD.r.f.A.d.R.e.D.F.R.D.s.z.^.^.OXg.y.g.D.g.eX:XF.^ >.O.o.t.'  .Q d.s.@.~ ~  .d.d...r.y.s.e.R.*XD.z.d.F.r.d.d.u.f.A.OX^.oXY.&.r.k.d.J.*X&.:.k.r...| F.oXR.H.R./.d.r.:XY.*.z.&XY.Y.Y.d.s.F.R.J.oXoX#X.X-XOXR.J.A.>.l./.R.E.B.f.D.R.F.u.k.F.A.R..X.Xp.l.g.A.OXR.R.D.d.F.F.F.F.F.d.k.*X>XXX@X#XJ.Y.D.D.F.g.g.A.D.g.9XOX*.",
"} J.2XA.u.J.U.E.O.w.^. .}  .D.e.4.Z.H.(.V.M.B.H.f.f.h.e.E E z.A.A.=.U.E.k.O.N.].D.D.T.U.f.B.e.H.u.A.K } y.A.f.D.g.N.u.r.e.*.F.Y.g...*.f.Y.f.6.A.A.d.J.e.u.R.D.A.y.H.D.g.q...w.r.&.y.g.q.=.Q *.e.r.A.A.g.e.*.g.g.A.J.A.q.D.R.E.U.].J.H.H.}.C.V.{.Y.E.D.D.f.&.r.F.B.f.A.e.;...;.@.D.&.u.J.w.g.D.J.Y.uXwXq.q.u.F.~.XX!.k.g.q.f.oXR.g.D.g.R.OXR.D.S..XoX.XR..X-X-XoXE.E.D.E.E.E.Y.D.D.u.Y.D.D.Y.R.R.H.D.H.R.].@X].R.oXoXoXoX[.D.B.e.'.'.@X@X|.'.T.C.F.D.g.E.oXJ.g.B.Y.E.A.OXA.oX-XD.^.R..XF.E.*X-X@X&XOXD.K J.R.A..X.X#XJ.u..X#X..D.} k...;.g.D.g.D.oXH.R.A.g. .n g.;. .q.......k.k.g.d.F.&.f.>Xq.r.;.;.e.r.^.R.^.!.A.g.y.f.k.R.B.k.:.d.D.].D.f.F.^.#X#Xy.q.f.y.A.A.y.g.D.g.D.s.D.^ g.A.D.E.oXE.R.D.F.d.&.:.!.D.;.w.z.R.F.oX*XF.k.F.w.r.r.e.r.OX.XD.wXR.k.E.k.e.r.g.e.&.D.OXA.A.E.A.A.k.D.>X:Xr.w.w.H.U  .}  .g.r.s.k.k.r...&. .E :.s.e.g.Y.-XY.D.D.D.k.F.Y..XOXF.f. .E.oXr.r.F.D.D.g.:.g.&.&.;.;.a.R.J.D.E.^.eX/.k.z.h.&X^.U.z.x.x.^.-Xk.g..XOXJ..XoX>Xk.;.r.a.!.l.D.T.[.R.D.Y.E.Y.k.^.R.F./.#X/.XXg.*.E.*X^.k.D.*XF.R.R.F.g.D.>X>X.XoXoX*.*.D.R.F.oXR.A.g.D.OXA.D.",
"u..X3XB.~ E.*XU.e.E &.*. . .f.y.8.H.(.H.V.Z.B.B.U.] -.*.B B &.;...y.D.&.e.u.A.f.R.D.D.E.5.R.y.N.e.J.e. .O.D.B.g.q.A.u.u.;.q.g.A.H n  .*.Y.f.6.6.e.y.J.r.f.F.A.g.B.B.D.g.&.w.k.u.&.q.D.g.&.~ ~  .~.R.f.E.D.r.D.g.D.R.oXJ.T.H.T.@X#XH.].].].V.V.}.f.R.Y.J.k.r.r.O.A.k.D.d.k.k.w.k.&.*.D.F.k.A.D..XR.A.^.J.g.D.d.w.A..X^.R.D.A.oX*XOXD.y.d.A.D.J.J.J.oXoXR..X-X-XOXE.E.E.E.*X*XR.Y.A.J..XY.D.D.Y.D.B.H.oXoXR.oXE..X.X.XoX#X@XH.R.T.T.'.[.@X}.}.[.[.F.D.d.R..XH.B.A.Y.E.A.D.oXD.E.J.D.^.*Xf.q.OX.XA.T.OX*XH q.#XR.OXR.R.R.J.7XwXO.g.E k.w.;.*.R.OXg.D.].OXOXE. . .s.}  .y. .&.g.^.D.z.r.....A.-X*.&.O.F.F.d.~.D.^.F.g.y.e.u.y.A.B.u.:.d.F.R.A.f.Y.OX.X#XJ.A.d.q.k.f.B.B.N.B.q.&.e.&.A.y.q.A.E.A.g.D.D.D.R.Y.^.k.d.r.d.oXoX*X^.d.F.F.k.F.oXF.F.oXoXd.#XOXF.k.y.d.k.e.^.oX7X*Xf.;.Y.A.k.d.k...Y.XXeX;.e.&.u.g.Q  .g.y.F.k.e.r.r.Q E F.g.s.:.z.^.*XD.Y.A.F.oXoXoXoXY.g.n g.^.^.D.D.d.k.Y.F.R.k.k.k.l.k.E.^.r.g./.:Xj.x.e.Y.=Xz.R.~.Y.Y.OXoXF..XR.^..X.XR.R.k.D./.k.r.j.oXA.Y.Y.D.oXOXE.F.F.J.^.OXJ.L.OXA.q.R.oXY.u.d.R.Y.^.^.R.A.D.oXE.A.Y.#X*.H g..X#XoXR.^.k.D.uXOXA.",
"r.-X2XoXL r.8XuXk. .*.q. .e.r.e.Z.(.H.H.H.Z.B.N.s.] R.U.! Q  .d.k.A.*.L O.S.J.].R.B.g.B.%.D.f.e.u.y.oXu.O.O.t.e.e.d.u.A.;.q.r.u.&.H  .&.u.&.e.D.Y.g.D.k.A.D.D.J.D.R.B.e.A.k.q.k.e. .g.f.&.&.} ;.R.A.&.^.^.;.e.e.e.H.@X@X].B.D.oXH..X'.N.@X'.M.].k.D.g.A.J.J.^.D.A.;.r.D.r.k.k.r.y.u.g.w.J.-XR.N.Y.E.F.R.A.d.A.~.k..XoXoXD.*.&.f.#X^.D.A.D.J.R..X]..XoXoXoXoX.X^.Y.D.^.D.oXOXoXE.oX.XR.Y..X.XD.g.B.B.H.]..XoX@XoX].J..X.X.XD.].].'.'.'.'.'.'.T.T.E.Y.u.F.A.H.D.R.D..Xg.;.>XF.J.oXU.oXA.A.A.~.oX^.OXB.*XD.d.*X*X@XoXD.D.u.XXwXO.A.F.Y.&.&.q.D.oX].@XY.E.y.D.^.k.g.d.u.&.Q &.r.D.oXd.r.k.;.F.Y.&.;.r.k.k.J.^.k.e.r.*.A.D.u.Y..Xu.u.r.A.R..XD.g.[.=XR.oX*X^.e.d.r.g.H.B.B.Y.$.e.&.e.J.J.y.u.F.Y.D.g.k.k.^.R.D.g.z.s.k.OXoXoXR.^.#XJ.~.F./.k.F.oXeX^.^.OXk.F.k.k.;.e.r.>XeX^.Y.k.g.y.A.A.A.j r.F.F.r.d.D.g.g.n 9 e.g.;.r.;.r.k.;.~ ..:.k.:.&.g.*XY.s.A.E.*XoXA.g.D.oXh.oX^.oXF.g.D.^.OXOX.X^.^.R.F.!.z.D.z.r.r.k.k.k. .$.:.:.^.R.Y./.J.k..X*XJ.D.*XR.F.Y.Y.F.oX/...r.E.g.D.A.g.Y.D.F.D.J.oXR.oXA.S.k.g.F.^.D.oXoXY.R.~./.oXR.D.D.R.J.OXD.Y.D.&.E.#X7X*XD.J.A.y.9XoXA.",
"u.2X2X8XA. .g.oXOXg.oX;.O.e.u.r.N.(.H.(.(.V.H.'.T.B.}.B.&.Y.A.R.D.q.O.w.k.A.u.H.D.A.D.D.g.5.g.B.D.q.q.d.D.Q O.D.J.d.F.~.u.e.S.g.d.*.*. .y.5.5.H.E.g.D.D.R.R.D.A.H.B.].R.D.u.;.f.o.I o.e.e.u.A.R.A.d...e.J.r.w.e.&.D.R..X].R.R.D.y.J.'.H.].'.].C.E.Y.A.R.F.q.e.g.7XOXk.d.e.k.F.r.Y.g.Y.A.A.R.R.u.q.OXOXA.g.e.f.Y.J.D.D.U.s.q.g.h.r.D.F.D.Y.R.D.D.#X.XR..XoXoXR.Y.E.J.OXOXE.*XOXJ.].H.T.H.J.D.u.H.Y.D.A.D.E.A.*XOXA.A.J..X.XR.oXY.].].'.'.].'.R.R.R.E.A.E.D.E.R.H.R.oXD.d.Y.#X2XR.} Y.y.u.R.-X9XOXoXg.Y.Y.B.B.&X[.Y.D.H.N.8XyXU H.F.Y. ...A.F.R.#X7XuXOXy.d.A.k.^.e.D.;.} r.k.D.g.g.OXF.A.OXy.D.w.;.} ;.F.A.D.q.A.D.D.oXD.Y.OXk.;.d.k.D.J.D.D.[.oXOX>X^.e.e.k.r.R.U.f.A.d.*.>.g.$.D.A.q.f.E.Y.A.B.r.k.d.k.d.e.:.h.R.^.~.OX^.oX.XJ.F.k.R.^./.:X9XOX>X>Xk.Y.oXF.>.d.k.:X*Xr.D.D.d.A.A.e.oX&. .k.!.r.x.r.;...q.u.J.A.q.r.e.F.~.d. .^ d.:.r.z.^.! e.Y.U.oX@XY.g.u.A.E.B.T.B.u.u.d.^.^.F.Y.A.g.F.F.R.!.x.x.k.r.k.k.e.w. .R.^.d.d.F.F.e.F.R.R.J.oXR.^.R.Y.R.D.F.R.*X....D.k.Y.D.E.&XE.oXE.F.J.F.OXR.~.p.e.J.R.d.^.#XoX.Xk.g.k.k.A.R.oX#X9XD.A.oXD.D.oXoXE.D.A.A.g.pXOXoX",
"e.H.3XR.g.&.^.uXA.f.E.*.;.A.g.A.C.H.V.H.(.V.H.].C.T.'.'.e.g.y.A.J.A.D.e.A.S.].'.D.g.F.R..XO.u.A.A.d.L A.R.} t.u.D.e.J..XJ.k.R.A.=.f.e.*.Y.D. .y.f.f.D.k.A.A.A.g.N.H.H.D.D.e.O.J.B.g.y.H.D.q.D.D.u.e.&.r.oX^.k.r.u.D.A.R.R.R..XH.y.H.+X@X[.T.@XH.Y.R.g.k.u.&.y.J.F.#Xk.d.D.R.!.oXoXg.k.e.u.H.D.y.q.g.oXD.E.E.y.e.D.D.D.D.D.U.A.y.r.F.J.A.Y.oXE..X.X].R.].oX*X-X*X*XE.A.Y.*.OXOXR.oXoX@XoX].J.D.8XoXE.E.R.E.y.oX@X^.E..XoXJ.F.J.r..X@X.X.X+X+XoXoXT.T.Y.E.oXY.E.A..XR.oXJ.D.H.-XD.R.R.q.e.A.d.A.-XD.oXE.R.5.e.@X[.R.e.y.B.8X8XQ H.$.>.e.A.R.#X#XR.Y.qXY.oXoXf.k.Q e.x.k.e.&.q.h.g.F.F.F.d.Y.z.e.:.O.} k.k.u.D.d.F.A.k.r...D.E.q.q.D.J.F.A.u.g.].[.oXoXF.:.z.D.D.q.k.z.z.f.z.k.-X:.q.r.f.D.R.B.g.A.p.k.u.d.q.g.g.g.F.^..X#X.X.XD.J.~.R.R./.^.*X9X>XR.oXk.e.Y.l.r.r.u.D.^.A.A.A.u.g.^.R.D.Y.R.;.e.D.l.k.:.&.&.e.q.A.e...>./.!.r.^ w.D.D.Y.Y.D.L s.U.Y.OXU.A.D.A.g.A.f.g.D.A.D.J.OX^.D.q. .O.Y.Y.OXR.k.~.k.k.k.r.$.R.>XR.e.;.k.OXXXY.D.OXA.k.R.^.A.R.E.Y.s.oXR.R.&.e.r.d.d.y.A.[.U.E.R.R.OXOXR.u.OX:XA.D.oX.X.XE.oXoXR.D.D.D.D.D.A.D.oXT.OXR.A. .T.@XoXD.g.h.g.9XD.f.",
"r.q.8XE.g.A.E.B. .D.E.&.%.B.A.N.B.C.M.G.H.H.H.H.[.T.B.T.&.*.&.D.A.B.Y.g.F.S.H.H.A.f.g.Y.H.u.y.q.d.d.Q F.A...S.q.5.t.J.F.R.F.R.A.h.h.f.e.J.D.5.A.A.D.J.e.q.u.Y.R.D.u.u.u.y.e.u.H.R.D.A.H.R.B..X#X).g.O.e.u.F./.XXg.A.A..XH.A.J..Xe.@X@XT.2XT.N.+XY.OXY.R..Xu.e.g.D.k./.7XoXR.R.k.D.A.A.O...r.D..XD.y.J.k.D.Y.g.J.d.E.oX[.&XoXg.f.r.k.R.D.D.E.E.R.R..XoX.XoX#X-X:X.XOXE.-XD.*XOXD.[.[.B.H.@X@XH..X.XA.J.D.@XY.[.Y.J.Y.Y.oXD.R..XF.].@X.XR.'.'.T.R.E.D.T.Y.E.D.E.J.R.J.oXD..Xg.R.R.F.R.Y.R.*X^.D.oX=X;XR.oXg.B.[.@X@Xg.f.oXqX3Xy.'.:. .s.F.D.E.oXR.u.A.9X>X.XD.k.$.e.*.R.OXA.~ K e.A.Y.R.~.R.g.D.F.A.;.u.A.R.A.w.r.r.e.;.*.k.D.D.q.R.oX.XJ.k.D.@X&XF.x./.F.F.F.R. .$.y.s.y.d.R.D.$.O.D.R.D.A.R.[.A.F.u.r.:.:.U.E.*.J.#XF.^.@X2X.XR.F.R.R.OX*X-X8X*X/.!.x.x.!.d.d.l.OXoX#XOXA.g.A.D.e.^.R.D.D.*.f.A.j.r.~ D..XO.*.y.*.e.F.!.w.r.:.d.^.F.D.Y.s. .s.U.B.Y.y.y.Y.D.A.E.@XH.R.R.D.F.R.^.Y.O.H e.^.E.oXY.F.k.>.e.d.*X^.D.F.d.F.k.x.Y.k.z.k.J.A.D.A.D.D.D.Y.R.z.Y.g.D.F.z.k.Y.R.s.*.f.U.U.oXoX^.Y.Y.R.#Xk.w.d.R..X^.D.E.oX~.R.^.R.^.oXR.R.oXE.*XD.J.6.'.@X*XB.e.A.E.-XE.-X",
"r.u.;X[.=. .&.g.D.^.F...B.o.u.N.y.H.H.H.H.V.H.'.T.T.[.R.&.D.y.A.F.H.H.D.J.F.B.H.Y.T.A.R.e.oXA.e.D.&. .k.A.q..X.X5.A.J.r.D.R.E.Y.D.B.D. .} D..XD.R.J.F.d.k.D.J.k.A.N.r.y.y.q.e.A.J.e.R.H.@X.XB.R.].N.O.D.D.OXOXk.u.D..X.XD.R.J..XD.D.@XT.T.T.D.A.OXoXA.~..X&.O.D.J.r.u.F./.OXR.Y.A.w.F.A.;.u.~.].A.R.#X#XoXJ.D.T.F.J.OXoXD.g.h.h.p.k.oXoXA.Y.oXoXoX.X.X.XoX.X~.J.oX-X*X.XD.Y.OXY.D.&XD.R.oX].J.H.oXD.OXY.E.oXR.[.D.J.R.-XD.^.oX.XH.].'.T.'.[.R.'.OXT.D.@XE.Y..XoX^.E.D.J.oX@X.X.X!.oX!.F.oXoXoXU.W.*XE.=.B.T.T.T.B.oXf.R.-X].y.T.^ d.d.Q f..XD.R.e.y.7XoX.Xk.k./.Q  .D.k.A.y.n e.D.D.R.oX-XY.oX~.u.J.J.F.~.R.k.k.;.Y.k.k.R.D.E.q.f.D.J.^.~..XoXT.k.~.:Xx.d.R.F.R.g.z.F...&.oX&.&.u.*.&.f.D.A.D.D.S.F.A.;.:.e.s.*.R.9XF.J.J.D.D.R.^..XR.Y.oXoX-XR./.l.k./.Y.x.j.>.k.R..X>X^.R.oXR.D.F.*XY.F. ...q.r.F.;.;.D...D.*. .;.Y.F.^ :.:.k.F.k.~.k.s.*.s.e.y.y.Q *.oXJ.D.*XoXD.H.E.D.E.R.^.R.g.} OXR.[.T.U.j.k.k.D.XXJ.d.R.~.r.^.r.J.XXk.R.^.~.R.F.E.Y.oXR.d.s.U.U.D.^.Y.y.F.Y.Y.g.q.D.&XU.Y.Y.oXOXY.d.F.;. .F..XJ.#XoX].oX#XOXoXF.Y.XXR.R.E.oXOXD.H.H.T.}.s.*XE.g.*X*XR.uX",
"y.,X@X'.XXl.>.F.XXk.#XoX&.A.E.E.Y.g.D.D.H.H.'.(.U.U.'.oXf. .>...e.h.D.q.D.y.D.R.U.T.h.U.f.g.y.B..Xk.O.~.g.H.g.6.i.S..XR.H.A.H.'.D.A.u.&.w.F.u.F.].T.D.D.R.A.D.A.M.M.Z.M.N.g.u. .S.;.u.k.&.g.q.A.E.OXe.H.-XY.f.e.D.s.D.F.Y.J.R.R.H.T.].}.{.].H.u.J.d.oXoXR.g.w.r.J.R.R.A.D.J.f.A.k.r.A.g...R.E.F.F.XXk.^.F.F.k.A.A.e.Y.q.K d.u.u.E.E.Y.A.g.A.Y..XE.E..XoXOX~.F.F.Y.oXoXD..XD.A.;.@.~.J.F.E.E.oXE.r.f.oXoX^.E.@XR.D.Y.D.Y.E.Y.oXY.R.OXE.Y.oXoX^.E.].H.].].E.R.D.A.R.#XD.D.7X2X[.qX*X].R.@X#X'.H.H.g.f.R.$.F.D.*.Q &.*Xg.g.=XB.%.3X;.k...J./..X.X2Xf.k.#X^.d.r.*XF...&.e.d.e.A.e.w.D.g.^.oXY.F.z.z.q.F.F.;.D.~.F.k.r.x.>.g.R.U.g.w.k.F.E.D.#X.X#XA.F.F.w.OX#XR.oXA.B.g.g.&.K e.r.K q.e.e.e.A.g.A.J.J.D.E.R.oXr.r.g.d.*X:X!.k.x.Y.x.].R..XF.F.*X*X~.x.z.z.D.F.g.D.e.j.F.^.oXD.Y.~.F.r.k.oXk.F.>.r.k.r.oXD.&.w.k.k.&.r.w.^ e.} L ..w.s.h.E.z.D.D.R.r.D.d...w.F.F.k.D.g.D.oXoXR.E.oXE.d.Y.k.F.E.D.].R.E.].g.R.J.u.u.r.!.~.F.F.u.OX#X~.F.x.~.R.R.H.A.A.&.D.D.A.A.u.&.O.z.^.*X..d.XX^.~..X@X@XB.J.D.A.B.E.E.-XoXoXoXR.@X>X8X*XR.R.R.Y.Y.].M.H.H.r.F.d.$.z ]..Xq.T.;XD.>X",
"N.,XM.'.7Xr.l.k.XX!.F.OXg.J.A.A.T.g.g.B.H.T.H.T.T.D.].H.f.g.k.k.g.f.g.&.g.s.g.D.f.h.W.e.H.D.=.H.~.e.r.A.&.e.%.=.A.A.F.]..XJ.H.H.E.g.u.r.d.F.F.oXoXH.g.g.D.B.D.A.M.M.y.M.B.g.y.;.w.u.J.u.&.*.y.A.oXoXY. .g.D.d.y.d.k.A.D.E.E.E.^.oX+X+X'.H.].].R..XA.D..XR.F.r.F.J.A.#XoX#XY.y.D.~.F.^.d.&.D.D.*.XXF.k.F.k.k.~.J.d.A.g.F.R.^.E.A.k.Y.E.E.E.Y.D.D.E.oX.XR..XoXXX.X.XR.OXF.E.J.A.A..XOXF.J..XE..XoXD.H.E..X.XoX@XY.D.T.D.Y.E.A.Y.D.R.*XoXE.E.oXoXU..X@XoXJ.H.D.E.E.~..X#X@XR.H.@X@XU.*XR.H.3XA.J.J.oXD.^.u.D.D.F.E A.D.g.D.2XH.5.=X:Xr...k.wXA.#XR.%.y.OXF.oXk.k.r.u.d.e... .e.r.F.u.z.R.R.g.:.:.k.u.k.F.k.F.R.>.d.F.!.F.D.[.@X].A.r.D.Y.D.oX.XoXJ.w.F.wX>XOXJ.J.J.f.A.f.D.r.e.;.r O.F.^.F.e.R.R.t.g.D.&XE.oXD.g.*.F.>X*X!./.~.~.F.D.A.R..XY.R./.OXF.Y.R.^.oX^.^.k.r.r.R.oXk.k.x.!.u.e.u.:.F.;.| ;.r.D.r.e.e.;.r.w.F.F.} w.O.O.~ ;.h.Y.^.R.x.d.R.F.F.!.k.k.A.F.F.F.g.oXg.oXk.D.oXoXk.x.r.g.Y.Y.R.D..XR.R.E.Y.D.;.;.x.k.R.k.k.R.*XF.r.F./.OXJ.].B.g.Y.g.Y.D.D.k.e.A.^.z.*Xx.d.x.^..XD.R.oXD..XA.J..XE.OXoXoXoXoXY.OXOX-XOXE.E.^.Y.U.H.T.T.R.A.k.F.&.' J.u.y.;X;XU.D.",
"C.(.'.+XoXx.eXF.XXF.;.r.g.oXf.D.D.B.B.e.H.R.B.H.g.y.N.t.&.s.d.k.B.e.g.q.D.^.z.y.B.T.B.g.[.g.R.g.g...g.R.D.B.y.o.r.F.J.D.H.J.D.A.A.g.D.A.r.r.J.OX].D.A.D.D.B.D.g.y.M.8.y.N.J.B.y.O.A.r.u.F.g.&.OXoXf.Y.e.D.f.q.D.r.~.F.J.R.Y.R.oXB.D.[.}.].].'.].R.J.J..X].F.w.F.u.e.XX.XOXY.J.#XoXR.e.u.E.R.F.0 A.k.A.F.XX/.F.A.e.F.J.^.g.u.#XR.D.R.R.J.D.D.J.E.E.oXR.D.R.oX@X.XoXoXE.oX^.D..X~..XR.J.E.oXR.F.F.f.R.D.Y.Y.Y.D.g.D.*X-XOXE.D.Y.g.*.Y.oXOXR.oXoXY.A.H.].D.R.^.oXoXR.g..X#XR.H.2X].8X@XY.A.B.].H.D.A.A.F.w.D.F.D.D.F.OXf.%.-XN.I C.F.k.r.r.F.*X.X-Xf.B.OXg.A.k.;.e.u.k.k.e.e.e.e.A.y.R.oX^.D.;.:.F.A.r.k.k.k.F.>.k.d.F.R.A.&X@XA.k.A.oXOXoXoXoXoXoXOXk.yX9X^.F.Y.D.Y.Y.Y.^.oXE.k.B R.D.k.k.A.k.A.q.k.g.&X*XOXF.D.U.r.^.~.F.XXY.~./.E.D.F.D.D.F.R.R.R.R.oXE.oXoXR.k.c.r.^.oX^.!.F.Y.F.f.y.k.OXL.p.F.e..XR.d.e.r.F.F.OXOX....w.r.O.r.s.z.U.oXF.r.F.F.&.k.D.u.r.k..X.XD.D.A.D.z.A.D.D.x.F.D.k.A.F.Y.U.J.D.D.F.R.~.r.;.e.k.F.e.R.R./.~.~.XX/.^.J.].J..X.Xf.D.Y.A.g.r.J.&.B z.oXY.D.!.Y.].oX.XD.oXA..X~.D.D.A.E.e.g.E.OXOX*XOX.XoX.XJ.D.R.T.D.A.k.l.XXF.oX#Xo.y.f.&Xe.f.",
"7.'.}.T.oX/.eXoX!.oXoXr.f.D.&.A.e.B.R.y.t B.'.H.g.H.N.u.e.y.g.u.g.f.g.q.f.oX^.D.D.U.D.f.R.H.} y.].A.o.D.g.g.R.o.r.J.R.A.A.H.H.H.H.D.E.k.u.k..Xd.[.H.B.B.e.e.D.D.Z.M.y.M.N.R.g.*.k.;.J.D.d.R.Q Q J.D.D.D.g.e.e.*.r.R.A.Y.J.D.Y.E.R.A.].@X].'.D.].J.F.R.B.D.k.r.r.k.d.~.R.E.g.D.R.J.D..XJ.R.F.F.&.F.!.!.F.~.F.w.r.r.A..XOXr.d.Y.A.F.R.R.J.F.D.D.F.E.E.Y.R..XoX.XXX].@X.X@XR.R.oXR.R.R.oX].Y.E.R.F.e.oXJ.].R.D.B.B.y.u.q.=.f.J.oXD.D.oXY.R.g.R.oXoXoXD.2XoXoX&XR.T..XB.J.R.H.g.7XgX[.[.].R.].#X} O.D.A.D.;.F.F.&.:XOXD.H.D.5.I 5.H.;...F.R.A.wXoXF.].H.oXE.d.OXF.w.k.k.k.r.e.r.d.F.A.OXOXoXR.k.D.Y.F.k.A.k.d.D.f.D.k.r.d.A.T.T.Y.k.A.OXoX^.D.J.Y.OXeXD.d.wX-XoXOXA.f.y.A.Y.Y.e.:.e.e.R.E.k.E.D.F.D.R.E.&XU.oX^.d.h...e.!.F.*X!.Y./.^.x.D.k.F.oXOXR.OX.XOXF.F.F.F.R.l.x.oXE.!.~.!.F.D.A.y.s.!.l.@.;.J.oXk.r.F.F.k.e.r.r.....F.k.r.u.E W *.R.XX!.~.F.~ e.F.F.F.A.J.A.^.Y.oXY.D.D.k.A.D.Y.^.D.d.D.D.oX]..Xg.R.~.R.R.D.d.~.R.F.OXoX~.OX~.XXOXR..X].R.F.A.A.A.Y.A.u.k.D.A.;.A.D.R.^.oX*X@XOXE.g.E.A.OX^.F.F.^.*Xu.d.F.E.*X*XOXE.R.R.F.d.D.g.D.g.S.L.L.!.R.J.-Xe.B.o.e.e.",
"y.7.4.+X#XF.>XOX*X*X~.r.f.g.q.:.D.6.B.B.N.B.B.H.H.].].].J.D.F.J.B.T.T.g.&.q.g.u.e.f.R.D.D.D.n y.oX4.y.e.5.].D.g.k.u.u.k.D.g.B.].J.J.].u.r.g.R.&.R.H.D.D.e.6.B.N.H.M.Z.C.f.T.g.&.r.r.k.k.D.O.g.Q O.D.Y.-XJ.F.D.*.r.u.q.D.R.R.].D.J.g.J.].].'.D.R..XR.oX^.oX.XJ.e.k.u.k.oXR.*.*.q.A.E.R..X^.J.OXF.J.J.OX/.u.r.k.k.d.A.F.^.F.D.r.F.J.E.^.E.R.D.A.D.R.E.E.oX@XoX.X.X[.R.-XR.B.#XD.H.H.].&XoXY.~.J.k.g.oXJ.].J.B.B.D.F.f.e.g.'.H.D.g.-X@XB.D.N.].].].J.D.-XoXD.R.OX[.@XJ.R.oX2XoX2X@X3X2XoXJ.oXR.k.F.-Xq.u.r.F..XA.^.&X@XR.y.N.N.6.H.k.A.r.&.r.k.^.D.R.H.].*Xu.^.oXF.k.k.k.D.&.;.r.d.D.E.Y.F.A.D.E.D.J.R.~.J.F.A.D.g.d.F.e.k.oX[.D.k.e.R.R.R.f.D.D.oXR.>X&.^.*XE..XJ.y.Y.k.D.R.r.Y.g.~ oX/.D.f.Y.R.k.w.D.oXoXoXd.O.OXXXd.F.k.!.XXXX:XY.k.^.^.oX.XoXoXD.D.*X:X:X/.x.d.x.~.oXY.D.A.oX^.d.f.q.k.!.l.@.;.D.^.e.O.k.d.u.F.r.;.;.w.F.p.r.w.K B :.k./..X!.A.J.F.F.F.J.D..X.XE.*XE.oXd.z.F.Y.D.F..XD.g.D.D.R.#X-XJ..XJ.k.F.!.D.d.D.oXF.F.F.D.J.XX/.k.H.J.].Y.A.Y.A.D.R.D.Y.oX].R..XD.R.R.k.r.oXOX.XA.F.r..X.XD.J.J.k.F.F.d.^.^.oX^.J.F.J.A.r.F.A.D.D.A.F.A.~.8XoXR.D.B.B.H.H.",
"y.}.C.N.Y.R.D.f.R.*Xu.r.;.&.d.d.N.f.H.B.y.g.H.'.D.N.[.D.y.g.r.D.H.R.R.].f.O.q.q.e.g.g.oXR.q.y.q.'.H.N.y.5.5.J.g.D.u.u.A.g.u.N.R.g.u.D.e.e.y.A.e.D.D.A.H.N.f.N.y.y.y.H.N.y.oX'.e.F.A.J.r.].e.&.J.;Xf...y.d.A.r...r.e.e.J.R.R.].F.w.e.J.'.].@XH.D.R.D.J.OXJ.F.g.q.A.J.A.^.^.D.Y.D.D.D.oXH.A.R.g.A.w.u.k.k.u.k.k.u.F.R.D.J.k.d.A.R..X.XR.Y.Y.J.J.^.Y.oXoXE..X@XoX].oX].@XH.B.@XH.D.H.D.R.oX].R.F.r.g.R.D.J.H.A.B.u.E.D.T.T.'.H.H.R.D.T.D.].].].R.T.D.oXE.R.g.g.@XA.@X@X2XoXR.R.wX7X*XD.R.R.D.J.F.Y.=X].*XoXr.e.R.F.6.H.@XN.'.H.{ '.k.A.~.R.;.;.D.k.H.R.J.oXD.r.k.k.k.k.u.d.E ..d.k.y.g.D.D.g.D.R.g.J.~.~.R.Y.f.D.g.D.R.D.oXE.oXR...e.H.E.oXg.R.J.oXXXyXE.oXOXF.oX*XA.E.A.y.g.A.U.U.r.k.e.:.&.z.oXr.w.^.U.d.D.R.&.e.*Xd.^.F.oX*XoXoXF.x.^.R.^.R.oX^.R.D..XXXOX/.Y.d.x.R.T.E.E.A.^.^.F.f.e.R.OXj...;.D.F.&...D.J.J.F.~.A.r.k.k.k.u.r.&. .D.r.k.k.A.k.u.r.r.A.Y.D.D.D.^.E.Y.R.A.Y.Y.F.R.R.OXR.k.A.D.Y.#X.XJ.^.J.F.k.F.^.d.F.!.R.D.^.!.J.F.d.J.oX.XD.F.R.D.Y.Y.oX^.k.oX.XJ.R.J.D.Y.J.g.oX.X^.Y.R.k.L.L.J.J.^.u.F.D.d.Y.D.F.Y.R.R.~.J.k.R.OXR.@XD.A.R.@XA.5.J.@XD.oX4.H.",
"N.Z.C.T.J.g.D.].^.*Xk.d.r.e.;.$.M.Z.C.g.oXN.H.R.N.y.T.e.^ &.*.g.H.B.D.D.B.g.A.J.D.T.f.h.E.y.e.e.6.M.H.B.f.y.A.u.F.k.F.J.A.A.D.D.D.u.g.e.D.D.A.A.H.D.u.g.y.y.M.M.y.M.H.y.M.T.H.g.u.A.S.D.D.J.e.u.H.f.d.f.e.k.k.u.i.u.H.J.R.H.J.J.k.k.oXR.H.+XH.H..X.XF.R.k.d.g.D.J.oX^.d.A.Y..XE.].].A.g.g.A.A.A.J.^.k.d.~.!.R.F.oXE.^.R.F.F..Xk.R.R.Y.Y.E.R.Y.E.R.oX.XR.^.OXOXE.[.@XD.R.R.T.].H.].R.D.R.].R..XF.A.F.R.R.R.R.J.e.D.D.R.[.[.'.H.N.R.@X].].].R.'.[.R.;X[.@X[.oXR.oX[.].@X#XoX#XqXOXR.D.R.R..X-XD.@X2X-X@XE.].R.*XJ.y.o.N.'.2Xy.' H.A.u.OXoX.XD.k..X[..Xg.].-X~.r...O.e.r.A.r.k.F.j.5.y.D.T.Y.R.D.A.D.J.J.D.g.y.A.A.].@XJ.R.oXR.D.r.g.D.].oXu.R.F.E.oXg.oX8X#XD.oXY.J.f.D.g.e.q.&.*Xd.e.e.:.r.D.>Xg.>.g.y.g.s.d.q.D.Y.z.!.Y.Y.^..XoXx.r.D.g.R.oX*XR.R.J.OXOX/././.:.k.g.f.E.oXJ.F.D.F.e.:.R.*XF.k.k.g.d.d.~.R.r.k.k.k.k.k.!.F./.l.k.;.;.F.k.r.k.F.J.k.F.d.k.J.E.].R.oXA.OXE.oXOXD.Y..XR.oXE.D.A.F.E..XR.J.^..XXXF.!.^.A.D.d.^.D.~.oX^.F.:.F.oXJ.D.E.H.A.E.Y.F.z.y.E.R.B.D.J.D.H.R.J.A.D.R.R.~..X.XF.O.O.J.D.F.F.!.x.x.x.F.Y.R..X^.A.F.oX&X3X@X].@X[.u.O.H.].[.+Xy.H.",
"g.}.Z.C.D.$.R.D.R.*X*X;.&.;...w.y.Z.N.H.y.B.].B.B.B.T.s.! $.d.u.g.N.oXN.y.u.u.S.U.f.B.U.D.D.R.D.'.'.B.g.5.A.g.A.R.w.e.J.R.F.D.d.A.D..XA.D.A.f.Y.H.R.A.A.y.y.M.C.).u.N.y.Z.%.' f.g.g.q.u.J.u.&.g.g.y.s.Y.F.R.A.e.t.A.J.A.].J.D.J.k.g..XR.H.].H.R.J..X.XJ.oXR.J.D.F.R.OXd.D.D.A.J.B.B.A.J.J.A.A.XXR.R.R.J./.F.:XF.U.D.oXA.oXF.J.OXR.Y.D.D.J.J.Y..X.X.XR.].OXOXOXoXoX].D.].oXH.H.T.H.].H.[.oXR..XA.A.F.oXJ.D.oXoXu.D.B.W.[.[.C.H.].@X@XH.B.R.].[.+X@X*X&XOX[.D.Q .XoX@X+X-X#XoX#X:XD.k.OX-X#X].8X-X6X@X=XR..XR.E.F.@X[.'.H.H.' b.7.k.~.R.d.;.J.OX/.H.].g.D.J.#XR.d.F.F.u.r.k.F.!.d.f.g.D.D.Y.J.d.D.A.R.~.A.y.g.f.A.H.u.F..XoXD.A.A.D.D.R..Xr.J.Y.E.9Xk.oX9X-XoXoXD.u.D.D.D.g.g.*.*.*XD.&.D.D.g.D.g.r.D.D.E.d.d.k.oXj.!.~.^.^.J.H.H.Y.:.k.F.oXR.R.Y.D..XeXeX%XOX:X:.k.d.g.R.^.~.F.oX^.g.s.D.~.j.l.l.F.A.k.k.;.k.OXk.a.F./.!.!.!.F.x.w.r.k.F.A.F.R.F...k.d.k.A.E.R.H.Y.Y.E.7XE.D.A.^.R.g.f.A.D.Y.E.Y.D..XF.oX~.F.XXXX.XA.J.F.^.F.^.F.g.OX*X.X#XR.R.Y.B.D.Y.D.q.$.k.~.R.H.D.R.].].].].q.R.OXF.k..X~.d.J.~..XF.F.Y./.x.x.x.F.D.A.J.J.g.R.R.;X[.[.=X@X'.@X8X].H.].[ '.M.",
"4.@X4.M.N. .M.}.@X@X@Xy.I y.' y.A.g.A.H.S.D.H.H.R.B.oXJ.e.q.u.k.p.k.A.f.A.A.A.@Xk.k.w.q.F..XH.B.F.Q H D.A.Y.y.Y.F.R..XA.D.D.H.[.R.q.Y.*Xs.A.A.D.B.H.H.H.B.y.y.N.B.B.B.f.R.D.h.U.J.g.g.g.u.g.;.S.^.q.g.E.g.R.y.g.A.g.A.g.D..XR.J.F.F.F.D.R.R.R.A.k.k.R.J.J.F.g..XE.J.Y.y.g.R.D.R.J.F.D.F.OX*XY.E.R.A.A.J.A.g.D.@XF.F.J.F.J.D.r.R..X#XOXJ..XJ.J.~.g..X].R..XE.^.E..X.XoXoX@XOXA.oXA.*.f.B.oXR.oX.XR.R..Xk.D.D.D.U.N.5.J.H.R.oXF.E.^.R.z.d.F.oX@X].|.3X#X.X.Xr.;.^.@XoXXXS.%X:X2X6X@X].-XD.@X&X8XoX}.6X].H.R.Y.h.Y.U.h.&XY.o.e.I 5.Y.E.Y.Y.D.oX.XY.F.k.x.R.E.D.A.Y.^.Y.D.r.d.F.A.d.u./.~.k.~.J.A.oX.XJ.D.D.g.D.g.A.R.A.R.#XD.u.D.D..XJ.D.F.F.!.!./.R.^.g.*X-X*XOXq.OXE.R.;.^.OXd.&..X>X/.k.Y.Y.z.z.e.g.D.A.e.A.*.;..XOX*XF.D.OX/.F.].D..X.X.XOXOX8XA.J.8XtX#XXX/...k.F.F.F.D.OXY.oXR.A.D.B.R..XY.J..XJ.5.D.R.R.Y.g.oXJ.d.D.F.F.k.k.:.$.z.^.^.R.R.k.Y.R.D.R.Y.Y.D.B.g.R.[.B.T.D.Y.oXd. .*.A.D.D.U.D.J.R.F.Y.Y.Y.E.[.R.D.oXY..XJ.r.p.A..XR.J..XR.e.O.*.D.F.Y.k.R.D..XY.R.Y.E.oX.XoX#XR.@X@XJ.A.~.OX~.-X#X^.R.~.Y.D.Y.k.F.k.r.e.k..Xg.D.oXoX@X@XR.Y.k.E.g.oXR.^.Q A.B.",
"Z.].M.C.M.{ B.{.H.#X#XD.&.e.} K A.B.D.H.S.D.H.T.R.D.A.Y.H.g.g.D.k.d.D.D.g.r.N.+X~.J.;.A.g.B.6.e.q.' Q e.e.D.g.Y.r.R.R.B.D.B.R.T.g.*.*.D.*.U.g.y.f.D.H.f.y.y.N.N.N.].OXB.A.E.T.g.u.o.e.q.R..Xw.r.D.J.q.f.D.e.H.u.J.D.A.A.A.J.D.A.F.F.F.A.F.D.F.A.D.R.k.J..Xr.k.:XoXY.Y.D.D.D.g.D.E.J.oXoXE.Y.g.f.A.D.F.R.D.g.U.oX/././.OXF.J.R.Y.^.oXoX~.^.k.D..XU D.oX.XoXoXOXoX@X].oX&XOXE.s.T.F.q.Y.oXE.E..Xu.D..XJ.~.R.R.J.OXJ.A..XJ.^.OXoXOXoX^.^.F.oXoX@XoX}.2X=XoXoXJ.D.oX].8XoXA.D.wXtXfXwX.XH.[.-XOX=XoX'.@X'.H.T.f.f.R.E.s.h.B.g.u.{ O.q.g.f.-XR.g.J.A.F.F.D.D.U.g.R.Y.R.R.D.d.D.R.A.D.F.;.F.~.A.Y.*XJ.g.D.H.@XR.g.B.D.H..XR..X~.J.J.J.A.R.oX^.F.D.F.^..XD.q.k.Y.OXE.q.@XE.A.E.D.XXF.R.>X*Xr.F.s.F.R.z.D.R.OXA.g.F.;.;.D.D.F.D.R.OXOX/.].-X.X.XF.r.OXeXF.*.U.oX~.F.:Xr.u.F.:X~..Xd.f.g.u..XA.u.J.g.J..XD.J.oXu.f.Y.J.R.F.^.F.F.F.F.r.e.:.^ e.z.d.d.k.d.Y.D.Y.D.D.D.B.B.].J.R.D.T.@XOXoXoX;.Q ;.D.D.A.A.].R.J.J.g.e.A.oXg.A..XR.^.D.u.S.D.J.A.u.A.g.&.O.D.f.D..X.XR.R.].D.J.oXJ.D..XoX.XoXR.oX@XR.~.XX~.u.k.F.Y.F.k.z.Y./.F.F.OX^.d.k.g.g.oXoXR.[.f.q.w.*Xh.U.B.g.A.g.e.",
"M.C.C.v.[.o.y.].D.@XH.D.q.Q A.q.u.B.D.D.H.J.].[.B.D.B.B.e.B.oXA.k.f.T.Y.B.A.H.H.L.~.r.J.D.Y.B.8.5.q.u.A.g.D.f.q.u.D..XD.R.].g.e.f.g.g.A.&.D.g.&.g.D.D.f.N.N.Z.N.D. . .g.g.g.g.D.g.k.e.g.A.S.u.u.F.A.g.y.D.e.g.y.J.D.N.A.A.A.A.g.S.F.^.~.^.J.D.A.R.#XD.D.J.E.2XR.J.E.oXE.R.E.Y.g.F.D.A.g.D.g.q.f.y.u.@XJ.A.R.D.oXXX!.r.OXR.Y.oXE.oX-X*XR.J.D.D.R..X.XR..XoXY.Y.^.@X[.].[.[.Y.f.D.f.A.OX@XE.oXoX.XA.R.D.J.OXD.R.[..X.XoXH.R..XE.E.oX^.OXR.#X.X@X#X1X@X#XoXE.oX.XY.].8X8X2X#XyX3XqX2X].y.oX;X&X&XT.y.=XH.oXf.W e.E.U.U.g.D.oXo.' A.*.*.g.Y.Y.R.f.u.k.XXOXE.k.s.E.g.~..XR.d.d.g.g.^.k.O.k.~.D.Y.OXD.A.J.D..XD.g.D.J..XR..XoXA.A.D.q.D.R.R.D.F.F.D.D.F.D.E.oXOX>XY.f.[.D.k.A.OXd.d.k.#XOXz.z.d.:Xz.oXoXA..Xg.r.d.r.R.A.f.k.F.F.!.F.F..X-XD.J.A.q.^.*XF.D.B.D.k.F.F...J.#X.XF.R.R.J.J. .g.R.g.A.F.Y.D.A.R.R.g.R.OXoX&.~.oXD.k.F.Y.r.:.s.e.^.*Xk.e.d.x.A.s.R.D.E.E.A.A.D.D.oX*X[.T.D.*XR.A.&.*.F.^.T.R.Y.R.E.E.k.q.g.E.D.J.R.D.^.D.u.k..X.XR.R.R.J.D.A.oXy.k.R.D.A.D.A.Y.r.E.oXJ.].].@X@XR.]..XD.F..X~.} u.R.R.x.D.R.Y.k.R./.F.k.k.R.^.A.J.E.[.R.n j O.g.Y.Y.f.OXA.q.&.",
"o.{.V.}.@Xy.o.+X-XoXOX . .A.g.} A.R.'.H.H.A.N.H.B.[.f.e.A.B.g.Y.A.D.R.H.D..XoXH.A.R.J.Y.R.B.R.e.J.H.A.D.A.Y.A.A.q.A.g.R.@XT.D.y.g.e.D.f.O.&.q.*.B.A.N.N.N.N.u.N.oXH K A.y.D.oXD.d.D.A.Y.r.r.J.J.r.Q u.J.A.D.e.g.D.D.g.A.D.g.D.A.F.F.F.A.A.A.J.R.OXR..XoXD.D.oX.Xg.R..XE.D.E.oXA.r.k.d.f.E.g.%.e.u.A.A.q.e.f.D.Y.~.R.;.F.OXR.oX*X.X#XoXF.Y..X^.Y.R..XR.R.oXoXoXoX'.[.[.T.Y.D.e.*.D.D.Y.T..XOXR.J.R.R.J.H.oX].@XR.@X#X.XR.oX.XE.Y.[.].oXR.@X].+X2X5X1X=X@X.XOXOXY.+X@XqXtXfXqXqXlX#X@XH.@X3X8X3X[.f.H.H.E.f.*.W  .Y.D.g.Y.oXQ o.O.q.O.R.d.A.R.A.D.!.F.g.OXg.&.*.*.e.r.d.d.f.f.y.g.q.e.A.J.R.Y.J.E.D.D.J.D.D.R.A.B.J.oXE.oXD.y.*.y.A.R.J.k.F.D.F.D.oXR.oXR.Y.OX^.*XB.D.F.oXR.F.J.oXR.oXF.d.s.*XD.D.D.q.A.D.y.d.k.R.OX.XF.k.k.l.F./.oXoX^.^.OXOXOX9XOXA.D.OXD.R.r...:X7Xg.R.F.#XD.D.A.A..XD.D.E.F.A.D.J..XR.Y.*Xg.*.OX^.s.d.E.R.e.e.g.e.z.Y.e.g.F.~.k.r.D.F.oXoXJ.J..XA.D.;X@XE.E.F.R.E.A.g.Y.R.F.E.E..XY.D.k.k.R.oXD.J.A.g.R.D.D.F.OXOXoX^.R.]..X.X^.D.F..Xf.H.A.A.oXJ.OXoXR..XJ.D.J.E.OXE.F.R..XF...r.R.Y.z.D.Y.k.k.OXOX;.~ e.d.u.D.Y.R.oX=Xf.} } D.=XD.D.E.g.q.oX",
"M.H.(.1X=Xg.g.g.A..XoXf.*.A.OXD.q.g.N.B.D.A.N.H.C.T.T.C.D.Y.u.A.D.[.W.N.B..X#X@XR.T.'.E.D.L ;.e.g.B.5.u.q.D.E.*Xu.A.R.R.'.[.U.&XD.y.R.e.' t.B.g.D.A.g.H.N.B.B.+XR.g.&.u.J.R.g.J.u.} .XD.k.d.S.g.u...*.oXD.g.g.g.D.D.N.H.J.A.H.D.D.J.R..X.XR.R.R.R.R.R..XJ.e.f.E.A.J.R.E.D.D.oXE.J.J.oXoXE.B.A.A.A.u.R.u.F.oXg.A.~..XJ.F.OX^.OX*X#XoX].E..XoX.X.XoXoXoXoXoXOXE.R.[.[.[.D.D.E.J.D.R.A.R.@X.XoXE.k.R.R.H.H.q.oX.XJ..X.XH.R.OXOXoXoX[.[.[.[.@X[.@X1X1X1X@X[.oXoXoX@X@X<XfX6XtXqXqXqXqX-X+X@X8XqX3X&Xe.H.R.R.T.OX;X-Xe.E.T.H.@X{ 5.4.;.d.A.OXD.%..XoXF.k.g.*XY.Y.E.*X~.d.u.u.u.D.D.A.y.e.D.R.D.R.oX@X].D.D.y.u.D.H.R.J..X^.*XE.A.d.D.A.R.J.D.oXY.R.Y.R.J.R..XOXoXY.Y.B.oXA.g.g.^.d.!.OX*XF.^ r.*Xe.A.J.Y.f.y.&.k.D.k.J.oXOX^.^.!.F.F..XR.OXR.^.E.k.oX>XF.OXF.oXD.;.r.:X*XA.A.D.k.F.oXg.D.q.u.oXk.d.d.J.R..X].f.g.g.A.R.oXF.R.OXR.;.*.z.z.Y.Y.d.D.k.f.F.D.g.F.J.R.R.^.J.oX .6.oXY.A.oXOXA.u.A.F.D.D..XE.E.D.x.x.F.~.~.D.Y.D.g.k.r.k.!.D.~..X~.J.F.D.A.k.J.Y.E.A.J.A.J.OXE.R.#XoXD.D.R.Y.oXoX^.~.R.J.~.x.r.g.Y.Y.z.g.g.x.F.R.F.F.F.D.F.D.Y.R.Y.D.&X-X*XD.f.E.oX].D.&.H.",
"y.).v.'.'.B.;.&.J.A.E.F.g.D.z.R.N.D.H.T.'.H.H.H.C.f.@X[.&.A.Y.f.T.T.C.B.A.J.].'.@XT.B.Y.D.} ;.k.e.D.g.D.f.Y..X-Xu.+XH.R.H.D.[.T.D.H..XD.U e.r.u.J.D.y.H.J.].H.].OXk.g.J.J.J.H.R.g.} g.d.d.d.A.q.F.F.r.g.f.*.y.u.A.A.A.H.J.H.J.H.J.J.D.F.S.F.H.J.D.oXR.R.D.A..XA.u.J.R..XR.Y.[.Y.F.F.F.A.D.g.J.J.g.g.e.5.D.Y..XR..XD.oX.XoXE.oX^.oXoX.X.XR..XE.E.*XR.Y.E.oXoXoXOX@X].].Y.E.^.*X-XB.B..X@XoXR..XOXR.].@XR.q.@X#XXXR.J.D.R.oXoX[.@X}.[.'.[.@X@X[.&X@X=X}.].oX[.[.&X<XqXfX5X5XtX2XoX@XoX#X[.qXqX=XT.A.g.E.E.A.vXA.g.D.q.q.g.N.I %.[ k.*X;..XoXq.J.#Xk.D.R.g.g.Y.E.g.J.A.R.R.D.F.D.A.A.f.A.F.A.E..XE.D.H.J..XJ.u.D.J.R.D.E.@XU.R.^.e.D.J.A.D.oXY..XE.oX].R..X@XR.R.R.g.g.g.^ Y.!.x...F.OXx.:XF.OX*X;.e.OXg.k.k.k.r.u.F.OX^.J.^.OXOXoX#XoXoXE.E.D.S..XD.e.F.k.Y.OXR.oXr.F.OX^..XJ..XJ.y.A.g.g.oX.XR.k.H.R.B.D.A.y.E.f.g.OX*XOX^.D.;.&.$.e.d.r.e.D.D.D.D.F.A.R.D.D.J.^.R.R.z } 7X^.d.E.oXg.g.J.Y.R.oXOXE.Y.F.!.^.F.F.x.D.F.Y.k.k.r.k.k.k.J./.^..X.XJ.D.^.^.~.F.R.J.D.@XD.#XoXJ.J..X#XoX*XE.D.R.F.w.r.^./.k.g.Y.R.D.z.k.k.k.F.!.~.F.F.F.A.f.D.oXD.-X@Xf.D.q.f.e.A.6.6.f.",
"b.G.4X}.B.s.D...~ g.oXoXD.r.d.e.e.6.f.B.H.H.H.).C.B.B.R.y.y.f.^.T.U.C.T.D.D.Y.B.H.H.g.A.Y.J.F.F.B.T.y.5.O.q.g.J.u.H.B.B.D.T.A.g.+X@XJ.#Xu.e.e.J.A.A.B.B.R.R.A.y.A.u.u.e.g.D.H.H.g.g.O.u.w.d.D.u.u.g.A.q.q.q.u.A.A.A.A.A.H.R.T.T.J.]..XXXJ.R.H.D.H.R.oX-XJ.A.OX.Xr.J.R.R.E.E.R.A.D.F.F.D.oXJ.R.J.q.u.D.e.J..X.XoXY.g.J.^.oXR.!.F.A.J.R.R.H.oX.XR.A..X*XY.D..XE.F.R.R.@XOX@XD.T.D.A.H.J.B.].D.D..XH.J.@XD.D.F.OXXX.X.X^.OX].oX[.oX@X[.'.R.@X@XoX[.2X1X=X@XOX@X@X&X3X3X4X3X#X8X-X;XJ.oX=X@XqX2X|.M.A.D.Y.D. .oX&.&.^.u.u.A.g.F F C.^.#Xw.u.OXJ.A.J.!.F.J.E.*XE.R.u.;.r.k.d.r.d.g.R.D.g.g.D.D.Y.A.Y.R.R.J..XR.y.H..XF.E.Y.h.E.R.x...r.R.Y.R.D.B.E.E.R..XoXR.oXR.R.].oXD.^.^.Y.Y.^.^ F.OXx.~.r.*XOXR.f.Y.y.r.u.d.k.F.F.OXoXoX*X*X*XOXoXR.D.R.oX.X#X7X&X^ w.:Xg.[.OXJ.;.k./.D.D..XOXD.D.A.R.e.r.~.R.k.A.g.R.B.d.D.D.A.d.~.^.^.R.J.u.e.&.s.z.g.Y.R.k.r.k.g.D.R.R.D.D.R..Xg.e.R.oXF.oX^.E.E.oX.XY.E.oXoXoXR.D.F.Y.F.Y.~.k.s.F.D.D.F.F.F.!./.F.F.^.oX.XoX~.F.k.g.D.g.g.oXoX.X.X.XR.R..X#XOXF.F.~.x.r.r.l.c.x.F.D.U.Y.z.d.k.F.R.~.F.J.OXR.g.D.*XE.q.Y.D. .D.oX*.f.f.q.6.g.",
"X.).(.7.D.D.K K  .;.oXE.^.Y.y.f.B.e.f.B.D.A.H.H.I.T.s.D.D.T.D.F.T.T.[.].u.A.oXD.e.S.S.A.J.R.D.g.R.H.e.o.&. .y.D.H..XB.R.Y.D.D.U.D.#Xt.t.u.S.J.K.y.J.oXg.H.D.J.u.D.g.D.D.J.N.g.H.D.R.f.r.k.D.u.r.r.u.Y.Y.y.g.R.J.F.S.F.S.H.].R.T.R.oX.X].S.J.H.H.].D.]..XoXJ.u.R..X.XR.E.oXE.U.^./.R.oXJ.A.u..Xg.q.J.R.f.H.A..X].f.R.R.Y.^.R.R.F.@X.X.X-XoXoXR.R.E.Y.E.D.J.OXoXY.J.].@XR.T.D.E.Y.J.H.#XR.D.g.D.J.H.].R.R.@XJ.XX$XR..X#X*XR.oX].].oX].R.D.oXoXOX[.1X@X#X@XoX@X@X[.-X2XqX<X@X-X;X&X@X-X+X3X3XB.M.M.r.O.^.q.*.T.g.B.oXg.D.H.N.%.I M.F.r.!.F.F.u.J.u.w.J.R.*XY.*.u.g.w.F.F.A.R.F.r.A.D.f.A.oXY.Y.D.R.R.A.R.J..XR.J.].R.A.Y.D.U.Y.Y.~ r.J.D.oXY.R.R.g.J..X-X].@X@X]..Xg.oX&.d.~.~.k.D.J.OXF.d.>.*X^.k.T.f.q.;.w.R.oXw.A.OX.XOX*X^.oX*X*XE.oX[.E..X.X-X&XF.w.F.oX[.D.F.d.>.F.k.!./.OX/.g.R.A.u.F.k.k.x.D.D.D.A.&.g.E.oXd.d.s.D.oXoXA.u.e.D.R.g.D.D.A.E.D.e.k.k.J.F.g.D.R..XR.f.F.oX.X!.Y.Y.J.Y.R.R.^.OXR.R.k.x.!./.XX!.k.s.oXR.F.R.R./.XXXXR.~.#X.XA.B.u.k.u.F.A.J.D.#X-XA.R.oX.X@X.XoX#XR.~.F.r.Y.*XF.,.Y.^.E.U.D.k.x.D.z.D.#XoXF.~.F.R.g.Y.D.y.D.U.s..XR.H.J.D.g.e.f.",
"5.@XM.N.J...e..XY.D.D.J.A.u.g.k.k.D.E.D.g.B.|.M.R.A.D.D.H.A.A.N.R.R.H.D.D.u.H.A.A.Y.D.Y.g.&.T.W.T.H.y.D.O.&..XJ.].].R.J.].D.D.R.y.A.k.e.g.S.R.A.F.J.u.u.].^.A.A.k.D.g.R.r.A.u.g.s.oXT.B.A.g.D.B.r.u.A.D.k.w.A.k.F.J.u.D.g.J.J.J.R.].+X@X'.C.H.].J.@X.XOXOX.XOXF.OXOXJ.D..Xu.A.#XoXD.-XR.g..XJ.D.k.u.A.r.*.R.R.].F.k.OXXXoX#XOX#X2X&X&XY.g.Y.D.^..X.X.XR.D.oXE.T.oXJ..XR.J.OX.XR.oXR.oX[.Y.D.~.D.H.R.H.y.B.oXoX-XE.Y.#XoX-X@X].-XOX#XoXR.Y.E.@X*X2X=X[.&X7XL R.-X=XhXtX=XD.oX@X8XXX!.F.OXoXe.f.y.D.U &.D.f.B.D.T.B.H.'.T.'.5.5.t.B.R.H.J.J.F.L.L.r.k.OXA.&.A.E.T.E.Y.D.A.D.Y.D.D.oXB.D.R.J.D.g.R.Y.B.oXE.F.x.F.F.R. .B..XD.Y.D.k.g.R..X.XJ.~.*XF.x.!.XXF.OXJ.S.].R.F. .:.*X*Xr.k.OXF.y.T.[.;XoXf.j.>.$.>.:.;.F.oXR.R.R.Y.oXR.OXOXXX/.XXF.k.J..X-XOXY.*XoXk.oXF.d.r.k.OXF.E.J.Y.R.R.J.J.D.F.A.F.F.J.F.D.R.r.D.R.D.d.k.D.F.^.D.D.y.y.A.^.d.R.Y.R.^.e.g.k.F.d.D.R.Y.^.oXD.g.E.#X.XH.F./.!.F.Y.^.oX^.Y.R.!.OXR.!.~.#Xu.F.^.oXR.F.z.oXY.D..XD.;.A.A.R.J.k.r.A..XD.R.oXR.H.R..XoXoX].oXD.d.x.F.D.D.F.~.d.z.Y.^.D.D.F.oXF.k.F.F.OXD.D.F.J.g.A.^.J.A.R.F.J.D.#XR.#XH.H.H.",
"y.C.7.H.#Xu.F.-X .*.&.e...A.J.J.A.d.D.T.T.'.T.|.D..Xg.H.D.B.H.B.T.T.H.H.H.H.J.H.D.A.A.u.D.U.B.U.T.N.R.g.D.D.r.XX+X+X'.H.H.D.Y.@XE.oXf.e.F.F.A.D.J.~.D.A.R.E.D.D.g.J.A.R.g.D.g.g.D.U.f.A.J.D.J.A.y.e.&.q.A.~.J.w.;.F.k.F..XJ.H..XR.R.[.].H.B.H.'.#X].@X^.7Xk.R.S.oXY.f.R.oXoXJ.J.oX].D.D..X].D..X^.u.D.A.O.g.@XR.XXF./.F.D.A.oXk.g.E.D.B.R.oXD.E.E.J.D.R.Y.OXE..X@X.XR.R.oX-X].D.R.F.D.Y.E.R.R.R.].A.u.g.J.R.D.D.Y.E.R.H.D.H.R.@XXX.XJ.D.J.oX*X*X=X=XT.&X7XL R.7XhXtXf.6.].].@X[.OXR.OXOXpX^.e.y.*.k.F.A.Y.*.g.R.R.].+X@XH.r y.5.oXD.D..Xk.;.k.k.e.D.g.r.J.oXA.R.g.B.J.R.Y.g.g.E.R.B.J.R.R.R.H..X[.D.R.R.^.F.k.!.E.J..XR.Y.F.d.D.J.oX@XJ.e.w.F.R.XX/.OX^.#X.X].].F.e. .Y.*XD.d./.~.oXD.oX&X-X;Xk.j.l.r.;.r.^.:Xz.R.E.R..XoX~.oX~./.R..XJ.k.g.g.B.^.*XR./.R.x.D.k.w.d.!.~.D.J.Y.R.E.E.J.D.k.k.A.F.D.D.F.F.R.^.oXd.k.R.D.F.R.R.g.e.r.k.F.F.^.OXg.g.J.E.r./.F.D.F.F.oXOXA.A.Y.J.R.D.k.F.R.R.Y.R.^.R.!.Y.Y.oX!.~.!..XoXoXJ.R.^.R.F.D.Y.oXR.d.;.u.~.A.k.F..XoXR.J.@XR..XJ.R..X].R.J..X~.F.D.k.k.k.D.F.Y.R.D.D.F.^.F.D.F.d.r.e.D.k.F.!.D.J.^.D.#X.XO.R.R.R..X#X2X} o.'.",
"5.C.f.@XJ.S.A.oXg.oXR.g.O.U .XA.r.f.A.T.[.[.f.]..XY.D.E.A.D.T.T.B.R.].H.g.D.H..XY.D.D.F.D.oXoXT.C.f.D.5.y.R.J.k.y.H.].J.J.]..X@X.XR.r.g.A.R.J.D.u.F.F.A.D.Y.D.A.d.g.f.g.A.R.g.5.f.f.q.u.A.A.J.A.g.d.&.u.D.~.D.r.e.u.D.J.J.D.R.J.E.R.R.R.H.H.T.'.'.@XoXoX*XeX#XJ.R.oX^.oXD.F.J.J.R.oXH.J.R.H.g.oXk.F.F.g.D.R.R.%.r.XXF.OXF.J.^.J.g.T.A.D.D.E.oXE.R.F.J.E.oX*XoXE..X.X.XoXoXoXoXJ.D.E.E.D.E.R.E.oXR.oXR.D.J.oXoXA.*XoX#X.XR.-XH.J.oXoXR.F.Y.oXoXE.;X=X;X&X8X9X-XeXD.T.8.@X2X7X@X@X8X-X8XzX*.Q s.e.F.e.A.-X#X .g.*XH.g.R.].R.I 5.e.J.S.A.#X.XO.w.F..Xk.e.F.#X#Xf.q.u.D.E.Y.Y.D.A.D..XD.J.A.A.R.J.R.oXY.D.D.oX!.D.!.R.oX.XJ.F.d.e.k.D.D.R.D.r.e.k.R.F.F.OX.XoX^.].D.F.^.D.D.g.e.e.k.F.OXB.[.[.;X3XE.l.k.k.k.F.R./.z.*.^.Y.!.OXOXOXOXXX~..X!.F.A.g.g.oXR.^.OX.XoXR.d.r.d.A.J.D.A.g.y.g..XoXR.k.F.F.J.R.^.^.F.^.E..Xf.k./.u.;.g.J.A.A.D.A.r.y.d.^.z.Y.oX^.OX:Xw.d.OX^.F.Y.g.E..XJ.@X'.D.D.^.Y.A.F.Y.E.oX~.F.R.A.F.^.*X/.R.u.F.^.^.^.E.Y.D.OX~.R.R..XR.F.d.F.^.R.D..X].oX.XoXoX].R.R.oXE.E.F.g.k.A.D.F.s.Y.Y.F.D.R.F.R.R.k.d.d.R.F./.OXY.R.OXY.@XJ...J.oXH.H.#X#Xy.N.H.",
"y.'.=X].g.r.S.H.oXR.oXJ.O.&.D..Xy.D.H.D.T.T.%.] F.F.Y.f.A.A.D.R.R.].R.D.B..XJ.J.H.D.Y.oXf.D.oXD.f.[.'.R.J.g.A.F.y.H.].J.F.R.].'.J.J.D.D.A.R.R.f.r.F.J.g.g.E.E.g.g.f.y.y.k.D.e.O.&.u.q.;.u.u.S.S.d.A.g.A.D.D.k.F.R.g.D.R.D.J..XA.F.J.Y.T.D.H.R.R.'.@X@XoXoX#XoX#XE.E.oXR.R.F.OX.X].R..XR.D.#XD.D.F.A.k.r.A..XH.Q ;./.J..XoXF..XoXOXE.D.F.A.Y.R.A.J.R.R.J.oX>XoXR.R.].oX#XJ.J.#XR.R.H.R.A.OXD.D.k.J.R.J.R.D.D.oXoX*XoXg.R.-X#XD.Q F..XoXoXoX#XOXoXoXB.=XOX#XeXeX*Xy.6.&X3X#X.XoX@X2X=XyXtX&Xe.E d.oXL E *X;.R.D.Y.B.N.H.D.H.H.U q.D.*XR.k.D.;.e.D.u.q.^.R.r.A.J.g.u.^.oXA.g.D.D.J.#XR.H.g.u.D.J.J.E..XR.D.R.~.F.F..XJ.Y.oXY.g.D.k.D.g.Y.Y.R..XJ..Xk.F.*XOXoXoXoXE.Y.oXR.Y.^.R.z.*X#X7Xu.Y.A.@XR..Xx.:./.R.&.d.*Xr.~ :XoXF.^.~.J..X^.F.F.J.F.A.g.A.g.D.oXoXY.oXoXk.F.J.J.F.R.f.g.f.r.D.Y.J.A.J.J.F.r.k.F.R.A.D.R.F.k.F.k.;.D.F.D.g.D.R.D.r.u.k.D.F.^.D.XXl.k.F.F.E.E.J.D.#XoXR.@XoX^.F.OXY.g.Y.Y.Y.^.F.F.OX8XuX9X-XoXR.g.oXE.E.D.Y.J.A.*XOXoX.XR.oXF.k.k.F.R.q.e.oXR.R..X~.J.D.J.oX.XoXR.D.F.F.F.F.e.g.s.k.!.!.F.F.R.k.F.R.OXJ.F.~.E.7XE.oXA.r.:XJ.#XH.'.).J.@XH.5.",
"g.@X@X@Xw..XR.R.:XA.A.J.D.D.R.A.D.T.T.B.T.H.4.b O..Xk.*.D.g.D.D.R.].oXR.H.oXR.J.R.D.].D.g.D.e.D.y.y.T.D.g.g.u..XJ.H.]..X].A.B.B.k.R.F.A.E.R.R.D.G.R.R.B.g.R.oXD.D.A.D.A.A.g.q.e.e.D.r.&.r.u.u.J.A.R.Y.f.k.k.k.d.].Y.D.Y.oXoXJ.D.A.A.D.D.D.J.Y.D.].+XoX@X@XoXD.Y.OXoXE.E.*X.XR.D.oX'.@X.Xu..Xk.;.XX^.R.F.D.R.A.J.oXR.A.J.J.F.Y.A.oX^.R.D.D.D.e.A.J.J.J.A.^.*XoXoXoXoXJ.R.R.R.oXJ.R.D.].oX.Xr.r.g.k.k.d.D.A.A.].R.y.q.g.g.E.OX.XoXD.R.oXoXoXOX*X#X#X@XOXn .X8XF.OXuX[.3X=X#X7X8X;X@XC.=XgX3XD.N E /.~ L L &.f.A.u.N.'.H.H.D.H.O.S.R.^.^.oXOXA.R.eXD.U ;.A.^.A.f.R.J.R.D.r.g.F.D.D.J.J.R.R.H.J.J.R..X^.R.R.D.J.J.A.D.g.A.^.D.g.R.g.Y.D.E.D.F..XF.^.F.!.oXY.E.^.^.oXY.Y.Y.D.F.F.e.^.:X*XA.A.A.^.A.~.g.F.^.g.r.k.Y.A.e.eX*X!.F.D.D.J.R.J.R.oXE.F.A.k.:.Y.d.D.oXE.oXA.D.oXD.k.J.e.r.D.A.y.u.g.D.k.D.D.w.;.k.oXD.A.E.E.!.!.F.k.R.Y.J.f.f.E.F.R.Y.D.R.k..Xk.F.r.F.D.y.R.*XJ.].@X].R.[.@XR.D.OXE.D.OXoXR.R.R..X-X7X7X-XOX^.D.^.oXoXoXk.k.E.-XoXE.k.A.oX~.z.D.D.g.D.q.O.r.D.H.R.J.A.D.F.oXOXoXD.A.D.d.d.d.s.D.D.D.F.k.k.F.F.F.J.J.!.F.D.F.q.e.R.k.&.g.S.S.N.H.H.N.G.).H.].",
"5.B.[.].J.R..XD.u.A.w.D.J.&.#Xe.N.N.H.B.T.C.T.4.e.g.f.A.y.r.g.g.B.T.[.T.g.B.D.[.Y.D.J.Y.g.f.e.k.H.%.D.&.u.J..XD.H.t.u..X.Xg.y.D.D.g.A.D.^.Y.OXoXJ.D.H.J.H.Y.Y.T.F.A.D.D.J.A.e.A.g.J.g.&.q.O.w.).R.D.F.d.A.k.d.d.'.H.H.E.E.oXF.F.k.k.D.J.D.D.Y.D.].}.'.OX;XE.A.D.g.D.g.E.OXOXoXoXH.@X].+XA.A.A.A.k.~.F.d.F.J.q.oX.XJ.d.~..XOXk.k.^.D.F.F.A.Y.g.R.H.A.D.J.OXoXR.oX.X-XD.g.oXoXJ..XT.].R.J.u.g.g.D.u.A.F.D.D.F.R.A.D.g. .;.^.^.*X.XoXoX.X.X.XoXoXoXOX3X&X&X7XJ.E.oXqX;XB.[.#XyX8X;X=X1XjXN.tXf.E q L d.u.&.&..X@XO.|.'.'.N.B.o.' ..e..X-XD.^.^.F.F..XA.Y.f.D.J.^.:XoXR.F.d.k.R.Y.D.y.A..XoXJ.D.J.R..XJ.J.oXJ.F.E.R.F.oX^.R.F.F.R.D.Y.D.Y.g.k.J.A.J.OXOXoXR.oXoXR.R.g.x.oXY.d.oXE.Y..XOX%XS.XXOX~..XJ.Y..XoXoXD.r.D.oXoXOX:XR.F.^.R.D.J.Y.^.J.k.A.k.F.k.d.R.-X*XoXg.B.].u.g.D.g. .q.g.g.D.g.D.D.Y.D.J.w.k.Y.E.g.E.D./.Y.k.F.D.R.D.g.f.D.y.Y.J.Y..XF.oX^.F.F.r.r.z.oX@XJ.@X@X[.@X[.[.E.Y.oXY.Y.OXOXoX.XoX#XJ.u.e.D.oX$.*.*Xz.E.oXE.F.E.-XoXoXD.F.R.R.z.k.D.k.D.D.g.q.D.H.~.J.F.F.R.oXoX^.g.d.d.r.d.d.g.D.R.F.^.F.k.r.A.R.R.A.F.R.^.R.q.e.oXE.&.R.wXu.H.+X].].N.t.N.).",
"5.D.D.].J.R.D.g.D.oXJ.oXt.&.u.g.M.M.H.T.H.I.T.C.D.&.g.D.&.q.r.d.H.D.B.B.B.g.H.R.g.B.B.R.B.;.F.u.N.N.A.u.@Xg.u.k.H.t.y.A.A.N.H.].R.g.D.oXD.D.oXU.H.D.H.R.].Y.Y.Y.D.f.f.A.R.J.q.u.g.D.g.&.O.&.r.F.D.y.g.D.F.D.x.~.'.N.R.R.Y.F.D.A.A.k.D.Y.F.D.D.J.@X'.@XR.*X .g.-XY.D.g.Y.Y.oXoXR.H.].H..X@X.XXXOXF.F.J.D.k.J.R.R.u.A.F.D.-XR.D.F.OXd.u.A.A.@XoXH.F.A.D.R.:X^.D.!.R.oXR.A.J.R.D.oX'.'.y.o.e.R.D.d.D.A.F.~.R.k.g.H.A.D.g.d.oX#XoXOXoXR.R.^.oXoXoXoX#X&X[.&X.X8X^.E.@XT.B.T.;X#X-X8X@X@XxXo.3XeXE 3 K ^.k.&.oXoX'.2X}.(.+XH.R.y.} e.f.A.oXk.R.F.k./.*.q.D.oXD.A.F.d.F.F.^.F.d.A.Y.E.u.D.R.R.D.A.J.R.R.J.A.~.J.H.R.].D.OX.XD.F.J.D.A.Y.Y.J.A.F..XJ.].oXJ.R.R.F.R.D.k.Y.Y./.OXD.R.oXR..X%XeX~.OXXX.X~.B.-XOXE.*XOXy.D.:XY.oX*X^.R.^.F.R.oX.X.XF.A.~.^./.d.*X*X.XOXoXR.R.R.B.D.H.J.&.&.f.J..XY.D.Y.E.J.J.g.k.u.Y.f.D.D.r.k.r.D.R.Y.g.e.g.e.e.D.D.g.g.A.^.*Xk.k.k.D.h.oX@XoX-XoXR.'.[.T.@XE.Y.J.Y.E.oXOX@XoXoXJ.D.g.D.D.$.:.oXz.A.D.R.F.D.Y.oXoXoXoXD.A.s.z.^.R.F.F.D.S.B.D.J.F.F.R.Y.E.@XoXD.D.F.D.!.D.;.k.oX/.Y.k.k.x.k.F.F.D.F.^.^.R.OXY.f.J.#XR.R.7XH.|.].].H.G.).N.",
".X#XR.D.].R.^.B.OXOXD.D.e. .u.y.|.C.H.H.H.T.5.6.B.[.A.q.f.r.Y.Y.J.R.'.[.].B.Y.R.A.D.H.D.oXJ.F.J.5.A.A.g.]..XJ.g.T.R.'.H.A.J.J.N.f.J.Y.oXR.E.E.R.H.R.H.B.B.D.T.T.z.f.f.A.J.D.O.q.D.A.g.e.e.J.J.N.D.g.D.Y.F.R.x.F.N.B.'.D.OXD.g.z.A.k.D.J.D.A.D.Y.H.=X'.@X*XU.E.OX^.Y.oXoXY.J.*XY.T.H.+X].J.J.F.XX/..X.XoXOXJ.J.J..X~.R.R.F.D..X^.k.F.A.k.u.A.H.J.H.A.A.A.OX^.F.!.XXR.OXJ.g.A.D.S.'.T.B.5.].A.A.J.J.J.!.F.F.J.g.D.&.oXJ.R.oX^.R.oXY.J.R.oXoXR.R..XD.A.;X&X-X9XR.B.B.6.I.tX-X9X@XgX-X=XjX[ B.k.k.l.k.d.^.R..X+XN.<.M.1X].H.N.q.K A.R.&.*XoXk.e.w.k.B.g.q.oXJ.R.~.w.F...;.D.D.D.D.Y.D.J.J.J.D.J..XJ.F.~.u.A.A.A.B.A.D.F.J.J.R.^.J.D.Y.Y.Y.A.D.R.R.@XoXD.J.R.A.F.^.R.^.*XR./.R.F.oXoXF.~.A.F.F.F.J.R.H.].R.R.Y.>XR.D.Y.D.R.D.oXoXY.Y.T.[.oXE.D.k.~.^.R.Y.oXJ.D.D.oXoX].J.R.D.D.J.D.J.R.A.f.Y.Y.D.k.D.A.oXE.A.J.g.g.A.>.k.e.:.Y.D.g.f.*.! f.g.B.&.e.R.oXg.D.oX^.oXT.].oX-XoXD.N.H.=X[.oXR.D.Y.E.Y.E.oX7X7X8X#XoXJ.A.w.E.Y.U.E.A.Y.D.D.R.*XE.Y.OX^.oXr.&.D.R.d.J.D.;.;.B.D.J.J.J.^.R.E.oX#XR.R.R.F.!.r.D.d.D.F.F.r.k.l.~.!.R.^.^.R.F.J.Y.J.A.J.].#XoXO.y.|.#XH.].H.t.y.",
"N.N.+X].2X[.[.C.A.Y.OXd.F.F.r.A.B.H.J.S.A.A.B.B.R.D.Y.Y.6.e.B.R.D.R.E.R.R.T.@X'.D.H.R.B.g.H.D.B.6.B.f.N.N.[.T.T.H.H.H.'.'.(.J.'.D.D.Y.J.D.S.G.J.[.oXJ.D.D.Y.D.H.E.y.A.g.D.D.E.A.oXY.A.g.D.Y.Y.A.A.A.oXy.u.H.u.y.f.D.k.k..X~.k.A.B.N.g.B.A.A.F.R.D.J.J.+X@XH.H.N.].J.J.oXoXD.A.oX'.].'.'..XY.oXR.oXXXS.D.XXR.R.-XR.R.f.g.A.D.oX^..XF.A.d.R.R.J.Y.J.].R..X@XE.J.#X|.'.[.@X].R.A.~.[.oXE.[.f.F.A.J.H.B.D.Y.f.A.A.D.D.B.H.@XoXoXoX#X[.U.[.oX.Xg.'.[.e.Q 8XR.H.].-XqXR.q.k.-XyX].3XwX5X5XjXaXy.8XR.e.q.n q.-X].J.wXJ.E.].[.g.r.w.N } ..8XD.^.k.k.k.~.F.F.u.oXoXD.-X.XR.D.q.&.F.R.R.d.k.F.F.F.Y.Y.Y.Y.R.J.J.D.J.g.D.^.l.F.D.^.OXD.Y.A.!.!.F.F.!.oXoXR..XJ.oXY.-X*XoXE.Y.F.oX>X#X.XG.J.J.].8XoX*.R.D.g.F.F./.!.OX>XF.k.h.h.R.Y.^.D.F.Y..XoXoXoX'.H.].].].D.].[.E./.R.A.~.R.A.e.A.g.g.D.D.D.B.D.A.F.S.!.f.A.Y.A.A.A.R.A..XoX&.O.R.k.F.r.~ e.~.J.J.S.J.J..XF.F.OX^.R.E.*XoXoX].T.T.B..X2XoXD.A.f.E.&XE.^.;X&XOX*XE.oXXXY.F.Y.x.l.x.l.x.x.OX/./.>.l.l.Y.^ B.D.g.A.g.e.r.r.s.F.^.R.J.J.R.oXoXE.R.^.D.d.F.J.d.r.Y.R.^.R.F.k.F.R.oXY.Y.R.oXR.H.*XoXA.D.R.@X*XR.R.R.R.u.d.Q ~ ",
"4.B.[.+X=X[.T.oX3XD.OXF.d.D.R.e.A.A.D.J.H.B.H.[.L &.D.Y.g.f.f.R.R.Y.Y.R.R.B.T.H.y.H.oXH.A.H.B.N.y.f.g.y.f.f.N.H.D.H.H.H.V.M.H..XY.J.D.A.A.D.H.D.A.Y.J.J.J.J.D.D.y.g.g.D.Y.A.-XY.g.E.F.J.A.OXoXoXJ.D.u.A.D.D.e.q.g.D.J.A.g.F.J.S.T.C.B.B.D.Y.F.D.J.R.].].'.D.N.y..X.XJ.D.J.F.A.D.H.'.B.A.e.A.A.A.A.J.A.A..X.X~..X&XY.e.d.F.D.R.k.D.J.~.F.R.E.D.k.N.J.]..X#X#X.X^.'.[.&XB.oXE.J.F.Y.oXY.y.g.E.A.A.].B.g.D.A.D.Y.D.J.J..X@X@X.X.XXX=X&X@X].D.g.[.-XR.Y.8X8X].].8X-XoX*X-X7XqXH.qXgXaX4X5XhXu.e.e.g.e.D : 5.].R.g.=.g.H.6X].r.k r.r.q.oXA.u.R.^.D.oXOXF..XoXoXOXD.J..XoXA.;.d.D.Y.e.r.k.A.D.J.R.E.oXR.R.R.J.R.R.^..Xl.F.D..XoXf.z.A.F.D.D.D.F.R.oX7XOX^.D.k.R..X@X@XF.z.R.oXoXXXJ.J..XoX-X^.f.R.A.A.!.Y.k.x.oXD.D.F.Y.=X7X^.*X^.D.!.#X#XoX].D.D.R.R.R.H.'.'.oXXXR.E..XD.D.F.Y.A.J.Y.Y.E.Y.E.~.J.r.;.D.A.A.E.oXA.D.E.R.oX;.;.k.F.F.A...x.!.d.F..X.X/.~.~.A.F.J.d.f.OX[.R.R.oXB.R.#X.XA.A.D.k.T.oXE.^.@XE.E.OXD.!.k.Y.F.F.x.Y.Y.k.d.k.F.k.j.l./.Y./.~.R.J.u.d.A.J.F.J.D.F.D.D.J.R..X#XY.R.Y..XR.J.^.R.z.D.R.Y.F.D.D.R.~.D.Y.oX^.E.OXOXOXR.Y.D.D.g.Y.*.5.R.8X]..XK E u.",
"U N.[.[.T.[.R.D.Y.B.F.y.O.&.Y.R.A.J.F.k.A.R.R.H.q.&.g.Y.g.&.e.R.E.J.Y.[.@X'.'.'.D.'.].H.A.A.N.A.H.g.g.e.g.g.D.B.H.H.H.H.V.N.H..XA.J.Y.A.g.A.H.J.A.D.Y.D.Y.F.A.g.f.r.g.u.D.E.*XD.g.oXE.D.g.Y.D.D.u.u.5.e.g.J.g.5.A.A.F.F.D.R.R.A.H.H.D.B.B.A.A.f.F..X].].R.H.H.N.R.oX].D.Y.oXoXR.+XoX@XA.R.E.OXE..X#X~.~.#XOX.X.XoXOXY.Y.^.oXOXF.J.F.J.R.J.Y.Y.E.J..X@X@XoXoXoXR.T.R.R.e.@XY.D.D.Y.A.oXg.f.A.F.A.D.B.g.D.J.D.R.f.R.R.R.].oXoXoXoX[.[.T.J.D.H.[.[.R.-XR.R.2X2X-XoX.XE..X].R.D.8X8XfXjXfX#X#XqXy.u.8X'.y.y.2X+XR.].].3XT.H.} k.;. .O.g.&.g.^.oXOXD.D.J.~.#XR.Y.J.J.g.A.A.D.D.k.D.d.d.k.F.Y.R.Y.Y.Y.D.H.D.H.Y.E.Y.Y.F.F.R..X.Xg.k.g.F.k.d.k.R.oX#XoX*X#XF.E..XoX-X#Xx.d.D.R.oXoXoXOX-X#XR.D.A.J.F.oXY./.r.;.e.Y.&.;.z.*X-X^.OX^.F.OX#XOXoXE.H.D.R.R.D.R.].'.oXY.F.OX^.A.R.R.J.D.R.D.g.E.oX^.J.L.k.u.f.Y.R.oXoX.XY.D.r.J.D.F.F.^.D.k.~.Y.^.Y.J.R.oX/.^.*XOXJ.R.d.g.-XR.R.H.].H..X#X'.~.E.D.g.g.^.&XoXY.D.Y.R.F./.k.~.!.x.k.F.k.e.d.D.k.x.d.k.!.F.F.~.A.D.A.d.D.F.F.^.^.R.F.F.R.E..X#X^.R.J.F.#X#X-X].F.Y.R.Y.Y.R.F.oX/.D.D.oXE.E.oXoXD.R.E.D.OXD.7X*X'.2XR.oXy.e.d.u.",
"I N.@X].T.B.D.D.E.*XA.r.D.d.y.A.J.F.D.D.D.D.D.H.A.Y.B.=.6.5.e.R.R.T.Y.R.OX'.].'.T.H.N.B.H.N.y.A.u.A.D.A.y.g.D.B.T.T.H.H.H.J.J.J.u.u.u.y.A.D.F.B.J.Y.J.A.J.D.D.g.D.g.A.f.D.oXY.y.d.F.F.f.D.D.D.D.d.y.Y.D.Y.A.q.u.f.Y.R.F.J.D.A.J.B.H.H.D.D.D.A.A.S.R.].].R.].'.H.oX*X#XoX.X^.E.E.D.H.R.D.D.oXY.D.-X#XR.oX-XoX].oXf.R.^.R.Y.R.oXR.J.g.D.oXR.Y.D.E.@X].].[.@X@XoXE.[.@XR.T.@X.XJ.R..Xe.oX.XD.f.D.R.D.R.Y.H.Y.H.#XD.A.H.D.H.]..XR..X@X@XT.R.'.oX@X[.Y.8X5.q.2X].gX-X2X.X].A.oXoXH.7X'.T.hXqX2XxX2X#X@X3X=X-X%.o.qX[.f.H.y.'.g.F. .} ^.d. .R.D.~.D.^..XOXw.~.E.T.-XoXH.D.J.~.F.A.J.R.k.A.F.R.R.R.E.E.D.D.A.R.E.R.D.R.k.F.R.R.oX^.oXD.d.D.J.D.J.oXoXR.F.R.R.OXOXoXoXR.*XR.R.^.^.E.E.OX.XoXR.E.oXR.R..X^.R.k.D.*.k.e.>X^.^.7X7XoXR.R.OXoX^.E.OXoXJ.R.Y.A.R.@X@X^.D.D.oXY.D.R.D.A.D.J.g.g.D.A.f.k.L.F.u.D..XJ.Y.J.J.J.oXF.R.^.k.D.A.F.R.!.Y.Y.R.#XD.g.oXk.R.OXF.g.y.A.Y.H.oXR.D.oXoX@X].R..X~.F.f.J.^.R.F.Y.E.g./.OXF.F.j.j.l.Y.k.r.k.k.~.OX/.F.Y.~.R.x.D.D.J.e.k.d.k.OXR.R.R.R.^.R.R..XoX.XR.g.oXR.oX].s.k.k.x.x.D.k.R.^.R.R.^.A.R.^.Y.Y.E.Y.f.R. .].*X}.'.y.D.D.g.A.*.",
"5.u.[.'.B.D.oXu.Y.OXs.y.e.y.e.A.k.D.R.E.H.D.T.[.D.T.E.g.e.6.g.B.[.@XoXD.Y.].].T.N.N.N.H.].H.u.u.&.B.R.].A.g.A.g.H.H.H.H.R.].J.g.u.*.5.q.D.D.D.B.A.D.J.A.D.A.D.D.f.D.A.Y.].Y.OXD.&.u.k.w.A.D.J.J.D.J.^.q.q.k.A.F.A.D.g.u.k.A.g.A.B.g.f.D.J.H.H.J.H.J.J.R.H.].]..XJ.R.oXOXoXoX^.E.A.J.oX.XY.oXY..XY.D.A.E.#XoXoXOXR.R.^.OXoXR.!./.R.J.R.E.A.J.A.B.J.].@X&XoX].].].[.@X[.E.D.Y.Y.D.OXA.J.E.oXD.f.D.g.J.R.R.E.D.OXY.H.oXoXoX@XoXR..X[.[.[.oXoXJ.H.D.-XoX-XOX-XOX-XoX-XR.7XoXR.R.J.OX'.T.=XtXgXqXgXyX3XqXH.}.'.M.fX=X2X7.].N.J.A.K H f.uXq.^.oXOXoXF.F.J.S.~.D.g.D.oXY.E..XR.A.F.R.Y.R.F.F.J.D.J..XoXF.F.D..X.XR.D.R.z.Y.^.].oXoXoXA.k.J.R.F.J..X.XR.k.g.R.^.^.R.R.R.*X^.^.^.^.oXE.U..X.X.XoXE.R.oXR.Y.J.D..XF.e.D.Y.D.F.*X7XoXR.Y.^.XXR.R.XXoXD.D.A.k.D.[.@XY.d.D.J.D.Y.J.g.D.D.D.A.e.D.Y.g.k.F.F.D.A.J.g.A.A.D.D.R.F.F.oX.X.XF.k.d.A.g.~.oX@X#X#X@Xd.D.oXoX.XD.A.f.R.@XoXJ.#X@X@X.X~.F.D.D.k.R.F.z.R.oXR.d.!.F.k.d.r.l.F.F.d.k.R.D.~.F.^.F.R.R.^.F.Y.D.D.k.^.F.k.~.J.R.Y.Y.E.E.R.Y.F.D.R.J.#X@XoX].F.F.k.d.r.k.k.XXY.^.^.R.d.F.E.J.+Xg.g.D.@X5.0XqX6XC.'.D.B.D.^.N ",
"q.y.B.R.g.g.Y.g.g.Y.s.D.D.A.&.^ e.D.R.H.D.'.[.'.[.'.H.H.'.y.%.B.].@X.Xu.D.oX@X@XH.].H.B.H.H.D.g.g.A.F.R.R.e.A.k.N.H.'.J.J.R.D.f.D.g.A.g.D.d.A.D.u.D.J.D.D.g.A.D.R.E.D.H.D.A.Y.Y.&.k.k.d.k.D.D.D.D.A.e.F.D.g.k.F.F.} Q u.A.A.D.A.B.u.g.D.D.N.A.R.J.J.H.T.H..X].oX.X.XoXoXE.E.D.f.q.d..XD.D.g.Y.oXY.Y.A.D.E.oX*X*XOXoXoXOX^.R.R.^.OXoXOXoXD.D.D.R.H.@X8X-X[.R.'.[.@XE.&X*XE.A.oXoX;.r.A.R.[.;X[.A.g.g.u.H.R.A.D.Y.oX.XR.R..X.XR.F.+X].R.].@XR.H.D.oXoXoX-XOXOXoX7XN.#X-X.XoXY.J.^.[.=XR.R.yX8X@X&XfX6X@X6X7.M.1X1X].@X6XC.e.L ~ t.f.g. .d.J.F.D.R.k.u.A.J..XY.A.D.D.D.R.R.F.R.D.D..XJ.R.].J.J.].].D.R.R.R.R.R.J.J.U.Y.OXoX@XR.D.D.Y.D.D.R.^.R.D.A.^.D.oX^.R.^.~..Xs.D.oXE.Y.oX@XE.E.Y.J.J.f.D.OXE.g.E.oXR.F.R.r.y e.F.^.R.oXoXoX*XOXR.x.F.F.D.A.k.D.D.T.[.D.k.F.D.D.F.A.g.E.A.u.D.A.D.B.f.!.OX.XD.D.J.D.R.oXoXR.J.R.A.f.D.D.R.A.D.e.d.d.y..X@X].R.OXY.d.d.R.D.k.J.R.oXoX#X].@XOXR.OXF.F.F.J.oXJ.R..XXXF.F.k.d.r.l.k.F.F.d.w.k.^.F.x.d.F.A.D.F.^.F.D.F.A.OXOXoXr.r..X^.J.D.E.oXE.Y.A.^..X@XD.[.[.qXD.D.D.Y.^.F.r.r.F.R.R.F.d.k.D.J.].].oXT.{.t.,X2X1X3X2X-Xy.} Q y.",
"Q t.e.R.oX .$.OX} g.f.y.e.q.:.f.d.u.f.H.R.J.H.J.R.H.D.B.B.D.f.f.D.J.J.r.D.].[.&X+X#X'.D.A.A.H.B.g.D.Y.R.D.q.A.~.H.H.J.R.R.Y.D.h.Y.D.Y.A.Y.g.A.g.A.D.D.Y.D.A.g.D.D.f.g.g.D.OXE.OXk.k.F.R.J.J.J..XoX#XD.J.J.R.R.D.u.} &.J.D.f.A.Y.D.A.H.J.A.u.A.'.H.'.'.'.H.@XR.R.E.R.^.oX].oX[.D.r.R.R.oXD.^..XoXE.E.D.D.Y.R.oXoXXX#X:X.X~..XOXOXoXoX-X;X*XE.Y.oXoX#XoX[.@X&X@X@XE.D.E.OXoXu.D.E.w.A.~.oXD.Y.R.e.].D.y.g.A.D.Y.OX@XR.J.R..XoXoXR.#X].y.f.H.'.].oX+X@XOXOX#X-XN oX].#X-X@XE.OX*XD.].R.3XtX2X[.3XhXfXaX6X'.].V.6X(.H.'.aXH.u.n n y.g.g.A.oX.XJ..Xd.A..X.X~.E.g.oXoX.XE.Y.J.D.J.A.E.J.D.R.oXR..XoXoXR.^..XR.].R.R.R.D.D.oXoX#X.X.XE.D.Y.oXoXR.B.A.J.OXR.R..XF.~.~.~.e.z.oXR.A.Y.R.J.D.A.D.Y.g.R.R.D.D.E.oXoXA.R.*.Q F.~.OXE.*X*X*X=XOX~.x.x.F.F.Y.g.F.].[.@XR.D.R.R.D.D.A.A.E.N.u.F.D.F.Y.g.A.A.F.F.~.k.r.F.~.A.D.R.F.A.q.f.k.J.J.E.E.d.g.A.R.].J.F.U.D.h.Y.E.R.A.D.].oX].@XE..X.XE.J.F.>XOXoXoXF.OX/.!.F.XXk.l.k.Y.k.F.F.D.F.F.F.d.D.R.oXD.D..X.XR.F.~.F.^.~.R.k.k.oXoXR.Y..XoXE.E.E.Y.J.*X@X8Xg. .OXR.R.Y.!.Y.F.F.J.R.F.k.A.k.A.J.R.qXqX+X{.M.|.#X{.|.,X+Xy. . .^ ",
"} U B.].T.f.oX;.d.d.s. .^ $.e.:.s.g.A.D.H.].R.H.T.R.T.T.H.H.f.H.R.R.R.A..X].T.[.'.T.H.].].A.B.y.f.oXD.*X.XR.R.~.].H.H.J.R.Y.z.h.*.g.R.A.z.q.g.A.].H.g.F.Y.Y.A.U.g.D.f.Y.*XOXoXD.!.w.k.J.oXu.A..XF.F.R.d.A.D.D.D.u.F.R.H.A.k.g.g.B.N.B.A.A.B.D.H.H.}.+XoXH.@XS.u.^.Y.^.OXE.R.[.[.k.~.^.R..XE.E.f.D.D.D.oX@XY.T.Y.XXXXOXoXoXOXOXOXoXoX@XD.oX@XoXoX@X-X-X@X[.B.B.@XD.oX&XOXOXg.g.g.S..XF.J.T.g.D.[.R.R.H.J.Y.oXY.Y.D.H.oX@X.XR..X.X.X#XH.].'.@X].oX].@X#X*X*XoXk =X@X.XoXH.J.-XOXR.'.oX].8X&X[.zXuX(.@XfX6X,XjX}.6X}.|.6X}.t.e. .} f.d.oXE.Y.^.D.k.g.XX#XF.D.*.y.&.d.Y.R.D.A.^.A.D.@XR.]..XJ.].#X#X.XY.Y.J.].A.D.J.U.Y.oX.X#X@X.XJ.Y.Y.Y.D.D.D.J.].oXR.k./.D.!..XR.D.s.z.D.Y.R.J.F.E.J.A.D.g..XD.D.T.J.f.E.E.;.;.:.x.r.^.oXOX^.oXY././.F.x.F./.^.s.d.oX@X[.D.r.d.J.A.D.D.A.R.H.J..XD.J.E.D.F.A.J.R.F.L.!.F.F.F.].H.A.F.D.A.Y.A.Y.Y.oXF.F.D..XJ.A.F.D.h.D.D.;.A.^.D.oX#X].J.OXY.R.OXoXk.R.d..X>X!.oX!.D.XX/.l.!.F.F.F.Y.D.F.^.F.A.d.d.Y.Y.A.g.R.D.].F.~.^.R.*X/.OXF.D.Y.R.oXoXE.R.^.R.Y.oXE.R..XN.o.F.F.XX~.F.d.F./.R..XR.k.~.~.R.^.].[.-XgXfX2XqX3X4X+X,X2XD.y.f. .",
"D u.H.'.1X'.f.B.T.R.OX~ ..r.k.d.u.B.H.D.D.Y.D.U.J.u.E.D.A.r.e.J.T.'.[.@X@XoX&XB.g.F.R.D.D.A.A...H.].H.y.g.oXF.>X].R.B.R.].R.D.2Xg.y.E.J.F.q.A.g.D.A.D.F.J.~.J./.T.T.T.h.Y.oX@XD.B.A.g.D.^.^.oX.XY.E.E.A.D.f.&.g.R.J.r.D.g.s.B.y.r.g.k.e.k.D.F.u.].].[.[.}.[.T.Y.d.R.oXoX[.[.@X@X.X.X^.E.A.f.k.A.J.R.A.D.R.^..XA.J.oX-XoXoX.XJ.OX#XoX#XoXR.oXoX.X.XF.oXE.oXg.N..XU.U.R.R.D.D.e.e.D.B.H.].H.H.F.~.f.y.D.@X].R.D.k.D.[.@XoX#X-X#XR.OXoXD.&XT.Y.[.oX2X2X#X#X#X@XH.;X|.'.@X=X&X=X@X].R.J.J.OXY.-XJ.OX@X^.OX8X|.(.fXqXqX@X6X@XH.O.K L u.;.d.OXR.F./.P.oXoXD.D.oXg.f.h.Y.D.J.A.k.D.F.F.E.g.A.E.E.R.Y.D.J.R.R.H.g.A.k.^.~.oXoX#XOX.XOXR.]..X]..XH.J.H.J.@XU.Y.T.D.R.R.@XF.J..XR.oXoXOXoXoXJ.^.k.e.#X.Xq.D.D.g.z.D.y.d.D.R.F.R.oXR..XR.~.oXR.R.Y.D.^.Y.Y.N.'.oX+XJ.Y.A.Y.oXg.J.D.g.J.Y.D.A.~.J.k.A..XR.q.d.F.oXJ.Y.E f.Y.D.^.D.E.Y.F.J.^..XR.].J.~.D.J.J.Y.A.A.D.} k. .^.@X#X].].oXR..XoXoXR.g.N r.R.D.Y.R.R.D.J.D.F.J..X#X.X^.F.F.F.B.D.~.~.F.k.D.^.E.R.^.R.^./.R.oXF.^.r.E.A.g.OXD.R.Y.oXE.E.Y.R.oXR.D.x.!.r.k.oXg.F.F.R.R.R.k.Y.J.D..X.XoX@XqX4X{.6XaXaX5X6X X|.8.4.o.",
"n y.u.'.'.#XH.e.g.6.D.g.d.D.:X^.g.A.H.D.J.E.T.R.^.A.B.oXF.;.r..XT.[.T.D.[.B.g.[.R..XoXg.*.D.q.;.H.H.J.&.k.e.k.R.].B.J.A.J.R.q.D.D.D.g.R.D.A.g.R.y.g.E.J.F.k.k.k.U.T.U.A.E.OXR.f.B.A.g.J.R.J.R.D.oXJ.Y.Y.D.D.R.A.D.q.r.k.A.D.s.y.y.k.D.A.D.D.F.S.R.].@X}.[.[.E.E.OX*XOXoXY.Y.R.D.F.J.J.R.F.F.^..XS.J.oXJ.J.oXJ.D.R.#X-XR.E.oXE.OXOX-X#XOX*XoX.XR.*XOX-XOX.XJ.D..XY.E.E.R.D.R.D.D.E.R.].H.R.e.D.R.B.B.]..XD.A.D.A.T.[.=XoX@XoXR.&XY.E.E.*X[.@X@XoX|.].H.[.2X2XR.].}.'.=X2X[.@XT.[.R.R.oXOX.X-XOX7XwXoXOXoXH.H.'.'.}.fX5X1XH.I H J.A.J.u.D.:Xw.~ :XE.g.D.oX .OXU.oXoXR.F.F.D.F.D.J.g.A.oXOXE.R.oX]..X.XJ.R..X~.J.^..XR.@XoX*X*X&XR.].#XR..X-X.Xg.H.E.Y.R.Y.R.@X@XR.J.D.R.].oXoX*XoXD.J.^.u.r.oX.XH.A.Y.Y.A.J.g.u.q.g.k.R.F.A.F.~..X^.R.E.Y.A.^.R.R.'.T.T.].R.Y.A.D.^.OXD.A.A.D.E.D..Xk.r.F..X.XH.D.F.D.Y.g.E.D.F.R.z.D.g.E.oXoXR.D.H.R.J.F.J.^.~.F.D.D.A.E.E..X;.~.].].R..XoX@X#X.X.XR.^.Q  .y.E.D.R.R.D.J.R..XOXoX.X.X^.F.F.Y.z.D.R.^.F.D.R.oX^.R.E.^.^.R.J.oX^.~.R.k.q.q.R.R.D.E.D.R.R.A.D.oX^.D.!.F.d.F.oXk.D.oXR.R..XR.oX.XR.R.#X-X@X4X2X}.'.{.@X1XfX6X1X7.{ ].",
"} N.H.'.T.2X&.q.e.g.A.F.k...d.g.A.A.H.D.R.[.R.W.R.Y.g.R.D.g.A.H.T.'.'.f.H.g.6.H.#X.XoXoXA.g.A.e.y.D.e.F.u.A.d.F.oXD.D.R.J.D.u.J.F.q.q.J.g.A.J.R.g.g.Y.g.D.g.A.A.g.D.D.D.D.H.B.f.g.B.D.oXF.e.A.J.D.g.Y.OXJ.q.D.D.B.k.F.F.A.g.A.D.y.f.A.H.D.A.A.J.R.].@X=X[.T.D.D.D.oXOX[.A.B.T.D.F.L.^.^.A.F.F.F.OXoXOXJ.J.oXY.D.J.~.oXoXoX.XJ.oXD.OX^.oX*XR.J.R.#XOX*XE.J.F.J.R.T.E.R.T.D.[.].].*.].R.H.H.R.J.A.6.g.].D.A.J.#XR.] f.@X'.@X;XT.R.R.E.E.OXOXOX&XoX@X#X@X-X@X@X@X].[.@X@X2X@XR.-X@XR.J..XD..X#X.XD.yX*XOX&X2X1X@X=XZ.].aX3XH.D.I y.&.e.R.d.OX.X^.OXoXf.y.d.n E.oXf.Y.D.f.F.J.F.F.R.R.J.D.A.A.E.oXE.J.R.R.oXR.~ ;..XR.D..XJ.oX;X&X@X.X@X.X].H.D.H.-XR.Y.oXE.E.&X*XoX@XR.oX#XoX.XoXR.R.oXR.e.k.~.k.A.D.A.A.Y.R.y.y.g.y.g.OXE.D.F..X~.Y.R.R.J.D..X^.R.R.H.R.].].R.E.Y.e.*.A.J.D.E.Y.A.~.A.F.S.w.g.R.g.g.Y.oXJ.D.R.D.F.A.D.A.Y.D.F.D.g.J.].J.R.J.OX^.J.R.R.R.R.R.R.^.oX.XE.].oX.XoX#XY.u..XF.d.e.F.D.E..X.X]..XoXXX#XoXR.oX.XF.F.F.x.Y.k.D.D.A.J.E.J.D.D.E.^.E.R.J.^.R.E.D.D.F.R.R.A.F.Y.E.E.k.D.oXE.Y.F.^.!.Y.Y.R.R.^.Y.R.R.R..X].oXJ.oX-X@X3X4XqX}.6X@X(.#XgX|.|.H.5.",
"u.t.N.J.].@X .d.;.e.*.d.g.r.k.e.H.A.H.D.R.[.T.R.R.[.[.[.R..XR.J.[.[.&XD.B.R.R.B.R.A.Y.OX[.g.E.f.g.R.Y.e.OXk.g.A.H.].J..Xg.F.J.R.E.f.E.#Xr.q.J..XA.f.g.g.E.E.Y.A.z.F.D.A.e.g.N.H.A.R.R.oXF.g.R.R.Y.[.E.E.E.q.q.A.A.k.k.r.k.A.A.q.D.g.u.D.D.D.A.J.g.H.].oX[.R.Y.D.g.E.oX.X.XR.H.B.A.J.R.Y.u.A.A.F.XXoXD.D.F.J.R.g.F.J.R..XoX].R.[.B.].^.oXoXD.Y.oX*XOX#XJ.J.D.R.J.J..X@XoXR.R.g.y.D.H.D.A.R.J.J.R.H.H..XJ.D.D.R.g.%.H.].H.@X2XR.R.oXJ.F.~.oXoXoX'.'.2X#X@X.XR.#X-X'.-X@X].oXJ.2X].].@X8X]..XoXoXY.8X9XE.&X5X}.}.@X@X{.@XH.y.T.o.I q.&.g.y.R.D.OX7X.Xf.k.J.g.D.^.OXY.R.g.E.J.J.k.D.Y.Y.Y.D.D.Y.R.D.R.].D.D.R.A.A.F.oXR.R.R.Y.oXoXOX#XoXR.^.R.E.J.J.E.A.F.D.R.oX&XOX].].#X-X#X~.^..XA.R.g.e.k.R.r.u.A.D.D.A.A.d.F.R.d.A.#XOX~.R.^.J.R.F.F.F.D.R.Y.D.g.H.oXR.Y.A..XE.D.&.D.J.g.R.J.D..X.XF.A.D.d.f.D.D.].A.J.R.R.Y.r.Y.Y.R.^.J.D.Y.J.].R.R.E.Y.R.Y.R.^.oXd.&.D.D..XJ.^.oX^.R.F.R.oXY.~.u.r.Y.R.F.R.d.D.J.]..X.XS.J.J..X*XoXk.k.l.k.F.k.k.k.k.J.R.J.D.D.R.oXOXoXg.D.F.g.Y.Y.F.k.d..XoXY.Y.D.A.D.F.D.R.R.Y.Y.oXR.F.D..XR.R.J.F.J.J.@XJ..X-X#X@X#X5X]. X.X].#X@Xy.H.N.{ ",
"O.U o.H.J.D..Xr...k.r.e.A.g.r.F.F.H.H.H.'.'.T.T.D.T.R.@XR.e.A.].].R.].T.B.D.oXB.u.H.J.g.f.R.g.R.*XR.;X[.y.R.@Xg.oXg.oX.XA.u.O.g.D.f.q.D.k.J.D.J.F.g.y.A.D.R.J.J.r.D.F.^.R.H.y.o.q.oX#XR.A.D.oXR.H.[.D.&.R.oXD.H.D.e.k.w.D.oXr.O.H.g.e.A.A.D.B.D.D.oX@X[.'.R.T.y.e.E.Y.Y.#X.XD.H..X].].T.B.R.]..Xk.F.A.J.R.D.R.D.~.OXJ.g.g.R.[.'.oX.X#XOXE.E.E.OX*X*XoXR.Y.D.D.D..X.XoX.XJ.J.B.B.g.Y..XOXg.D.y.H.H.g.N..XJ.J.Y.D.D..XD.D..XR.J.].F.F.F.F..XoX].R.N.2XoX].#X.XE.#X].].-XJ.].2XoXOXoX.X].H.oX8X-XJ.2X9XoX&XqX@X+X=X+X@X,X5.o.[ D H.&.y.f.D.*X*XOXOXA.D..Xk.g.D.Q &.R.].D.^.F.R.D.D.J.D.A.A.D.D.D.D.A.R.^.Y.J.R.F.OXE.D.f.E.R.].[.oXE.#XY.R.*X-XJ.R.oXD.F.D.oX#X*XoXR.oXoX*X*XR.D.R.d.J.D.J.k.F.u.F.g.A.A.g.g.u.D.D.E.A.Y.oXR.^.~.~.^.R.F.D.A.D.D.A.A.R..XR.D.u.D.D.E.oXD.A.A.D.R.D.r.A.R.R.D.e.f.oXR.D.e.D..XR.oXD.q.&.q.D.R.Y.F.D.J.J.R.D.D.D.Y.^.J.D.F.R.e.q.oXD.D.R.D.A.F.E.oXoXoXd.~ F.r.R.F.D.D.D.J..X.XA.J..XoX>X/.j.d.d.j.x.R.R.F.D.R..X.X].E.oXE.[.[.g.J.J.E.E.oXY.D.A.oXR.E.F.Y.F.F.J.F.R.Y.Y.D.oXF.A.F.R.^.E.^.^.R.J.oXH.oX-X-X@XqXfX@X}.OX2X#X2XF '.I T.",
"H &.J.J.D.u.J. .w...;.r.r.J.J.g.J.H.J.H.'.'.H.T.R.oXB.@X.X..J.E.'.'.T.].R.u.A.D.J.A.].T.*.B.OX^.D.T.&Xf.g.T.H.H.J.%.D.R.#XB.B.T.E.D.Y.J.D.D.R.J.E.E.g.D.y.g.B.R.R.J.D.F.J.].D.y.q.R.R.J.D.D.R.R.f.B.B.6.y.J.A.A.A.u.d.d.g.f.q.r.g.g.g.B.A.D.D.F.D.R.].@X[.D.D.D.&.F.A.D..XH.D.@X[.H.R.D.D.T.B.f.A.d.F.J..XoXJ.J.OXOXD.y.e.B.'.H.#XR.oX^.Y.^.E.E.].#XJ.E.J.Y.A.D..X].J.J.D.R.R.oX~.R.~...D.D.E.g.S.A.D.R.A.Y.Y.D.F.#XR..XOXR..X.XD.~.R.A.D.oX[.[.'.].@XoX].E.OXY.].R..X#XoX8X^.*XXX@X@X.XoX-X-X-X2X7X*X*XqX,XN.B.@XhX+X}.3X%.=.B.f.q.g.g.oXg.*XOXJ.A.J.J.oXR.*.g.J.D.D.J.k.R.J.R.oXY.g.g.D.A.A.J.E.A.D.^.R.J.u..XD.g.y.oX@X@X[.R.A.oXoX^.A.D.R.:XD.E.*XR.oXOX#X.XOX#XoX*X:XoXA.D.D.Y.R.oXk.D.k.J.R.B.g.D.D.u.D.J.oXT.D.oX^..XF.~././.~.Y.F.F.oXE.E..XR..X^.g.A.J.D.B.A.A.k.D.D.k.y.OXD.r.oXOXD.oXR.A.J.R.E.J.R.oXf.*.u.D.oX.XJ.D.D.R.oXD.D.D.oXE.~..XJ.J.A.J..XJ.D.R.A.A..XoXoX.Xk.F.k.k.F.D.F.~.].J.D..XoX~.oX#XJ.oXY.k.k.k.k.F.~.!.F.D.R.^.R.R.oXoXT.B.D.E.#XoXf.O.D.Y.OXoXoXR.oXE.oXR.Y.^.^.R.D.E.D.J.z.D.^.F.^.R.^.E.J.D..XJ.oX-X-X=XqX5X'.V.#XwXqX[.@X|.I [.",
"H J.8XJ.A.u.O. .;.u.D.f.f.g.g.A.F.F.J.T.T.T.C.T.].@X6.H.J.&.~.D.].@X+X.X#XJ.S.R.A.@XH.N.@Xf.D.OXz.U.U.y.[.Y.D.R.J.R..XH.oX'.@XC.D.y.D.D.F.H.#XD.D.oXE.oXA.N.N.N.J.R..XJ..X].].H.D.R.g.A..XR.H.D.[ &.g.R.B.J.R..X[.R.r.D.D.e.B.F.g.A.D.B.D.J.E.Y..X].R.@X'.e.g.T.Y.R.A.H.oX].J..XE.D.@XR.[.'.B.g.F.A.F.A.D.].D.D.^.R.D.D.D.B.H.B.].R.R.Y.E.^.E.R.R.#XJ.D.R.Y.Y.^.]..X.XoXR..XD.D.R.oXA.w.^.d.D.].S.F..XJ.A.Y..XD.R.-X].H.J.F.R.R..XoXJ.D.D.oXR.[.].N.oX.XD.R.-XR.R.#XR.#XoX^.^..XXX.X.XoX#XoXoX].].OXOX&XqXqX[.[.=XqXhXgX7X5.} &.g.o.B.H.@Xf E *XA.J.R.A.R.g.E.E..Xg.J.D.g.D.A.F.Y..XoXoXE.D.D..XY.F.R.R.R.XX.XR.oXY.Y.@X@X[.R.D.Y.D.^.OXg.u.A.A.r.J.OXD..X^.^.E.oX~.R.#XOX*XoXR.D.d.d.Y.D.k.A.D.R.R.E.H.H.R.#XR.g.U.^.^..X.XJ.J.Y./.XX!.^.^.OXD.k..XY..XoXD.D.E.oXq.D.D.y.D.A.A.A.R.A.u.A.D.A.Y..XD..X.XR.J.J.F.J.A.Y.D.R.R.H.J.J..XoXJ.Y.E.oXY.R.^.oXF.w.J..XJ.R.E.F.R.^.R.R.H.k./.XXOXF.J.F.k.R.R.D.R.R..XoXoXF./.F.k.A.F.~.R.R.R.F.D.R.R.J.D.E.[.T.g.g.[.OX#XY.y.E.E.oXoX^..X.XD.R.R.D.R.R.x.D.A.D.E.R.D.J.oX^.D.F.D.D.D.R.R.^.*XOX-X8XqX6X=X-X2XyXgXtX'.9.8.",
"Y F.D.H.d.u.u.r.@.F.F.q.f.A.A.D.S.D.J.H.H.H.B.'.@X@Xy.T.D.u.~.~.T.oX+Xg.J.#XoX~.H.T.T.T.R.*XR.R.e.s.$.&.oXJ.A.R.J.g.R.oX[.&XH.&XA.D.D.R.Y.R.D.D.F.oXE.Y.H.H.H.f.u.A.J.S.F.H.A.y.e.OXR.u.g.g.A.A.g.C.y.R.R.oXJ.u.Y.F.d.A.g.g.u.J.N.N.A.e.g.D.J.g.H.oX.X].D.f.T.T..XR.R.oXoX]..X.XY.A.@XH.H.B.B.D.A..XR.F.A.D.R.D.k.J.R.E.R.R.].B.H.#XoXoX*XoXoXoXR.oXR.&.E.g.^.oX.X.X.X].J.oXR.J..X~.H K #XY.[.R..XS..X.XR.A.Y.Y.@X[.].oXoX].R.oXoXR.A.~..X&XT.[.@X@X@XJ.#XOXY.E.R.oX-X~.-XOX7X8XA.S..X#X-XR.'.[.oX-XE.oX=X#XqX3XtX=XtXyX8XB.=.=.y.B.H.N.f.y.f.*X.XF.R.D..XA.g.E..Xe.J.R.D.E.R..X.XY.A.A.E.E.R..XY.D.D.R.R.S.oXJ.D.g.[.A.T.D.T.H.D.k.A..XR.A.d.A.k.D.F.k.#XoX.X^..XA.F.oXF.oXOXR.R.g.k.F.~.k.A.A.A.A.R.].J.B.R.E.} g.oXD.R.~.~.~.x.~./.F.^.~.F.} E ~.~.R.D.D.D.E.Y.Y.D.A.k.D.J.A.g.Y.g.r.D.Y.g.k.R..XR..XD.A..XF.A.A.Y.g.J.R.H.J.D.J.D.R.Y.oXY.T..X^.~.F.J.oXg.D.F.F.R.oXD.A.R.H.k.XX/.j./.J.k.k.H..XR..XR.OX#X#XoXOXF.F.F.F..X.X~.~.~.^.OXOX.XE.E.[.[.D.f.A.A..XE.R.E.E.J.R.R.D.].f.A.R.D.F.R.Y.g.A.OXY.^.^.R..XR.d.D.D.Y.R.R.oX^.-XoX;X[.@X1X5XzX3XtXzXtX[.9.9.",
"x A.oX&XD.T.f.=.Y.g.u.k.A.u.B.D.U.U.Y.U.U.I.I.B.D.E..XE.oXD.*X.XT.H.].D.H.R.H.H.Y.Y..Xg.f..XY.D.u.J.g.O.R.H.A.J.R.].R.[.J.J..Xk.H..X.XH.H.J.F.k.D.].[.B.J.D.D.A.g.g.D.D.R.J.J.N. .g.A.k.J.J.k.D.g.g.Y.D.E..XA.*.k.Y.g.d.u.O.e.J.N.y.B.e.A.R.s.U.R.R.].J.J.XX~.D.A.oX-X[.@XOXU.oX/.F.oXR..XR.D.Y.u.XXF.S.F.F.OX@XY.*XOXJ.g.J.R..XOXY.oX.X#XOXOXoXoX@X].@Xy.N.2XR.U.T.Y.Y.D.OXA.J.~.R.R.H.^.Y.*XY.R.k.A..XJ.A.J.S.#XOXY.oXoX[.=.&.H.J.#XR.oX*XA.@X#XR.#XOX~.J.F.OX&X;X&X3XqXhXqX1XOXJ..X#X.XE.OX&X>XwX8X@X-X2X+X6XuX3XtXT.&X&.K *.O.&.O. .A.~.^.^.E.oXY.D.J.J.R.D.].A.R.R.A.D.H.].].H.B.A.Y.D.g.f.D.A.F.~.D.u.g.R.F.D.D.Y.E.R.J.J.D.D.g.J.oXOXA.g.k.J.oXA.E.R.@XD.F.J.~.R.D.F..X.Xf.g.R.f.F.D.k.k.d.r.w.d.r.q..XF.&.k.:Xg.D.F.~.~.A.D.R.Y./.*XF.;.r.A..XD.J.J.D.T.J.J.S.F.k.k.F.k.D.A.D.A.R.R.R.k.q.H.#X@XA.J.].H.B.T.D.D.D.D.R.J.J.~.J.F.R..X^.R.L.~.F.D.A.F.k.^.T.'.H.[.].E.T.T.Y.~.^.F.J.D.J.J.R.D.oXE.OX8XoX&X.XJ.D.R.oXE.Y.^.[.+XoXN..XE.~.~.R..X.XD.k.D.F.!.D.E.E.Y.Y..XE.D./.R.R.R.F.A.E.A.k.k.F.R./.*X*XoX.Xg.r.F.^.~.~.R.oX7X8X-X2X3X}.[.qXxXtX=X&X&XW D.",
"x u.A.E.T.B.g.e.u.J.g.u.A.D.H.D.B.E.A.U.U.I.T.U.Y.Y.J.D.Y.Y.oX.XB.B.D.g.H.D.D.J.Y.Y.OXE.f.y.y.D.A.d.A.&.g.g..XJ.].Y.T.D.A.J.J.F.'.oX.XJ.H.R.J.D.A.D.[.R.k.k.Y.D.D.D.Y..XE.R.H.A.w.q.w.d.F.A.k.A.R.D.oXE.D.oXOXD.u.q.y.A.e.e.S.u.H.D.H.B.Y.T.E.U.D.D.J.J.J..XR.J.u.R.8X;X[.E.Y.R..X.XoX.X^.R.g.d.].R.J.u.F.D.J.oXY.E..XoXF.E..XR.T.oXE.D..X~.^.OX'.H.#X].[.-X5.N.*XU.g.D.A.D.D.A..X.X].u.D.Y.E.g.r.u.u.~..XF.XXF.Q q.E.*XOX[.E.A.u..XoXH.R.oXE.OXR.B.J.J..XoXJ.R.g.tXR.g.@XyX=X=XD.oXoX2X#X.XE.R.J.OX.X@XwX@X[.2X3X3Xf.f.f.K ! n A.f. .A..Xe.D.OXE.E.D.Y.R.D.R.oXR.D.-XR.J.y.J.R.R.J.D.D.Y.J.D.D.J.S.D.J.R.D.g.k.D.A.A.D.Y.Y.J.F.d.A.k.D.Y.E.R..X&.k.E.Y.OXoX[.g.F.J.R.R.F.D.F.F.Y.R.Y.F.F.D.F.F.F.x.r.k.d.f.D.F.Y.d.oXR.^.F.J.R.^.D.Y.~././.J.F.~.J.R.A.D.A.g.A.H.D.A.D.A.D.R.D.A.u.5.A.A.R./.eXoX]..XoXH.D.J.J.R.[.Y.D.A.D.^.]..XoXXX.XR.R.R.R.~.~..Xk.J.k.D.D.'.].D.D.D.A.T.[.~./.oX^.^.J.J.R..XY.oXD.D.OXE.oXR.E.Y.R.oXoXE.E.@XoX.XB..X.X~.F.J..X.XOXoXF.!.^.E.E.E.oXoXR.Y.R.R.F.~.R.D.u.D.Y.F.x.D.F.Y.^.OXOX.XF.F.F.F.F.R..XoXoX#X-X3X2X@X1X=XqXT.6.D.&.=.*.",
"h ..oX#Xy.A.Y.e.e.D.q.q.u.g.g.D.e.f.^.A.h.W.f.D.D.D.J.J.Y..XJ.D.N.B.B.N.R.D.H.R.D.g.D.D.A.A.e.y.k.e.k.J.k.A.R.J.A.D.R.H.R..XD.R.].]..X.XJ.R..XJ.J.oXT.H..XJ.g.T.D.A.A.E.A.D.D.D.A.w.w.u.g.k.D.F.oXR.A.D.oXY.y.D..XR.k.g.A.A.g.&.B.A.g.g.Y.Y.U.U.E.H.J.H.J.R.Y.]..XD.E.oXoXoXg.Q /.OX/.OXR.D.A.E.R.J.J.S.~.J.J.XX-X#XJ.Y.R.J.k.F.D.OXoXY.E.~.#XoXoXD.R.T.R.[.y.T.[.D.A.D.A.J..Xd.E.R.#Xk.A.oXOXf.k.F.J.D.J..XJ.XXe.u.u.D.R.E.@XA.D..XB.R.*XE.OXoXR.A.J.D.S.~..X.X[.;XR.'.oX&XoX@XT.&XT.Y.E.E.>XeX~.>XoX#X8X-XqX2XtX@XT.g.D.&.F y...e.&.q.u.r.k.R.Y.Y.D.R.R.D.R.#XR.H.R.R.D.A.R.E.J.D.A.D.F.J.J.Y.A.A.A.F.J.D.A.g.A.k.A.D.Y.R.Y.J.A.d.A.^.oXA.D.*XD.&.D.D.D..XB.D.~.R.D.k.D.R.!.^.Y.D.r.R.D.k.k.k.k.k.r.k.D.J.e.&.OXg.R.^.^.!.R.F.D.A.k.D.F.F.F.F.J.J.^.D.D.e.q.A.D.A.A.A.A.F.^.F.D.D.A.f.A.D.~.OXoXH.R.oX.XD.R..XR.oXY.F.D.D.R.R.XX.XR.J.E.R.F.F.D.J.J.J.R.Y.^.R.T.R.H.D.D.D.[.@X^./.^.oX.X^.J.R.^.E.^.R.R.oX.XoXE..XE.R.E.oXE.E.oXoX#XJ..X^..X~.~.oXR..X^.A.^.~.Y.Y.R.oXoXY.Y.E.OX!.^.R.R.D.D.R.^.R.R.~.F.F.Y.R..XJ.F.F.D.F.R..X^.OX-X-X3XtXqX5XgXgXT.[. .B.&.D.",
"} Q g.-Xf.B.B.q.g.y.e.q.u.A.g.H.y.g.q.5.f.H.B.g.A.D.R.Y.R.J.D.k.B.R.D.B.].D.J.R.D.E.oXA.q.q.y.D.R.R.D.D.f.g.f.g.D..XoXH.J.J.A.R.J.H.R..XJ.R..XJ.A.H.T.'.D.D.D.J.T.D.D.E.D.D.D.A.y.d.A.A.g.k.k.u.A.A.g.g.A.R.B.e.g..XD.e.g.g.u.D.].R.H.B.T.[. .R.R.Y.]..X].E.D.H..XF..XOXoXoXD.*.k./.F.J.D.f.D.R.g..XA.R.F.R.R.J..XA.D.*XOX#XOX.X&XoXoXOXJ.R.#Xu.J.].H.oX].D.oX.XY.[.oXY.A.E.].g.D. .J..XD.J.^.R.F.r.J.J.J.r.U J.y.k.q.D.E.OXE.OXD.F.E.D.oX*X].OXR.R.-X#XJ.J.~.oX8X-X-X2X8X-XoXoX@X;X@XY.*XoX7X7XoX7X7XqX#X2X5X'.@XB.R.y.e.H W =.} q.e.D.F.D.u.F.D.E.J.D.J.R..XR.J.D.f.D.A.D.oXE.R.A.B.D.J.Y.Y.Y.D.A.D.F.R.R.R.R.A.A.A.D.R.E.R.Y.D.F.R.J.E.Y.R.J.OX~.;.D.E.J.[.E.d.k.k.k.F.~.J.R.Y.g.q.J.A.A.k.k.D.D.e.q.f.Y.r.K *X~.^.^.R.^.F.D.F.J.k.D.J.F.F.u.J.F.F.A.F.d.f.A.J.D.D.A.A.F.~.F.D.E.R.u.D.A.F.J.A.g.J.R.].J.^.E.R..XE.R.J.Y.E.].oXR.D.F.R.R.D.D.A.F.k.R.D.J.F.D.T.Y.U.D.[.R.oXE.R.^.R..X.XoXR..XoXoX.XOXOX^.^.oXoXE.Y.R.oXE.E.OX.XoX-X.XE.R.oX.XoX*X^.J.D.F.OXOXE..X.XoX.X.XE.R.OXJ.R.F.R.F.z.D.J.D.J.R.J.F.R.^.R.D.D.D.F.F.Y.J.R.oX7X@X;XqX5X}.T.3X6.&X6.6.L &.",
"L D.w.D.D.D.e.A.q.&.J.f.A.J.D.A.g.D.u.u.D.B.H.g.g.D.J.D.J.g.J.A.g.'.D.N.R.J.R.H.J.H.R.oXoXH.e.q.r.D.D.O.k.D.J.e.O.J.R.J.].J.J.J.D.A.J.].J.J.].R.D.T.T.T.A.D.A.A.A.A.T.Y.D.A.g.;.g.D.k.q.;.u.g.k.u.g.u.y.e.A.y.e.~.J.~.D.e.g.A.y.H.A.H.e.y.B.K T.R.J.R.J.R.R.H.T.D.F.E.E.E.E.D.D.k..XF.k.D.k.D.y.A.~.k.F.u.A.A.F.^.OX^.OX*XOXJ..X&XE.R.*XE.^.*Xk.A.oXoX.XOXoX.XR.oXoXoXE.D.[.D.].D.q.Y.J.A.F.D.R./.F.J.J..XD.&.A.A.R.J.oXoXOXA.oX*.g.OX*X*XD.F.oXE.R.OXOXR.F.J.oX;XO.].7X-X-X8XoXg.f.D.Y.oX@X.X].OX*X8X7X3X@X].T.2XD.B.A.R.K &.&.;.u.U r.A.&.g.oXA.E.R.D.J.].R.D.D.D.A.A.D.g.E.E..XD.D.Y.R.E.oXE.F.g.f.A.J.J.F.F.F.D.D.J.R.R.R.H.F.F.R.D.R.R..XJ.r.OXe.d.E.E.Y.B.A.A.D.A.F.R.F.R.E.A.A.A.g.D.A.F.Y.Y.D.D.F.R.F.n r.k.F.~.^.R.D.R./.^.k.F.~.F.F.D.J.J.D.u.A.u.g.A.J.D.J.D.A.F.F.k.A.R.g.d.u.D.k.R.].J.R.J..X.XoXR.].R.Y.D.D.J.R..X.X.XR.R.J.F.A.F.J.F.D.F.D.D.D.J.Y.Y.D.A.E.U.[.Y.^.^.R.^..XOX.X.XE.E.J.^..X^.oX.X.XE.Y.Y.oXoXoXOXoX.X@XE.E.E.R.F.F.R.R.D.D.R.oXoXOXOXoXoXoX^.Y.D./.!..XD.F.F.A.D.J.A.A.D.D.F.^.OXR.D.D.R.F.D.F.R.^.oX7X2X3X1X}.'.R.2X8.s.T.f.E f.",
"g ;.q.F.OXH.K -XoXq.Y.q.&.q.A..XD.A.J.u.D.D.H.g.q.A.H.D.R.g.].D.N.R.H.g.H.R.'.H.H.R.T.H.R.D.u.e.d.A.J.e.f.A.A. .U u.H..XoXR.R.B.A.A.J.R.H.J.].R.E.@XC.B..X.XA.A.B.D.T.D.R.F.D.g.u.D.D.g.A.A.u.y.g.u.q.u.A.e. .y.J.r.A.A.u.J.oXN.H.y.D.y.g.H.A.J.J.D.J.D.D.D.D.H.F.oX*XoXE.J.D.XXR.^.R.J.R.A.E.D./.k.F.D.F.F.k.F.oX.X.XOXJ.^.oX.XY.Y.D.oXoXOX*XOXE.E.oXR.E.oX.Xy.E.E.E.U.D.-XD.].[.@XoXg.R.OXD./.F.XX.XJ.A.g.E.oXJ.D..XR.E.*XOX.XA.F.*XoX-X#X*X*X7X*XOXoX.X^.oXeX2XB.J.R.7X].D.oXoXF.D.E.D.@XD.R.oX8XyXR.fX#X'.].[.g.u.u..Xq.U =.~ k.&.g.oXA.g.D.g.Y.Y.R.].J.R.R.D.J.D.D.D.D.Y.D.J.D.R.^.Y.Y.oX.XoXE.R.^.^.J.J.R.R.R.R.R.].].R.H.F.k.R.OXoXJ.J..Xk.k.^.J.g.oXY.D.~.R..XF.F.^.R.OXY.D.oXD.A.A.A.D.Y.A.g.g.y.e.R. .k >.k.F.^..XY..XF.~.A.u.A.J.^..XH.oXoXJ.J.B.D.R.D.A.J.D.A.D.A.r.g.D.g.w.e.A.D.D.oXoXoX^..XR.^..XR.J.R.F.D.Y.Y.]..X.XR.R.J.J.F.J.H.H.D.J.A.J.D.].D.F.D.Y.E.Y.E..XoXOXE.R.E.oX.X].D.E.Y.J.R.oXOX^.F.^.E.D.E.#XOXE.Y.E.oXY.Y.E.J.J.R.J.E.^..X.X^.#XoX~.R..XoXE.J.Y.OX.XoXF.Y.R.E.Y.Y.D.D.J.J.Y.^.oX.XA.k.Y.E.R.R.].^.#XuX2XqX6X}.C.[.[.[.D.U.E. .s.",
"j K O.A.J.D.} A.R.y.D.A.k.q.u.A.R.u.O. .B.f.[.q.5.g.J.J.].J.R.D.H.T.R.g.H.R.'.T.D.oX].D.D.B.e.&.F.A.d.A.q.B.D.B.p.A.J..XR.H.D.g.g.A.Y.R.R.R.R.R.T.g.B.D.H.R..XR.f.B.g.g.D.A.g.A.D.D.D.D.k.A.A.u.e.%.g.u.e.g.A.q.S.F.J.D.H.J.R.@XD.y.A.B.D.J..XN.A.D.[.@X].B.y.g.!.F.D.D..XoXJ.D.R.F.F.R.D.g.E.E.!.u./.!.OX/.J./.R.#XOX#XOXOX~..XE.R.D.^.R..X~.^.E.F.R.OX^.Y.OX;.E.oXE.H.D.@XT.B.R.D.D.Y.*XOXF.:XOXr.r.oXOX^.oXD.A.F.oXoX^..XoXY.OXD.*XQ ;.yXOXoXoX#XoXoXoXE.R.oX.X@XoXJ.oX7X8X#X!.~.R.E.E.oXJ.#XF.8XqXR.yX3X@XT.[.].J.A.u.d.*.E } D.u.r.oXD.e.D.A.H.J.E.].D.J.].H.E.D.E.A.oXA.D.A.g.H.R.F.D.E.R.^./.oX^.J.D.F.R.R.]..X].].].R.H.F.oX#X.XJ..XoXR.J.k.D.oXe.y.OXA.w.u.^..X~..XJ.R.D.E.oXD.D.D.A.A.U.D.D.Y.k.A.^.e.^ k.!.Y.^.^.R.J.F./.F.u.D.oXE.R.u.D.D.D.].D.A.u.A.g.D.A.A.J.D.g.f.k.D.w.k.D.R.A.D.]..X^.J.F.J.^..XR..X~.R.^.R..X.X.XR.H.J.J.J.J.q.A.R.J.g.D.e.A.A.D.D.oXoXE.E.oXOXOXoXD.R.oXoXR.R.oXoX^.E.E.Y.D.F.oXE.D.Y.oXoXR.J..XoXY.Y.E.J.E.R.F.D.F.F.D.Y..X/.~.^.oXoXoX^.^.XX^.^.F.D.k.R.D.D.D.Y.E.]..X@X@XR.A.k.J..XoXoXR.F.*X9X].2X6X1X'.@X@XE.A.y.q.g.s.",
"&.*.~ F.S.Q D.D.y.y.q.y.D.A.F.k.f. .F.e.D.B.T.f.u.B.H.D.J.].R.H.'.H.R.N.A.H.T.T.J.].H.T.'.D.g.F.D.J.H.A.g.g.N.B.~.k.R.oXR.R.D.B.u.A.Y.E.].R.T.H.oXD.f.g.oXR.D.D.g.Y.D.U.D.g.&.e.A.A.Y.D.y.g.D.e.5.t.g.5.%.%.y.B.S.F.A.k.].J.t.u.%.5.A.J.H.H.D.J.].R.@X&XR.g.f.J./.!.^.R.J.Y.J.J.F.R.J.F.u.J.R.u.k.F.~.oX^.~.XXXX~.~.~..XR./..X.X@XD.Y.OXR.#X#X~.Y.E.^.R.oXY.R.oXE.D.D.R.H.R.@X'.T.T.OXoXR.XXY.k.~.O.F.R.k.OXE.A.J.oXA..XoXoXE.OX*XOXOXD.R..X-X#XOX-XoXE.-X*XoXOXR.8XR.]..X.X#XoX^.:X:X^.7X.X.X2XoX-XoX@X2X3XtX@X6X.Xu.u.A.*. .g.N oXr.O.R.D..X].D.Y.D.J.R.H.J.J.Y.E.OXY.A.A.g.D.A.g.D.R.J.Y.E.D.^.oX^.J.F.R.~.R.J.R.].].].].R.R.XX*XOXJ.g.].#X@XF.oXF.^.R.D..XY.| O.F.R.J.^.J.Y.D.Y.y.y.g.g.D.g.T.T.A.A.f.R.F.e.Y.F.!.^..XD.J.Y.~.!.J.D..X].y.e.y.J.R.]..XA.D.H.Y.A.D.A.A..X^.J.U.F.D.F.k.A.g.A.R.#XoXR.J.oX^.R.~.F.J.D.A.J.D.R.].oXoXJ.D.A.F.R.U 5.2XD..XH.g.D.E.R.A.E..XE.Y.E.oXOXoXD.^.oX#X].J.A.Y..XE.T.T.@XE.oXR.D.J.R.].oXoXoXE.J.E.oXD.D.D.E.A.D.D.D.oXR.J..XoX~.R.oX^.Y./..XoXR.u.&.D.Y.oXoX.XE.J.R..X.XD.D.Y.E.Y.R.E.J.^.OX*XH.-X6X6X6X=X=XD.u.f.f.$.U.",
"z ;.A.D..XA.:Xk.$.w.q.u. .&.D.h.J.5.y.'.[.H.B.I.C.N.D.E.R.F.F.F.T.T.].g.D.D.Y.U.H.H.D.H.D.A.y.D.J.O.w.k.A.A.s.g.D.D.D.H.@XH.T.N.D.Y.T.E.J.^.Y.D.R.J.A.D.R.T.N.H.A.g.D.H.D.B.D.g.g.D.T.y.r.S.k.g.e.*.*.y.f.y.d.R.D.F.k.k.r.A.A.f.y.'.].D.f.N.H.N.R.J..XoXoXJ.Y.D.J.oXoX@X].J.A..XT.[.R.A.A.~.R.u.D.D.B.A.J.D.oXoX+XN.oX].oXE.oXOX.XJ.D.oX.X#XOXoX*XOXR.oX[.D.R.+XoXR..XR.F.R.J.oX^.D.oXoX#XOX-XD.D.g.E.-X].R.2X[.&X@X].R.oXoX].XX#X*X#XoX*X*.D.*X@X2XoXJ.oX>X-X7X-XoX;X&X-X@XoX].F.2X@X#XoXoXoXoX.XE.7X*X2XqXgXqX{.4X2X'.N.Q r *.k.OXk.k.XXF.!.F.D.D.Y.E.Y.Y.Y.R.oXA.g.E.Y.Y.D.D.F.S.A.J..XY.D.R.g.Y..XR.R.!.!.~.A.R.E.E.oX.XR.^.OX*X&XOXoX.X.X@X^.-XR.J.Y.D.~.F.F.F.oX*XF.k.E.Y.N.B.J.u.B.D.A.D.u.e.D.D.r.g.e.Q $.D.E.oX].R.R.R.F.F.F.J.F.J.N.g.g.F.F.OX~.R.u.A./.k.k.D.k.F.E.D.J..XA. .F.F.F.k.J.Y.R.oXY.D.@XoXE.Y.J.J.D.Y.E.E.]..X^.R.R.F.F.F.F.J.F.J.R.k.g.J.R.D.E.D.Y.oXoXoX@X@XoX[.[.[.@X@XT.E.oX.XR.R.^.OXOXoXY.D.Y.^.^.R.R.]..X.XJ.R.J.R.^.z.R.Y.g.D.Y.E.Y.E.oXJ.R.oXE.oXoXoXD.Y.R.D.J.~.D.R.J.J..XF./.oXD.F.R.k.XXoX~.Y.D.oX@X2X5X5XgXgX2X2X3X[.T.&.F *.",
"@...R.R.F.L.XXs.>.;.;.A. .y.f.h.].y.y.'.H.T.T.T.T.g.y.A.H.Y.J.F.T.D.H.f.D.D.D.h.N.H.T.R.R.Y.e.y.R.A.r.O.*.g.g.D.A.R..XD.D.f.D.T.D.E.T.Y.J.R.D.T.k.D.D.A.D.T.[.R.D.H.R.T.H.T.D.T.g.U.U.y.r.S.F.A.y.D.q.y.R.D.d.k.$.d.A.D.R.F.B.B.N.R.].D.g.H.H.H.D.@XoXD..XoXE.D.R..X&X@XD.k.D..XB.@X@XY.R..XJ.A.J..XR.D.Y.Y.OXoXN.B.@X7XoXD.D.oXJ.Y.J.oX.X#XoX^.D.7XE.y.-XB.g.=XOX.XoXoX#XJ.R.R.E.E.*X#XJ.R.OXOX^..X#XR.-X@X].@X].oX&X#XoX.X.X.X.XOXOXE.-XD.oXoX=X-XoX~.E.oXE..XoXoXR.oX[.oX;X-XH.oX#XR.-XuXE.E.@XOX-X[.3XgXtX=X4X,X4X1XT.&.r Q oX;..X:X!.F.k.l.A.B.[.T.A.T.OXD.Y.A.D.E.Y.B.A.D.F.A.D.R.R.R.E.Y.OXOXY.R.oXF.D./.R.^.R.E.oX.XR..XR.*XOXY.R..XoX].F.7X^.Y.#XE.F.F.oX.XoX.XoXk.k.J.A.D..XH.J.D.g.A.u.y.A.A.k.Y.Y.g.;.D.R.E.].R.R.D.R.k.w.d.F.J.k.A.D.F.A.J.F..XF.D.F.A.J.R.D.D.D.k..XJ.u...F.F.R.F.D.J.R.oXE.Y.oXE.E.R.E..XE.E.oX.X.X.XE.R.R.F.F.F.k.k.D.F.F.D.A.R.OXoXR.R.R..XoXoXoX+XoX].R.].[.[.oXY.J.E.*X#XR.d.oXoXE.Y.Y.R.Y.D.R.@X.X.X@XR.A.J.Y.z.s.A.Y.Y.Y.D.R.Y.E.R.Y.oXoX^.U.OXE.J.J.J.R.J.R.^.J.J.~.R.^.OXJ.J.F.r.^.oX^.F.D.oX&X=X2XqXqX6X[.3XqX8XR.[.b K ",
"9 w.A.O..XL.~.k.E e.e.g.g.D.q.D.A.J.N.H.T.H.y.N.B.B.B.D.D.D.D.Y.'.R.R.B.B.A.A.B.H.'.H.g.g.D.f.u.e.e.u.r.D.R.g.B.D.H..X.X.XD.y.f.D.E.T.D.D.F.A.D.A.d.J.H.D.D.'.D.R.oX@XR.'.T.N.T.R.D.f.g.u.;.r.J.;.d.E.D.A.D.k.R. .;.F.J.F.A.R.[.].B.R.@X@XoXg.H.R.@XoXR.OXE.R.oXoX'.@X@XH.A.J.R.T.[.@XY.k.R.#X.XJ.J.J.Y.E.D.].oX].-XH.@X].E.#XR.D.R.F.Y.E.OX@X@XoXoXf.A.&X@XH.+XOX#XoXoXoXJ..XJ.D.Y.^.D.g.oXR.7X#XJ.H.@XoX@X&X@X;XoXoXoX].oX#X.XY.OXoXoX-XoX*XOX=X@XR..XoX*XOX-X].].B.].].@X2X@X2X#X-X-X@X*X7XOX*X-XuX-X5XfX5X=XqXqXfX3XH.6.n r ;.r.F.A.D.!.a.k.D.R.D.E.R..XA.D.A.Y.OXE.E.D.D.A.J.A.J.R.Y.E.oXR.g.E.A.D.Y.D.F.^.^.R.J.R..XoXoX#XOX*XOXE.]..X.X[.g.E.^.oXoXR.E.D.A.R.^.g.R.D.J..XD.A.R.A.A.A.A.J.B.A.A.d.k.Y.D.D.e.D.Y.E.oXE.R.D.F.D.r.k.D.F.k.F.J..XR.~.F..XR.D.F.F.F.F.D.D.Y.R.`..XF.u.F.F.R.~.^.R.J.E..XE.R.D.E.R.E.oXoX.XoXE..X.XE.R.R.J.F.!.F.F.F.J.F.D.J.H.D.oXY.OXE.E..XR.R..XoX].Y.T.Y.R.[.Y.D.R.OXoXR.k.oXoXoXoXE.E.Y.H.^.R.J..X@XoXoXA.A.D.d.A.E.D.A.Y.R.g.g.D.F.E.E.f.g.R.Y.F.F.J.R.J.R.R.D.Y.Y.oXY.oXF.F.R.k.OXOX^.F.D.[.8XqXqXgXfX5XqXqX=X3XH.=.E.b ",
"3 O.J.D.~..XA.&.~ &.q.O. .f.D.A.N.+XH.N.H.H.%.6.g.B.D.D.D.g.A.E.H.H.H.B.f.B.N.B.R.].].H.J.R.A.k.%.e.S.S.D.D.N.R.R.D.R.].R.A.e.D.A.D.Y.T.A.A.A.B.E.A.Y.H.].H.R.N.J..XT.R.H.D.B.D.g.D.g.k.k.d.D.A.u.g.d.D.g.r.J.D.e.f.w.e..XY.D.[.].R.@XR.R.oXY.Y.oX].@XoXoXE.OXoXoX'.[.@XoXF.E.Y.D.@XoXD.D.J.J.^.A.].oXD.Y.oX*XE.A..XD.R.H.^.R.D.D.J.D.D.].@X@X&XOXOXA.oX[.oXB.R.J.-XoXoXD..X.XR.R.-XY.Y.E..XE.R.OX#X#XA.2 oXOXE.oX@X2X7X@XoXoXR..XoX^.oX#X^.oX-X2XoXJ.^.E.*X*X-XoX-X#X-XR.D.oX-XoX.X-X8XoXD.-XoXE.[.uXzXfXfXjXgX5X1X{.fXC.j K e.r.;.d.#X!.w.k.OXs.f.A.A.OXD.Y.E.A.Y.Y.D.R.D.A.g.R.D.J.R.E.E.oX.Xg.].D.D.A.D.F.F.J.J.J.J.R..XoXoXoXOXoX.X].R.R.].k.R.OX*XE.Y.oXR.D.F.OX^.OX*X#XR.f.f.Y.A.A.D.J.A.D.D.D.A.D.R.Y.Y.r.D.D.Y..X.X.XJ.d.F.^.F.k.F.F.k.J.oXR.F.D.R.D.D.F.J.F.F.R.R.Y.R.J.XXoX~.J.Y.R.R..X.XR.R.E.R.D.D.^.R.R..XE.E..X.X[..XE..X^.R.J.^.J.F.!.!.J.J.J.D.5.H.E.OXE.R.E..X].oXoXoXE.Y.R.E.E.E.E.R.R.R.^.oXoX.X.XoX^..XoXR.Y.Y..XoXD.y..XD.Y.D.Y.F.Y.D.g.E..XR.D.U.g.f.E.R.F.Y.Y.E..XJ.J.E.oXR.E.R.Y.R.B.D.~.F.F.d.F.F.Y.^.U.[.3XqXqXgXfXaX2XqX=X3X3X6.K 6.",
"H  .D g.O.u.F.u.} g.q.O.e.g.A.e.H.'.H.H.y.H.H.f.B.g.f.g.D.D.D.R.H.D.B.N.N.T.D.B.B.B.J.J.J.g.e.u.&.e.k.g.u.D.R.H.R.A.A.A.D.D.B.R.D.A.R.R.k.k.F.A.A.D.D.q.D.H.J.B.S.F.u.J.A.A.J.A.*.A.g.A.D.H.D.e.F.k.g.5.g.A.&.r.k.r.e.A.H.R.R.R.A.J.oXR.oXY.E.D.R.oXOXY.Y.OX-XR..X+X+X[.oXF.R.oXR.R.oXE.A.D.J.d.D.A.J.R.oXR.E.oXA.q.D.D.J..Xr.J.H.H.H.R.@XoX].@XoXoXOXE.[.@X[.D.q.R.#X#XD.oXR.R.oXD.-X*XOXoXD.D.#XJ..XoXJ.oX-X[.].-X8X8X7X#XE.R.-XoXJ.oX@XoXoX#X2X@XJ.R.E.;X-X-X8XoX@X@XoX.X-X8X#X2X2XD.R.oX^.-X[.E.oX3X3X1X}.}.}.fX1X1XT.W W W r.;.d.F.k.k.F.r.Y.D.R.oXy.J.oXE.oXE.D.J.Y.Y.D.oXJ.Y.D.Y.oX].R.@XoXR.A.J.A.D.F.D.J.R.].R.R.R.Y.D.B.].OXR.R.[.oX].D.OXOXoXoXY.F.E.R.Y.^.*X.X^.R.OXY.A.E.Y.J.D.Y.A.g.u.A.A.g.A.A.B.k.J.D.J.E.E..X^.~.^.OXR.u.A.F...H..XA.g.R..XD.R.J.^.J.F.R.R.Y.R..XXX.XR.J.oX.XR.D.E..XR.R.D.A.E.oX.X.X.X.X.XoXoXoXoXoX^.^.Y.D.F.F.F.J.J.J.R.R.D.e.D.oXD.Y.E.oXOXR.].E.E.Y.J.F.Y.R.Y.R.R.R.J.J.R.oX.XR.R.E.oX.XR.E.E.Y.oX.Xe.D.oXOXY.A.Y.R.D.F.Y.R.oXE.^.D.d.F.^.OX.XE.oX^.D.g.D.D.g.Y.Y.E.[.[.OX~.~..XJ.~.^.F.D.[.oX@X@X=X3X6X@X}.1X3X'.yX] %.[ ",
"z n  . ...~.J.F.A.D.q.y.q.A.R.u.H.H.'.'.N.'.[.T.D.D.g.B.R.R.H.H.'.H.J.H.H.'.R.H.R.D.J.J.D.u.u.A.D.r.e.q.O.u.R.].D.D.D.A.R.R.D.B.J.D.].R.A.A.R.H.H.R.R.A.].J.J.J.S.F.A.oXJ.J.F.e.q.d.d.A.T.C.B.f.u.D.u.u.u.y.f.&. .u.y.u.u.g.y.'.H.R.@X.XH.*.Y.9XE.oX[.Y.oXA.D.#X+X#X'.R..XD.Y.oXH.oX.XR..XR.A.A.A.J.#X^.oX-X*XoX].A.D.D.J.F.J.R.[.R.R.].@XR.R.].oXY.E.[.[.@XR.A.5.u.oX].R.J.H..X*X .OXOXJ.R.R.E.#XH..X#X#X*XD.&X-X8X2X-X8X-XoXE.oXoX.X.XoX@X#X#X@X@X.XJ.oX-X7X2XoXJ.#X@X#X.X-XyXo.g.H.R.2X-XoX#XR.oXU.E.qXqX1X1X6X}.C.C.}.y.W f.q.d.*.w.F.k.F.k.E.D.E.Y.E.R.*XE.Y.oXY.A.f.D.D.D.J.R.A.D.@XR.H.-X].H.A.R.D.R.J.J..X.XoXoXE.E.Y.A.D..XOXOXoX[.oX&XH..XoX^.oXE.D.D.#X7XY.oX^.E.A.R.OXD.D.D.D.g.A.D.J.A.J.J.A.A.D.A.~..XR.R.^.~.^./.E.D.R.R.A.J./.j.A.].J.F.oX.XF.R.J..X~.F.J.J.Y.oX]..X].J.J.].E.Y.A.R.J.D.E.Y.d.A.oX.X.XoXoX.XoX.XR.oXoX^..XR.F.F.F.Y.].R.R..X[.'.H.R.oXA.R.oXE.^.].'.R.R.Y.D.F.J..XR.J.R.R.J.J.J..XoXR.Y..X.XR.R.E.E.D.Y.oXE.XXJ.OXOXg.E.E.A.oXD.F.R.F.R.^.Y.D.F.oXoXoX].R.R.D.H..XY.oXE.R.D.E.E.R.R.F.r.k.~.!.k.z.oXoX@X=X1X1X@X1XtX|.B.D.B.%.-.",
"A N.]. .F.~.OXoX5.J.e.e.A.D.g.g.N.'.'.'.'.'.H.T.A.T.D.D.R.H.D.H.(.H.'.N.H.H.H.H.J.A.J.D.D.g.u.e.g.S.J.F.y.O.y.B.A.J..XR.R.g.D.J.J.J.R.D.D.A.H.R.R.H.J.J.J.A.S.J.J.J.J.oXR..Xg.r.y.A.F.k.D.W.C.f.k.w.g.u.r.D.A.q.u.g.g.A.B.H.'.T.].].].R..X-XoXD.[.R.E.@XOXq.y.*X.X@XT.oXE.D.Y.T.D.J.oX*XOXoX^.D.A.k..XoX#X.XE.OXD..XR..XJ.u.XXF.[.R.].R.R.D.R.R.Y.oXD.Y.E.g. .E.D.A.J.D.R.J..XoX*XD.F.J.F.u.OXJ..XH.g.D.#X>X9XOXoX8XyXwX7X*X^.R.R..X#X.X.X@X-X#X@X@XoXD.E.R.oXoX-X.XR.oX#X#X#XoXH.].R.;X#X^.OXE.E.U.g.R.=X6X1X1X5X'.T.H.T.W f T.}  .r.e.d.k.OXF.F.E.A.E.OXY.q.g.J.oXE.A.f.Y.E.A.Y.R.D.Y.oX].R.@XR.R.R..XD.D.e.J.oXR..XoXoXE.E.E.E.R..XOX@XR.R.=XT.R.@XoX^.^.R.Y.OX-XA.Y.OXOXf.L D.D.Y.Y.Y.g.g.g.D.A.D.A.A.D.D.R.XXOXR.R.^.~./.^.#X^.oX~.J.l.L.x.g.J..XR.R.J.D.F.A.J..X.X.X^.R.Y.J..X@X].].J.Y.R.F.~.F.k.^.R.u.g.oX.X.XoX.X.X.X].R..X.XE.^.^.E.R.R.oXoX.XoX[.[.[.]..XR.D.oXoXY.Y.@X@X@X[.R.J.R..XoXoXoXoX.XR.^.oXR.#X.XJ..XoXR.'.U.oXOXE.g.F.J.g.R.@XE.E.R.A.D.R.F.F.^.Y.D.Y./.OXoXoX#X.X].oXR.].oX^.oXoXJ.D.E.R.F.F.R.D.F.XX~.k.g.U.B.[.qX2X5X5X6X6XN.[.T.T.f %.",
"A z g.^.&.w.#XH.o.D.D.O.g.B.g.A.H.H.'.].R.H.H.H.g.B.f.y.B.D.C.'.).V.H.y.H.'.R.N.].H.R.B.D.H.A.e.g.J.S.u.N.A.D.N.A.B.D..X-Xg.A.D.A.J.J.g.J.k.g.H.T.B.B.g.y.A..X~.J.D.D.B.B..Xg.R.A.u.S.R.T.9.W { D.k.u.u.A.g.g.A.g.A.D.g.H.R.'.B.G.'.@X@XR.2XR.oXT.Y.[.R.R.Y.R.g.H.].[.3XR.k.F.D.].oXoXE.E.E.oXOXk.S.#XoXoXY.Y.E..XB.J.R.J..XJ.J.H.H.oX].R.A.J.F.oXA.R.F.oXA.B.oX#XoXJ.R..XoX#X.XF.F.#X;.D.^.k.oX.X#XXX].OX>X>X7XwX8X8X7X*X*XoXY.oXR.oX].@X#X<X@XoX@XOXk.Y.B.E.oX.XoXJ.oX.X#X8X-X2X2X@XR.R.-XE..XW.&.=.[.].1XqX1X5X(.M.f.f.f f |. .m F...d.eXXXk.r.R..XR..XD.f.g.E.g.f.u.g.A.].oXE.E.R.E.].].oX@X#XJ.B.J.H.y.U H.OXD.D.E.E.Y.E.oXE.oXoXoXoX[.oX-XB.@X@XR.^.Y.h.E.oXoXD.OXoXR.oX&.z.E.R.g.A.D.D.A.R.R.H.A.J.D.A.oX.X.XF.J.^.!.!.!.F.F.J.F./.L.!.L.R.H.R.Y.A.Y.oXF..X.XR.J.]..XE.Y..X.X.X].@XR.Y.E.F.oX^.A.R.J.f.R.oX.X.X.XR.R..X].R..X^.F.R.~.~.R.Y..X].R.[.'.'.'.].@XD.R.oX^.E.oX@X[.[.'.H.A.D.R..X.XoXoX^.J.F.Y.F.#X^.D.E.oXR.oXoX*XoXoXR.D.g.XXJ.E.-XD.J.F.&.Y.S.p.~.^.R.OXXX/..XoX#X].R.R.D.H.oXoXR.oXD.D.J.F.R.D.F.F.F.F.F.Y.^.h.W g.3X#X6XqX5X6XH.6.U.[ G -.",
"U ;.;.k.H oXR.=.k.;.R.e.;.f.A.D.g.D.R.B.T.T.D.D.D.A.A.y.k.F.Y.D.B.B.H.H.T.R.].T.Y.oXE.Y.Y.D.g.A.A.A.d.J.u.B.g.N.k.A.F.r.r.oXu.e.f.].B.e.g.e.D.J.T.T.B.B.A.H.D.R.A.F.J.J.B.R.R.B.F.D.F.F.g.e.} e.A.u.q.&.w.q.q.u.f.r.g.Y.B.T.R.y.u.J.].'.oX#XoX@X^.Y.D.-XT.g.E.[.#X@XJ.oX@XJ..XOXR.oXoX.XR.oXoX#XOX!.~.OXJ.J.#XR.J.D.R.Y.R.A.E.*XXXF.F.F.R.F.~.R.OXD.oXJ.J.]..X.XE.D.g.D.'.[.=X2XR.H.[.g.R.g.D.R.oXE.J.*X#X#X-X-X=X3X;X&X*X-XOXF.OX^.A.@X=X+X[.+X<X#X2X].g.J.OXE.oX.X^.Y.R.E.-XoX].@X@XD..X#X.X#X#Xr.R.-XoX<X2X-X<X2X@XD.D. .n J.E &.r.;.F..X/.d.g.D.E.Y.R.A.U.E.J.A.g.A.y.y.D.Y.E.Y.A.R.].oXR.@X+X].R.H.H.J.R.R.R.F.J.R.Y.E.oXE.[.R.R..XoX*X*XOX^.D.#X@X.X].B.&X*XY.E.-X2XJ.u.R.*XoXD.u.u.F.J.F.D.Y.Y.E.E.E.D.E.E.oXR.A.F.oXoXJ.F.!.e.w.f.R.R.J.J.oX^.oXoXoXR.oX^.E.J.D.R..X.XoX].R.].R.oX.XoX].E.J.E.^.R.J.D..XY.R.E.Y.Y.E.R.R.R..XoXR.Y.oXE.g.J.^..XoXR.].'.oX.XoX].J..X+X.X@X.X]..XR.F.R.R.R.)..X+XF.D.XXD.R.H.J.].R.R.R.~.OXoXoX@XoXA.f.A.E..X].].oXR.R.O.r.F.A.R.^.R.E.oX[.#X#XoX].J.J.F.F.E.E.E.E.#X.XD.R.R.F.F.k.k.F.F.F.z.Y.R.-XOX.X#X7X4X,X3XD.H..XH d.",
"L F.J.;.} A.R.g.w...k.Y.e.g.g.D.g.H..X].].R.g.k.A.f.D.D.F.A.A.T.T.T.R.H.].[.[.T.R.oXE.E.Y.A.y.y.r.^.u.e.q.B.D.g.A.J.F.q.;.J.g.D.T.D.T.R.g.q.g.D.H.B.R.H.J.A.R.F.J.J.R.F.A.D.J.D.&.R.R.r.e.J.].S.k.R.k.u.J.A.q.H.q.g.R.D.D.oX].H.J.+XH.].].'.R.R.oXoXOXE.y.D.[.[.2X#X].J.J.D.J..XR.D.R.@XJ.].oXR.F.x.oX^.A.o.H..XE.E.E.A.D..X*XoXXX~./.F.~.oXF.R.~.u.~.oXOX.XJ.J.D.k.g.R.oX'.[.@XoXR.A.A.Y.oX.XoXY.7XE.Y.#X8X#XoX'.'.@X@XOXoX^.oX#X#XD.R.-X2X@X#X3X#X'.].D.g.g.oX#XoXY.#X#X-X7XOXR.J.oXoXD.J.#X7XJ.A.S.OX@X2X@X+X+X3Xg.%.D.' D } J.e...r.D.k.OXk.D.D.Y.D.E.Y.Y.D.A.g.A.E.J.D.Y.A.A.D.D.R.R.].'.&X.XH.H.]..XH.D.R.R.H.J.^.J.A.D.E.T.E.E.E.oXOXOX-XOXA..XoX.X@X'.@X*X*X*XoXOX@XD.u.D..XE.A.A.D.S.J.E.oXY.Y.E.R.Y..X^.^.E.F.F.R.R.F.OX/.k..XJ.g.*XoXoX^..XoXJ.E.oXoXR.R.F.J..X.X.XoX].R.R.J.R.R.E.Y.R.Y.E.R.R..XR..XJ.Y.E.Y.Y..XR.R.R.#X.XY.E.Y.J.OXY.J.D.R.].oX].[.D.J.H.J..X.XR.].R.R.].Y.Y.oXoXoX@X].].oXH.R.Y.Y.J.J.].].R.R.J.~.R.].oX@XoXY.R.oX].J.D.R.~..XJ.oXJ.F.R.oXoXOXOXE.]..XoXoX.XE.Y.D.OXOXoXR.*XoXH.R.F.F.F.F.F.R.R..Xz.Y.^.*XoX#X8X8X,XvX2Xe.g.y.L &.",
"h ..w.H .. .g.E.r...A.Y.k.g.D.g.J.].J.J.A.D.d.F.g.q.B.D.F.k.A.T.D.'.].D.T.T.].|.].R.D.E.Y.D.f.e.F.r.e.e.I y.oXB.u.A.S.H.R.D.y.A.R.B.D.D.O.q.g.R.B.B.T.].A.D.R.Y.D.F.R.B.A.A.R.J.r.d.^.F.F.J.u.D.A.D.A.R.J.J.g.u.f.f.D.q.B.[.H.D..X@XN.R.R.].@X@X^.D.OXE.A.oXT.Y.H.R.].J.R.R.J.R.@X.XR.oXoX.XR.#X/.D.R.R.oXA.oXoXT.T.Y.D.J.OX#Xk.} F.OX~.R.A.R.OXoXA.R.oXoX.XR.R.D.g.B.[.].R.[.[.T.E.T.E.D.Y.R..XOXoXD.R.J.oX#X.X'.'..XoXoXR.R.oX.XY.R.@X].@X2X#Xy.#X.XD.g.A.u.Y.R.oXoX-XoX@X#XOXH.g.-X@XY.7X^.~.L.7X7X#X+X.XJ.).#XjXN.&.Q } U n ..k.e.;.J.~.OXr.g.D.Y.A.D.D.Y.R.D.A.A.R.Y.D.D.f.D.D.g.D.R.].R.oX].].J.J.].R.H.J.R.J.R.OXE.g.A.oXY.oX^.E.oXE.F.Y.F.d.^.#XR.R.R.A.*XOXoX.XoX-X].A.k.^.R.d.g.g.u.J.Y.E.oXOXE.Y.OXR.Y.Y.E.oXoX^.J.F.F.F..XJ..XOX*XA.oXE.^.oXD.J.R.R.Y.J.J.E.oX].R.oXR.R.R.H.Y.Y.R.Y.oXoXoXJ.J.].J.J.E.J.Y.E..XE.Y.oXoX.XoX.XD.E.oXD.oXE.R..XR.].R.oXoXoX].].oX.X.XoXR.R.R.D.D.^.^.R.[.&XR.E.[.E.Y.Y.H.D.R.R..XXX^.oX].[..X].E.D.A.J.R.OXJ.OXoXD.R.^.~.J.J.E.^.E.J.g.oX@X@X#X@XoXoXoXOX.XOX8Xg.oXoXR.F.F.~.Y.F.F.D.F.F.D.OXOX@X2X2XoX4XvX1X%.=. .U Q ",
"g w.A.q. .} g.g.r.r.k.d.A.D.].B.H.'.H.H.B.A.f.k.A.f.h.f.g.A.D.D.g.R.J.g.D.H.'.}.H.H.Y.J.D.D.Y.H.u.u.u.e.q.D.g.B.J.R.B.B.D.g.y.J.R.E.Y.D.f.y.e.D.g.B.D.oXA.D.A.k.g.D.H.g.A.D.R.R.r.F.J.~.F.r.D.J.g.R.g.D.D.D.q.g.A.g.A.g.Y.Y.A.Y.oX@XH.R.R.oX@XE.J.r.R..XY.E.g.A.oX@X#X].].oXR.oXoXoXR..XoXR.D.#X^.oXR..XR.oX^.R.T.A.R.E.R.R.F.;...e.OXD.J.~.R.oXOXR.^.R.R..X.XoX[.Y.U.oXR.[.*XOXOXE.R.oXE.D.J.A.D.Y.D..X-XoXR.-X@X@XoX.X.XoX.X^.R.J.@X7XoX].#XoXH.@XB.y.A.D.A.oXoXD.J.#X9X*X-X7X].-Xg.D.#X#X*XR.F.#X7X.XqX2X4X2X1XgX=Xg.e.H l n }  .k.A.A.F.OXR.E.Y.D.D.Y..XoX^.E.Y.D.Y.F.D.Y.A.Y.D.D.F.].].'.[..X@XR.D.J.R.F.J.J.H.H.E.E.k.g.E.oX].J.J.E.[.E.U.x.F.oX#X].oX-XOXOXY.Y.oXoXOXOXoXJ.R.J.f.d.D.B.J.g.H.D.J.oXY.oXD.R.Y.F.R..XoX.X.XOXOXR.XX#XeXJ.R.Y.oX^.^.R.R.A.J.D.J.R.^..X].R..X].].R.Y.Y.Y.R.Y.E.E.E.F.J.R.J.J.oXR.E.E.E.R.Y..XR.OXoXR..XoXY.A.J.J.H.].J.R.R.oXoXR.H.J.J.J.J.R.R.R.R.D.Y.oXoXoX&X&X[.[.OXOXE.R.D.D.R.]..XoXXXOXR.oXoXoXoXJ.D.E.!.A...w.R.R.oXR.~.J.J.R..XoXoXE.=X@XoXoXoXoXoXoX*XoXOXR.oXoXOXJ.r.k.F.F.J.R.Y.E.~.Y.>X#X=XqXhXqX5X,X6XH.q.&.Q } ",
"N ;. .D. .} s.s...d.e.f.f.R.'.T.H.H.'.T.T.B.B.g.R.D.T.g.g.A.D.A.F.J.D.u.T.'.].].R.H.H.f.D.Y.oXR.u.e.F.^.g.Y.H. .O.R.R.D.Y.D.A.g.D.D.g.J.H.&.e.d.R.J.R.D.R.A.D.A.D.J.D.D.D.H.D.J.A.g.R.R.R.].A.N.f.E.k.A.u.u.u.H.y.u.D.OXY.D.Y.@X.XH.R.H.E.[.[.@X.X.X*XoXR.oXoXoXoX.XoX].R.R.D.R..XR.R.@X.XR.J.J.D.oXJ.E.g.^.D.R.D.B.Y.oXY.R.~.D.R.Y.F.J.D.Y.#XR..X~..X^.Y.R.E.oX@X[.U.E.D.oX;XOXE.D.E.oXoXD.F.A.A.E.oXR.R.J.J.#X@X@X.X.XoX#XOXoX].2X;XoX2X-X]..X#X@X].H.@XR.D..X*XoX.XR.-X#X*X@X#X-Xg.g.-XA..X8XoXOXqX@X5X6X2X1X6XqXoXg.;.L H K E U u..X.XD..X*XOXY.J.E.R..XoX.XE.oXoXoXoXE.oXY.g.D.E.oXoX].].#XoX.XJ.J.R.S.A..XR.R.R.E.E.A.k.R..XH.R.oXoXOX&XR.R.^.J.D.A.F.OX*XOX^.E.E.E.OX*X.XF.d.F.A.g.Y.H.D.D.].u.u.*XoXE.F.F.Y.R.R.E..X.X.Xk.:X.XoXeX~..XA.Y.oX.X.X.X~.k.A.g.J.R.R.^..XR.R.]..X.XE.Y.R.Y.Y.R.R.E.R.J.R.J.R.Y.E.oXY.Y..XR.H..XXXXX.X.XJ.J.oXR.R.J.].R..XR.].].R.]..XoX.X.X.X.XR.R.Y..XoXR.oX@X&.D.*X^.oXOX^.J.J.oXoX.X.XJ.R.Y.OXOXOX#X.XJ..XoX~.F.k..XJ.J.J.~.R.J.R..XoXOX*X&X@X@X&X-X&XoXoXOXOX*XD.oX.X.XR.F.D.Y.R.R.R.D.D.k.x.7X2X1X3XqXqX5XqXqX2XD.} j ..",
"H k J.k y.g.y. .Q ;.q.d.g.D.D.T.'.T.T.C.I.B.T.I.D.D.[.U.F.k.A.Y.J.R.H.D.].].'.'.'.T.H.f.D.D.Y.A.r.R.w.g.Y.g.A.y.5.J.R.B.Y.Y.D.g.J.A.A.E.Y.f.R.g.R.R.D.A.J.D.D.D.R.H.D.].D.A.g.A.*XE.e.D.A.g.S.B.F.D.g.F.y.A.R.A.e.f.g.R.A.A.R.oXD.e.oXoX-X].H.E.]..X.XD.D.J.OX.XR.R.oX#X-XoX].@X@XoXR.oX#X#X.X.XJ.Y.D.J.J.oXR.oXg.A.E.oXJ.E.oX~.^.D.E.^.q.R.J.oXoX.X^.OXR.D.A.E.[.[.T.E.D.oXOXoXR.D.D.H.J.OX-XwXD.A.oXE.g.B.R.R..X]..X#X*XoXoXOXR.3X8XR..X#XoXoX=X2X2XA.D.J.#X*XoX-X-X#X#XwXyXzXOXD.7XY.oXJ.A.-XR.Y.3X3X@X5X1X6XtXN.N.J.wXz K ;.;.k.;.u.R.A.Y.R.D.A.Y.oXJ.J.^.oXY.oXoX.XE.E.E.Y.A.D.R.R..X].+X#XoXoXR.R.R.F.F..X].oXoXoXR.D.D.^.R.H..X@XE.[.oXD.R.oXoX^.R.F.E.OX*XOXE.oXoXoXoXD.F.d.R.F.g.F.D.D.J.H.D.R.oXoXOXY.r.F.oXoXoX^.J.F.u.F.OX9XwXJ.J.k.Y.Y.R..XA.F.A.u.y.H.].R.^.oX.XR.Y.E.E..XY.E.E.E.oXE.oX.XR.J.D.R.F.D.E.oXoXE.Y.R..XJ.XXoXJ.J..XR.oX@XoX@X.XoX.X.X.XR.]..X.X.XoXE.^.R.R.R.oX.XD.F.E.&.F.oX~.oX.X~.E.E.oX.XR.R.J.XXoXOXE.R..X].J.J.^.F.D.u.R.R.D.H.R.].R.R..X.X.XoX*X&X&X-X2X-X@X.XE.*XOXOXf.R.J.E.F.D.R.R.E.E.F.D.k.F.-XqXqX5X5X@XaX5XM.y.@X*Xn B.",
"n &.D.A.g.Q } n $. .e.g.A.B.B.B.D.T.T.'.T.I.T.M.f.B.R.D.J.g.g.E.J.D.H.H.'.J.].].H.].].H.f.q.y.D.k./.&.;.R.d.f.oX.X].R.D.E.D.f.y.g.D.J.J.D.D.D.q.e.u.g.R.D.F.d.d.R.H.J.R.D.A.A.A.D.J.J..Xu.A.k.D.Y.^.A.F.R.Y.J.g.D.D.A.k.A.Y.Y.oX-XY.E.D.A.A.Y.OX].J.J.J..XJ.~.~.oXoXR.E..XR.].@XoX-XJ.J.@XoXJ.-XR.E.#XE.R.R.R.^.Y.oXoXOXY.R.J.D.A.D.A.E.f.R..XR.oX.XY.oXE.F.D.E.@X&XR.&XE.oXoXoXoXE.R.R.R.-X*.E e.f.E.oX-X.XR.#XoXoX@X@XOXoX.XoXR.].2XR.D..X-XoX[.R.H.D..XoX@X.X8X^.R.-X7X#XoXzXOX.X-XE..XR.oXR.oXE.@X3X1XfX1X{.6X=Xe.g..Xq.H R...;.&.R.OXR.oXA.D.k.D.oXR.oXOXoXE.oXY.D.D.Y.Y.D.J.D.D.D.].].{.+X^.oX.XR.J.~.~.R.R.R.]..XJ.A.D.Y.R.R.J.J.T.E.@X&Xd.k.^.#XoX.XoX*X*XOXE.@X-X.XR.R.oXF.OXR.g.D.k.F.D.u.D.].D.Y.oXD.k.F.R.R.Y.R.~.~.A..XXXXXw.7X;.r.R.Y.R.R.k.A.D.k.u.H.R.R..X.XE.Y.Y.E.E.oXY.oXoXoXE.Y.E.R.R.R.R..XY.D.Y.oXoXE.Y.oXH.@X.XJ.oXoXJ.J.H.]..X].J.oXoXOXOXXX.X].J.R.[.R.J.Y.J.R.#X#XR..XOXOX>XoXoXoX^.Y.oX.XoXR.J.R..X#XoXoXR.R.].oXXX.Xu.F.oX.XoXR.D.Y.R.].R..X#X-X#X-X&X&XOX@XoXoX.X].R.OX^.k.^.E.D.J.oX^.oX^.R.F.d.d.F.F.R.@X1X5X5X1X5XfXC.N.g.=X} &X",
"O.A.7X-XR. .f.^ e. .&.A.f.R.D.f.D.Y.D.'.H.T.T.f.g.D.T.g.D.g.f.Y.R.g.N.N.].]..X).'.].N.H.g.f.&.g.F.r.R.F.k.R.J.f.].].].A.Y.Y.D.A.A.Y.g.f.A.Y.g.E.D.f.D.D.A.k.E.Y.H.R.oXR.D.H.R.B.J.J.g.-XJ.R.J.D.A.D.E.OXA.u.D.&.D.H..XA.^.Y.A.OXR.E.oXY.A.Y.oXF.J.J.OX.XR.F.F.~.E.oXR.oX@X].oXoXoXoX.XoXR.J.J.#XD.E.*XoX^.*X.XD.E.E.R.OXoXoXE.oX[.R.OXJ.R..X.XR.J.R.D.R.E.oXE.E.&X&XT.@XT.D.A.^.^.^..XD.R.8Xf. .R.y.R..XR.R.oX.X=X2X&XoXoX#XOX^.[.R.@X].oXoXoXOXoX[.T.H..X#XoXXXoX.X-XoX@X].oXwXOXY.oXE.@X#XoXoXoXoX-X3X1X1X1X{.6XT.H.D.N .X&.q.k.~.R.~.*XE.y.f.h.D.E.oXA.J.oXOXoXOXY.D.R.oX.XD.A.D.U.R.#X+X+X}.oXR.Y.^.~.J.F.J.'.D.H..XE.J.Y.Y.J.oX.X.X2X*X[.@XR.r.A.~.Y.oX*X*XoX*XoX*X*XE.E.oXE.Y.oXD.g.k.q.g.H.D.e.u.R.OXD.OX!.R.Y.R..X.X~.J.L..XOXJ..XOXe./.E.*XoXR.J.J.F.~.g.J.R..XoX.XR.Y.E.oXoXoXY.E.E.oXE.R.R.J.J.R.J.J.F.E.oXD.D.oXoXY.J.F..X#X.XR..XoX'.[.R.J.J.oXoXE..X.X.XR.H.R.R.B.Y.R.J.A..XOXY.R.Y.E.OXoXoXoX7X-XoXoXOXoX.XJ.F.J.E.oX#X#XoXoX.XR.A.R.R.J.R.R.R.oXoXoXR.R.-X2X@XoX].@XOXoXoXoX@X.X^.Y.E.R.J.^..XJ.^.Y.E.E.R.Y.x.x.A.OX#X5X6X6X5X,X1X5Xf.2X] B.B.g.",
"y.y.e.R.OXg.D.o.u.;.:.k.A.H.).H.'.T.H.H.J.J.B.h.D.oX.XD.A.[.D.].A.H.A.A.D.J.~.D.D.D.B.A.&.&.g.F.Y.D.D.g.D.D.D.g.T.].T.J.D.^.~.~.F.F.R.E.D.D.g.D.J.F.R.D.D.Y.T.H.E.*.L Y.OXoXy.D.Y.*Xz.q.f.F.D.u.D.].R.R.H.g.D.J.F.F.Y.Y.E.T.[.T.R.J.].R.#XoX.XR.H.N.R.A.B.R.D.].oXR.oX@XE..XoXR.@XR.oXR.].R.A..XU.T.A.D.oXR.^./.^.E.D.OXR.R.J..XoXJ.oXE.E.R.^..XA..X.XE.oX.XR.OX&XOXE.J.F.J..XR.E.].Y.*XR.oX#XoXD.oXoXoXA.A.*XE.oXU A.@X@X&XoX.XL.R.#X#X#X@X6X1X+X3X2X[.].@X#X#XOXoX*X-X#XoXoX7X;XY.^.R.R.7X#X#X@XqX+X#X@X2XaX1X4X{.4XqX'.5.l &.R.-XD.@XoXF.k.u.x.J.^.oXR..X.X].@X.X~.^.^.^.R.D.g.D.A.J.R..X].oXOXR.D.R.J.A.F.F.]..XoXR..XJ.d.R.F.R.oXOX.XJ.J..X*XA.R.F.D.oXR.oX.XoXOX#X.XJ.R.A.J.].oXJ.e.r.F..XJ.J.A.A.].R.J.R..X].R.R.~.~.~..X~..X~.R.OXoXJ.OX.XJ..XoXJ.J.H.S.A.^.R.#XoXoX.XR..X.Xe.e.R..XoXOX#XoX].R.R.^.R.~..XJ.J.J.J.R.F.J.J.oXXX@XoXOX.XoX~..X.X].E.oXOXoXoXoX.XR..XE.R.E..XoXD.^./..X~.F.T.E.7XoXoX^.*X*X^.OX-X^.OX.XF.k.A.Y.*X-X.XR.E.R.R.F.~.q.e..XD.D.^..X.X#XoX.XOXR.#X@X@X@X@X@X@X#X].]..XR..XR.A.R.E.J.Y.Y.E.Y.J.g.D.*XoX].3X6X5X6X2X2X[.hX6X}.o.{ ",
"E E ..e.oX#XA.u.d.;.>.F.u.H.H.H.H.H.T.'.].R.D.h.D.D.Y.E.R.D.e.D.H.H.g.g.J.E.~.k.N.@XJ.&.F.u.;.r.g.D.g.e.J.H.D.H.l 6.T.R.A.J.J.^.J.J.E..XD.D.f.A.A.D..XR.H.Y.D.D.A.g.f.D.D.A.u.A.oXY.Y.f.g.D.q.A.A.D.R.[.R.B.A..XR.Y.D.D.Y.B.D.T.R.J..X].oXR..X.XH.R.J.D.D.J.J.J.@XR.oXOXY.A.Y.E.oXoX.XR.R.R..X@XA.Y.E.R.R.F.R.OX^.OXoXY.E.#X.XJ.@XE.OXoXR.^.R.R.OX#XoX.XoXOXOXoX@XoX.XoXR.F.R..XD.oXE.D.oX.XoX#XR.OX^.~.^.J.R.R.J.u.#X-X&X;XoX-XOX#X7X#X@X+X2X1XoX].@X-XoXR..X#XOXoX-X#X.XoXOX*X&XOX#XOX*X-X8X.X+X8XqX+XaX@X{.,X6XaX(.fXhXo.F %.u.u.J.7XOXOX~.#XoXR.R.Y.J.J..X@XJ.R.oXOXoX.X~.D.D.R.R.R.oX.X]..XoXY.A.R.~.F.!.J.u.A.].oXR.D.g.D.J.R.R.R..X.X.XJ.J.J.#X^.J.#XOX#X#X#X.X^.J.J.R.J.#X].R.~.J.F.F.R.H.]..X.XoX.XR.R..XoXoX.X~.J.F.J.~.} u..XJ.OXOXF.#Xg.A.R.J.S.A.S.g.^.E.oX].R..X.XR..XA.A.^..XoX*XoX.XR.R.R..X.X.X.XR..XR.R..XJ.R.OX.XJ.oXoX^.D..X.XR.R..X.XR.E.oX.X.XR.Y.OX-X*XoXR.R.Y.oX^./..XOXR.E.@X]..X.XE.E.*XOX*XoXOXJ.F.F.E.oXOXOX.XE.J.A.A.F.R.J.J.J.H.D.R.R.R.oXoX.X#XOX#X@X#X-X=X@X@X#X#XoX].J.J.D.A.Y.J.J.oXE.E.D.J.D.s.oXOX8XqX6X1X6X2X3X'.qXgX=Xo.[ ",
"U O.} O.u.OX..F.F.r.&.&.g.H.H.D.H.'.T.T.H.H.H.T.A.g.A.T.].f.5.g.D.A.y.r.D.].].A.A.A.J.F.A.R.A.w.A.d.d.y.u.B.H.H.y.].oXJ.A.g.r.u.D.D.J.R.D.J.A.D.A.D.].R.H.H.A.B.R.J.Y.D.R.Y.J.u.f.Y.r.^.g.f.u.R.R.A.T.R.R.D.u.J.E.D.f.g.E.D.Y.E..XR.oX.XJ.A.H.J.J.R.A..XR.e.A..XoXR.@X#XY.A.D.Y.oX#XoXoXoX#X#XR.A.R.oXoXJ.F.~.>XoXD.^.Y.E.D.J.#X^.oX-X-XF.R.R.^..XoX#X#XoXOX*XoXoXE.R..XJ.A.J.R.-XOXE.D.@XR.oXR.Y.OX#XOXOXE.E.OX#X#X#XoX@X3X@X-X.XOX-X.XoX.XoX].R.@X2X&XoXoXoXoXoXoX-X#XoX-X7X*X-XOXJ.^.9XyX8XoX8XoX2X3X2X5X,X,X6X5XH.C.H.5.l %.D.u.R.OXA..XR.F.oXJ.R..XoXR..X.XoXY.J.^.~.J.F.D.R.R..XR.oX.X@X#XoXE.F.^.^.J.J.J.A.g.D..XE.R..XR.R.^.J.H.R.oX.XF.#X.X.XE..X*X#XOX:X-X.X^.E.R.R.J.R.J.R.oXJ.A.u.J.J.R.R.D.A.J.J.J.].#X#XoX.XJ.A.F.~.r.~..X~.:X.XJ.R.R.#XF.k.u.F.J..X*X.X.XoXoX.X.XR..XR..XoXoXoXoXoX.X.X.X^.^..X.XXX.X.X].R.E.R.R.oXR.R.oXoXY.Y.*XR.R.]..X^.R.E.OX.X.XR.Y.oXOXY.u.g.D.R..XR.^.J..XoXoXoX.XR.oXE.Y.oXE.^.E.E.J.oXoXD.oXOXoX.X.X^.R.A.F.R..X.XR.R..XoXoXE.R.^.R.oXoX-X-X-X2X;X=X@XOX]..XR.].oXoXOX;XD.D.E.oXoXJ.D.g.D.oXD.2X3XfX6X}.3X3XR.f.2XM.[ ' ",
"T ..k.@.u.S.A.N  .f.k.$.D.A.H.J..X].R.H.H.J.R.[.R.D.D.D.].D.D.H.D.D.D.D.J.R.R.D.T.H.H.D.g.g. .e.D.g.J.R.A.D.H.y.T.T.A.H..XH.g.D.D.D.D.D.A.D.D.R.Y.D.D.D.H.R.J.D.D.D..XY.J.D.J.A.g.D.F.k.Y.D.Y.H.J.J.J.B.B.D.D.R.@XE.g.f.R.D.F.J.@X.X@X-X].H.R.J.A.oXY.R.J.g.J..XE..XOXOXE.E.R.D.#X#XoXR.D.R.oX.XD.R.~..XJ.~.^.:XF. ..X*XD.u.J.R.~.R.oXOXJ.R.R.R..XOX*X*XoXE.].].OXOXR.J.F.D.F.F.B.D.R.*XoX].oX8XY.A.R.OXOX-X*XE.oXoXoX-X@X@X].J.-X8X-XoX#X-X-XoXoX-X-X-X7X@XoX8X*XOX-X@X.X#X*XOXoXoX>X9XD.lX-XR.D.f.R.8X,XfX4X4XaX2X'.5X@X%.b %.R.g.u.D.A.~.oXOX.XF.J..XoXoXoX.XOXE.R.~.~.^.~.J.J.J.R.J..X.X@X@X.XR.F.J.R.F.D.F.R.Y.D.E..XR.OXoXE..X.XR.R..X.XJ..X.XR.R.E.oX*X*XOX*XOXoX#XoXJ.J.D.F.J.E.Y.Y.g.J.R.R.J.D.H.].R.N.B.J.R.R.^.~.J.~.d.R.^.k.R.oXA.~.J..X*XF.F.u.A..X.XoXR.J..XoX.X.X.X.XXX#X#XOXoXR..X.X.X.X~.~.~.~..X.X.XR.R.R.R.^.oX@XoX.XE.Y.Y.E.J..XoX].E.oXOXoXA.J.E.E.OX#XE.D.u.k.J.J.F.oXF.D.oXR.-X-X.X#X-XoXoXoX.XY.D.D..XD.g.R.E.Y.E..XE.E.XXJ.oXJ.D.].D.R..XoXR.Y..XoXoX*X&X&X-X;X;X=X#X#XOX#XE.oXOX].oXE.E.J.E.R.E.D.D.k.J.D.f.-X=XqX5X6X2X4X].6X}.N.%.] ",
"K I e.g.#X%.y. .O.d.g.f.g.H.H.H.].].R.R.J.L..X.X[.T.H.g.R.D.].'.f.D.R.J.J.J.D.D.C.B.B.6.H.y.=.D.H.H.g.y.u.B.D.R.D.D.D.R..Xg.e.R.E.E.J.J.A.D.D.H.R.D.A.D.J.R.].J.R.F.R.J.J.J.J.A.k.9XoXA.;.d.U.f.g.D.D.D.A.B.R.@XoXOXY.k.D.k.D.J.@X].].-XoX].@X].T.oXF.D.R.^.^.~..XoXOXOXoXoX^.F..XR.#X].D.R..X-X.XR.R.~.J.oX.X#X#X-X*Xg.F.#XoX8XJ.D.~.oXE.D.E..XOXOXoXoX*X@X].@X-X8XOXF.F.J.J.D.f.oXoX7X*XR.y.E.k.f.Y.oX.X#X*XY.-X*X*XqX2X;X[.].#X2XoXJ.R.oXoXoX-X#X-X-X#X#X2X8X-XoX#X#XoX*X>X7X*XoX*XOXl .X*Xg.n n g.qX=X6XjX{.1X6XC.tX].[ b { g.R.g.q.k.R.R./.oXR.g.A.g.oXoX@XR.oXoXF.k.J.OX^.J.J.J.].R..XJ.H.].R.J.F.R.R.J.~.F.oXR..X.XA.D..X.X.X.X.X.X.X.X.XoX.XD.D.oX*XoXg.oXOXoXoX#XoXY.Y.D.F.Y.A.A.R.A.R.R..XR.D.B.J..X].oXR.D.D.~.R.k.w.R.oXR.J..X.XJ.J.F.~.F.q.^.R.A.F.oXoXoXE..XR.R.]..X.XOX#XoXoX.XR.R.R.].].~.R.~.~..X.X.X.XE.R.^..X.XoX].J..XOX.XJ.R..XoX].E.oXOXOXOX*XOXOXoXE.R.^.D.A.D.J.J.oXR.^.Y.f.oX@X.XoX2XR.oX#X.X.XJ.J.].N.D.R.T.D.oXoXR.D..XJ.OX].R.oXR.oX^.E.Y.R.oX#XoX#X@XoX@X-X=X=X=X#XoXoXD.E.oXOX;X@XoX^.oXR.D.g.F.R.e. . .@X3X6XqXfX#XqX(.=XfX%.b 6.",
"F  .5.f.N.B.N.6.g. .$.y.y.H.oXA.J.].].R.J.J.L.~.T.C.C.B.T.B.T.T.g.g.A.g.f.A.A.D.|.B.I.Z.f.g.g.f.f.g.g.N.N.N.N.N.Y.H.A.D.R.B.g.R.E.oXE.E.D.D.D.A.J.D.D.R.J.D.H.D.J..XoX^.D.F.~..X.XoXD.R.Y.H U.U.A.D.B.R..XD.H.J.H.].R.D.Y.J..XoXoX].H.+X].].+X].E.Y.J.D.^.oXR..XOXoXoXOXoXR.R..XR.D.@XoX.X#X].@X@XE..X~.J.oXoX-XoXR.OXoXD.oXOXoX~.F.R.oXoXJ.oXoXJ..X^.oX3X=XoX2XJ.:XOXJ.D.F.J.F.D.[.@XoX*X*XY.D.d.R.OXOXoXR.E.OX=X-X.X].&X=X]..X].#X#XoXE.oXOX*X-XoX-X*XJ.#XyX-XOXoX#X2X7X>X*X7XeXOXE.-Xg.-X-Xg.O.D.E.yXfX3X@X(.H.fX}.qXM.@Xb W  .u.u.O.D./.d.Y.E.E.g.A.y.oX.X.XE.Y.R.F.k.k.k.k..X].J..XR..XR.J.R.R.J.D.R.^.J.^.D.^.R.R..XD.A.E.oXE.E.oXoX.X.XoXJ.oXoXE.E.Y.Y.D.~.~.oXoXOXoXY.J.A.A.E.D.D.Y.A.D.q.D.oX.XD.A.D.J.A.R.#XoXJ.F.J.J.].#XR.R..XR.R.A.F.XXF.O.F..XF.D.oXE.OXOX@X].R.J..X.X#XoXR.R.E.oX].]..X~.R.J.F.F.F.~.^.oXoX^..XE.'.].].R.OXoXoX^.].R.R..XoXoXoX#XOXoXoXoXOXoX.XoX^.D.D..XR.R.F.oXE.g.oXoXoX.X@XB.R.^.R.OXoX@X+X'.R.'.].E.oXOX^.Y.u.A.S.R.R.A.R..XE.R.R.R.oX#XoXoX*X*X-X2X2X1X#X#X*XOXoXOXOX&X&XR.R.R.oXR.J.D.J.F.E.D.D.2XtXqXqX}.y.aX}.5XT.T.9.b ",
"I %.I o.[.'.6.5.' K &.r.D.].#XD..X].[.'.J.F.J..XT.I.T.C.T.N.R.R.R.H.D.g.f.A.g.A.M.Z.M.B.f.T.B.g.D.N.B.H.N.H.H.C.D.A.A.D.[.H.D.N.D.oXR..XF.D.D.A.D.D.J.].J.A.H.A.J.J.D.D.~..X~.F.J..XoXY.D.U.E.T.R.H.D.R.oXR.A.B.R.R.J.J..X^.oX~.[.@X'.=X+X[.@X[.H.oX@XD.D.oX/.!.oXoXoXoXoXR.R.oXoXR.R.J..XoXR..X@XR.#X.X^.#X=X2XOXD.D.oXJ.D.Y.*XOXF.k.~.#XOXOXH.F.oX*X&X&X@X].].A.oX.XR.R.F.F.J.R.'.2X].Y.OX-XOX^.oXE.*X7XOX@XOXR.oX-X*X=X@X].@XJ.oX-X2XOX*X&X&X7XY.oX7X^.R.#X-X*X*X-X-X7XOXR.oX:XoXY.-X>X*XOX*XD.R.g.qX3XfXqX}.3XxX'.qXy.N.W [ u.u.k.F.oXF.d.F.g.E.Y.E.A..XR.Y.oXT.R.OX.XF.u.r..XR.R..XR..X.X].H.J.J.A.J.D.f.A.R.F.F.J.^.R.D.R.oXR.R..X.XR.^.oX.XR.J.Y.oX^.R.OXY.F..XoXoXoXR.J.OXd.F.D.oXoXD.D.g.J.E.R.H.A.D..X.XR..XoXoX#XOXJ.H.oX.XR.@X#XoX]./.L.J.F.F.D.D.oXR.f.D.E.oX.X].R..X.XOXoXR..X^.OX.X.X.X.XR.J.F.F.F.^.R.oXoXR..XR.@X&X-XoXoXJ.Y.E.].R.R..XoX.XoXoXOXOXoXOX#X@X.X.XR.J.D..XR.D.F.~.&X[.-X@X2X#X+X'.oXoX.X.X].@X].+XT.R.].oXE.E.E.R.J.oX.X.XR.D..XR.D.A.J.R..X#XoXOX*X-X:X3X6X1X#X#XoX^.OXOXoX@X[.D.D.D.R.J.R.J.R.A.k.Y.R.@X2XqXfX1X,X5X@XqX5XT.T.%.",
"l  .f %.6.B.y.D.' &...y.D.-XJ.r.J.'.[.[.'.J.R.].f.C.T.g.f.f.'.H.g.g.H.D.A.Y.A.D.C.C.T.B.N.f.D.f.f.B.f.N.D.H.N.H.F.D.E.Y.R.B.H.'.h.E.Y.E.D.D.H.A.D.D.D.].R.H.].].D.D.J.J.OXR.F.F.u.~.-X-XU.g.U.Y.D.H..XJ.J.R.D.R.A.A.D.R..XJ..X~.H.@X].2X@XoXoX].+X+XoX.X^..X/.!.^.oXoX.XoXOXoXoXR.@XoXoX#X.X.XoX[.D.OX^.oX&X=X1XOXOXY.D.E.E.R.R.k.F.F.oXJ.F.].R./.oXOXOX@X;X-X'..X#XoXOX#XF.A.!.H.R.].D.R.*XOX*XoXD.D.7X3X@X3X*X;Xg.oX&X@X&X=X].@X@XoX-XoX*X*XOXOX*XOXoXoXJ.D.oXeXeX*XoX-X-X#XuX*XF.*XeXoX-XOXOXJ.J.F.qXfXgXgX2XhX@XqXtX@Xl W f g.-X-XoXF.F.:Xx.g.Y..XE.A.Y.E.E.[.oXR.A.A..XOX/.D.A..X.X.XR..XH.R.]..XH.R.Y.f.g.Y.A.^..XR.J.D.F.E.E.E.E.J.F.E.#XoX#XoXY.E.^.Y.oX^.F.^.^.R.oX.X^.-Xr.D.g.D.A.D.OX^.R.D.F..XJ.D.].D.D..XoXJ..X:XOX#XD.R.oX#XoXR.].XXF.F.F.F.~.~.J.OXg.E.oXR.D.R.]..X.XOXoXOX#X.XoX.X.X.X.X.X~.~.~.~.oX~..X.XR.oXE.oX@X@XR..XE..X^.R.].].R.E.oXoX^.OXOXoXE..XoX.X.XY.^.A.D.D.R.oX^.T.oX@XoX2X=X].2XOX#X^.A.g.oX].@X=X].[.@X[.R.Y.z.J..XXXH.H.oXR.D.F.A.R.R.Y..X^.^.oXoX#X2X2X1X#X#X^.R.OXoXY.oX[.R.D.Y.R.D.A.D..X.XE.D.f.-XgXgXtX1XaXaX,XtX5X%.%.F ",
"U g h S...L.w.u.} u.J.S.H..XE.R.].].[.[.T.H.oXR.Y.e. .A.f.H.B..XY.D.D.B.D.B.H.H.B.B.B.H.H.D.B.N.D.D.y.H.R.H.H.H.u.J..XB.g.T.T.[.[.D.T.R.U.D.Y.D.T.H.].H.B.N.T.B.A.g.D.Y.R.B.D..XB.=X[.D.J.D.D.Y.[.T.T.[.T.C.D.T..XY..X.XoX#X@XR..X.X].1X}.@X@XoX@X[.[.[.[.@XoX].XX.XoX#X#XoXoX#XOXOX-X*X.XE..XR.OXb.OX#X@XJ.OXOX#X7XH.].R.A.OXA.A..XR..X].oXoX'.L..XOX&X*XOXoX#X#X#XoX.XOXOXE.A.].oXA.^.Y.oXY.R.R.Y.R.d F tXD.R.-X-X.X-X-X[.[.OXR.R.-XoX#XOXoXoXoX#XOX-X+XR.H.2X2X#X#X2X-XOXOX-X#X@X=XoXqX3X=XqX@X-X'.3X8XqXOXoXtX3XyX[.R. .! [ J.R.J.J.R.OX9XD.A.k.F.^.F.oXY.=XR..XoXR.D.R.R.D.D.A.D.F.D.D.J.~.R.~.J.R.@X].A.D.R.d.F.oX^.F.D.d.Y.OXoXR.*X&XE.E.oX.X-X-XR.^.*XoX!./.!.R.oXoX7XoXoXJ.J.D.A.D.D.R.Y.oXY..XY.D.oXR.D.A.F.J.OX~.~..X9XF.~.F.-XJ.-X7X.XR.A.R.A.:XJ.^.OXoXR.F.R..XR.J.oXR.oX@X].J.].].].].oX.XY.J.R.^.D.Y..XoX.XR.J.J.oXR..XoX^.R.F.^.E.OXoXoXE.R.oXoXF.R.R.J..X#X].g.R..XT.D.oXOXoX-XU.oX*XOXD.*X#XOX.X~.#Xk.k.#X^..XE.-X^.].oXoX#XR.R.R.^.R.R.oXoXJ.D.B.R.E.*XY.OXE.oX#X-X2X2X@X#X2XoXoX].].OXOX.XY.A.D.oXg.D.g.E.E.Y.oX[.@X=X&X8X@X1XfXfX1XT.C.0.6.",
"K H G.S.S.A.u.O.O.F.S.J.F.R..XoX].[.'.R.B.B.R.T.F.F.e.J..XR.D.].Y.Y.D.f.D.'.'.N.B.B.B.B.D.D.A.u.T.D.H.T.[.B.B.H.J.S.D.R.@XoXT.@X[.T.D.T.g.A.D.Y.g.B.H.B.B.B.T.N.D.J.D.oXJ.R.D.J.=XH.B.D.A..XR.J.T.[.'.T.T.[.R.C.f.E.R.J.oX@XoX#X.XoX].}.H.T.oXoX'.&X&X[.[.[.'.H.XXXX.XoXoXoXOX*X#X.XR.E..XoXE.D.XXJ..X.XoXwXOX*X@XoX@X@XR.E.oXY..XJ.A.H.H.J.R.H.~..X&XOX-XR..XOX#XR.R.R.*XOXE.g.J.-Xg.f.oXoXg.E.Y.R.@XD.T.'.D.R.-X*XeX8X-X3X;XoXoX@X2XOXoXoXoXOX-X-X*XoX@X+X}.@XoXoX@X-X*X*X*X-X7X-X2X-XqXtXqX3X8XyXgXzX3XyXqX[.tXtXR.T.@X .b ] J.-XoXY.oX^.*XOXL.A./.#XR.OX*X*XR.J..X.XD..XJ.y.D.D.F.J.F.R.R.F.F..XR.H.R.R.F.J..X^.R.R.R.^.R.F..XoXOX#XoXU.E.*X#XF.].-X*XOX#X*XOX/.Y.^.OX.XoXD.#XoXD.k.F.R.R.R.E.E.A.F.J.D.F.D.F.R.oX~..X.XOX#XF.~.7X.XJ.7XJ.A.2XJ.R.oXA.J.#XF..X.X.XR.R.R.R.].oXR.].oX.X.XoX.X].T.H.J.Y.E.E.Y.U.Y.E.oX.X]..X.X.XR..X.XR.R.J.E.oXoXE.E.Y.Y.oXoX.X.X.X.XoXoX].H.~.Y.Y.E.~.F.F.R.oXOXoXoXE.OXR.oX.X^.OXA.D.OX^.~.Y.oXJ.R..XJ.H.H.oX^..X^.R.oXoXJ.A.A.E.oXoX^.oXoXD.*X7XoXoX2X-XoXR.oXoX.XoX*X#XOXR.oXY.D.g.E.E.Y..X7XtXuXtXqXyX;X1XjX1XB.6X'.F [ ",
"l U O.U ..O..Xw.X.J.e.R.D.J.E.[.'.[.[.R.H.B.D.D.Y.oXD.A.y.u.R.A.y.A.J.g.B.H.'.D.B.N.B.N.B.H.A.A.B.D.T.B.T.T.H.B.A.F.Y.H.oX@XD.g.T.H.T.[.D.D.D.D.A.D.D.D.H.H.H.D.D.Y.R.Y.R.R.J.A.6.o.T.@XoXoXE.OXT.'.'.R.R.B.g.B.I B.J.H.J.A.J.].].oX+X2X@X@XoXE.R.@X@XoX[.T.H.T.R.oX@XoXoXoXoXoXOXOXoXoX#XOXoX.XOXXXoX-X*XoXOXoX2X-XoXH.@X*XY.oXXXJ.H.J.H.D.].'.#X&X[.&XE.J.J.*XoXJ.oXoX*X.XoXY.u.oXR.Y.OXoXF.oXY.OXY.[.8XH.].2XOXD.#X2X@X&XOXE.@XoXoXOXOX-XOXoXoXOX@XR.#X-X-X+XH.R.]..XoX-X-X*X-X8XqX3X&X[.[.C.XX8XoX@X=XyXtX3X3X&XR.oXoXj j } &.D.H.J.oXD.R.oXXXF.F.R.^.oX*XY..XJ.R.J.u.R.oX].D.D.D.A.A.~.oXR.A.R.J.D.R..XJ.D.D.R.R.^.oXJ.A.R.Y.R.#X.Xf.g.U.Y.oX.X2X8X#XoX.X*X/.OX^.*X>X7XoXe.H.@XR.D.R.D.D.A.R.R.F.J.Y.D.A.J.~.^..XR..X.X.X#XJ.8X7XH U #XQ q.].2X.XA.~..X~.J.oXoX.XR.R.J.J..XH.D.R.].J.J.]..X].R.R.J.D.F.F.D.J.R.R.E..X.XoX.X.XE.oX^.R.E.J.R.E.oX.XE.J.D..XoXoX.X.XOX@X.XR.].~.D.Y.E.F.J.oXoXU.oXR.Y.oXoXoXOXOX.X.XJ.J.oX.X.XoXOX^.^.oXH.B.H.^.R.^..X.XoXOXoXD.E.oXoXD.oX^.*XD.oX*XoXoX@XoX.XJ.oXoX].].OX*X*XOXA.oXg.D.E.D.oX^.OXOXoX@X8XtX2XjX=X=XC.=X[ K I ",
"d K 5.N.;.r.k.u.u.#XS.oXJ.H.J.R.'.[.R.R.R.H.D.H.r.D.E.Y. . .D.A.Y.D.H.A.R.R.R.D.N.y.y.f.g.g.g.A.B.H.B.g.B.[.T.B.H.R.].T.R.H.g.B.R.H.R.H.Y.D.F.D.H.D.A.B.A.g.g.D.R.Y.R.A.R.J.R.D.H.o.].-XR.D.OXR.'.'.R.[.R.e.=.f.o.y.g.R.].]..Xu.J.].].[.].'.oX[.'.oX[.].].D.B.oXR.oX@X#XoX.X].].^.#X*X#XOX.XE.oXk.~ .XoXoXoX^.oX-X-X-X#XY.Y.oXOXD.H.oXoX.XR..XH.OX;X&X3XOXoX~.#XOX.X*X#XoXR.OXoXJ.R.A.D.E.OXOXoXE.D.D.Y.E.D.R.T.#XD.#X2X;X=X;XoXR.oX#XoXA.Y.OX7XE.oX#X#X;X2X2X2X#X-X-XoXoX*X*XoX.X8XtXtX3X=X2X@X~.#XR.@XtXgX8XtX8XoX&. .g.H j b 5.R.-XE.J.*XeXk.~.oXk.R.*XOXoX^.oXR.oXR.D.H.R.R.H.Y.F.A.k.R.oXE.^.R.H.H.R.].R.^.Y.^.^.oXoXD.D.OXR..X#XR.g.D.^.D..X.X2X-X*X*XE.oXOX>XoX-X7XyX#Xu. .oX@XR.A.e.g.D.F.E.^.Y.R.J.A.E.oX~.R.F.~.~.~.9XJ./.F.~ L U q.D.A.2X-Xq.F.oX.X#X.XR.J.J..XR.R..XJ.R..XoX].J.]..X].[.].J.D.A.A.D.J.J.R.R.]..X.X.XE.E.oXE.R.^.J.F.D.oXoXoXY.D.E.OXoX^.^.oX@X.X.XoXoXE.T.D.D.F.R.R.Y.*XOXoX-XE.7X#XOXoX^.R.E..XoXOX.XoXR.Y.E.J.g.H.oX^.^..X.X.X.XoXD.Y.[.E.k.R.D.oXoXE.E.OX#XoX.X@X.X@XoX.X].oXoXoX-X2X.XY.Y.#X*XR.E.R.E.oX-XyXtX8X}.6XB.6.6.K [  .",
"I Q I 8X7XD.A.o.e.J.D.J.J.E.oX&XoX'.T.H.T.R.T.R.oXA.y.D.R.oXY.R.A.D.Y.D.A.y.B.H.H.B.B.H.D.g.A.R.T.H.e.D.H.D.H.H.T.'.H.D.H.B.B.T.].R.R.D.R.D.D.k.H.J.D.A.B.g.g.B.E..XJ.E.F.].R..X@X'.H.H.D.g.D.Y.H.R.T.H.R.D.y.q.B.D.B.].oX.X@XG.R.@X=X@X}.'.@X[.R.&X@XR.R.T.J.oXoX.X.XoXoX]..XoXE.oX.X.XOX^.Y.R.OXu.OX-XOXoXE.g.].-XoXE.-X&XY.oXoXJ..XJ.H.J..XJ.@X@X3XR.-X.X:X-X-XOXoXoXY..X^.F..X.Xg.Y.oX#X.XoX^.-XoXoXOX].D.*XoXOX#X@X2X;X;XR.oX#XoXOXE.oXOXOXoXoXoX7X-X=X@X2XoX@X#X#X#X>X>X*X-X8X@X-X8XqXyXzX#XoXoXqX8X8XtXqXgX].o.A.! Q r  .J.Y.#X.XD./.:Xk.u.~.D.#X*XoXoX-X#XR.R.D..XD.A.D.Y.R..XR.J.J.Y.D.D.R.oXoXR.J.D.J.R.oXoXoX^.R.^.R.oX.X.XoX.XE..XoXD.J.#X-X-X@XoX8XyX*X^.*X-X-X~.D.R.7XR.D.E.R.Y.g.^.^.R.D.R.^.F.R.#XoX.XD.D.D.g.oXF.k.~.r.} r.J..X#XOXu.} J.J.Y.R..XR.J.R..X.XR.~..X.XXXoXOXXX.X.XoX[.Y.D.R.R.D.D.J.J.R.R.E..XE.Y.D.Y..XR.R.~.J.F.D.R.E..XY.D.E.oXoX.X.XoXOXOXOX*X^.R.D.Y.OXXXR.oX@X&XOXOXoXQ oXOXoXoX.X.X.XR.oXOXOXoXoXoX.XD.g..X.X^..XoXoXoXoXoXE.R.&XoXoX.XF.oXoXOXoXE.oX#X@XoXoX#XoXoXoXoXoXOXoXoX-XoXY.g.A.oXoX.X#X-X3XtXyXgXtXtXT. .f.K I F ",
"F P I 7X-XR.*.u.u.A.E.Y.E.@XoXoX@XR.R.Y.R.[.Y.T.T.D.B.D.d.Y.D.J.R.D.A.g.Y.R.R.A.H.N.B.H.B.y.g.J.B.D.B.H.'.f.H.H.H.T.N.B.R.T.D.B.D.J.H.R.H.H.g.g.D.].].J.D.R.J.D.E.E.E..XR.J.J.].H.T.H.@Xg.A.J.J.B.R.T.D.Y.E.D.g.g.].'.].oXJ.'.@X'.+X@X[.=X[.T.g.R.oXoX]..X.XoX#XoX.XoX@XoX].R.[.oX.XE..XoXoX^..X~.OXJ.oX-X&.E.F.E.D.-XoXY.oXE.OX7X.X.XJ.D.D.R.oX-X-X2XT.#X.X7X-X*XoXY.E.D.oXF.k.Y.D.D.*XoXoX.XR.R.OX^.oXD.Y.*XoX^.-XOX#X8X=X&X].R.oXR.oXOX#X#XOX#X.X].7X-X-X#X2X-X-X-X-X*X*XoX.XE.-X-X9XuX*XY.E.oX.X.X-X-X3XtXqXqX].[.D.hX=.t o.g..XOXg.d./.XXr.k.k.d.OXF.D.oXOX#XR.J.u.D.g.D.oXR.R.].].J.D.Y.Y.g.R.@X.XJ.J.D.f.D.A.F.OXoX~.^.A.R.oXoX.XoXoXE.OXE.-X9X8X-XoX-XyXwX*XoX*X*X#XR.A.oX8X#XR.D.D..X.XoXXX~.J.R.R.E.oXoXoXoXR.#X-XA.J.#X9X!.F.w.-X:XD.XXA.z r.@X.X.X#X#XoXR.R.R.~..XoX~..X.X.XXX.X]..XE.oXE.Y.].R.H.R.J.~..X.X^.^.Y.D.A.D.E.R.R.R.F.F.Y.Y.D.J.Y.Y.E.E.oX.XR..XoXoXoXOXoXT.f.D.oXD.e.D.R.-X#XoX-XA.*XO.R.oXoXoX.XR.E.E.^.R..XOXE.g.k.oXE..X.XoX#X#XoXoX[.R.].Y..XR.F.oXoXOXoXY..X#X#XoX.XoX@X#XoXE..X-XJ.oX#XOXOX .E.oXOXR.oX#X8X2XtXtXfX|.'.3X[.[.W I ",
") N.H g.R.oXD.[.e.q.A.D.oX&XOXoXR.R.@X[.E.@XR.D.T.R.oXoXD.J.R.f.D.Y.J.g.A.A.D.g.H.C.H.H.H.B.B.D.N.H.R.H.'.H.].'.|.C.f.[.-XD.B.H.H.].D.D.B.H.D.R.D.H.T.R.D.R.J.D.Y.Y.oXY..XD.J.J.T.T.N.B.A.Y.A.F.D.H.H.Y.Y.F.J.R.H.[.R.T.@X+X]..X@X=X[.T.=X@X[.B.[.'.R.[.oXoXoX#XoXoXoX@X@XoX'.'..XR..XoX^.R..XoX/.F.OXJ.*X*.A.-X-XoX.XF.~.OXY.oXJ.R.#X#XoXoXR.R.#X7X8X2X7X#X#X@XoXoXR.E.D.R.F.J.E.g.B.E.Y..X*XJ.F.7XOXR.^.oXoXD.F.^.~.oX@X[.T.].#X.Xe.q.E.#X*XOX&XoXoX2X2X8X8X8X-X2X-X-X7XeX>X#X7X9X9X8X*XoXR.#XoX#X-X8XwXwXqX3X{.1XqX3XgXR.d d D.oX*XR.oXXX/.F..XA.d.E.A.F.oX^..XR..XD.e.g.H.].R.J.R.R.D.Y.[.oXoXoX.XJ.F..X.XD.!.D.k.^..XJ.OXOX~.#X@X.XoXoXOXoX*X8X-X7X2X-X2X@X*XOX*XOX-X>XOXA.g.D..XR.g.A..XoXJ.!.F..X^.D.oX*X#XoX.X].@X.X .&.%XOX:X7Xp..X.XR.2XN.r.8XH.J..X.X.X.XJ.J.R..X~.R.~.OXOX.XXX.X.X+XR.@X[.Y.].J.D.R.J.R..X].R.E.R.J.A.D.E.R.R.R.J.R.E.Y.A.D.Y.J.E.E.oX].R.R.^.E.^.oXoXD.g.D.^.F.F.OX+X].].@X.Xy.R.#XJ..XOXoXoX.XE.Y.Y.R.R.&XOX^.OX~.^.oX.X.X@XoXR.R.@X@X].T.oX.X.X:XoXoX.XE.oXoXoXOXR..XoXoXoXE.E.OXD.oX].D.A.oXE.k.oX.X*X7XlX3XyX3X}.}.fX5XhXxXW F ",
"7 N.g.u.-X7XY.]..Xg.A.Y.oX&X;X#XR.T.@XE.D.[.E.U.'.'.B.H.oXB.J.].D.D.D.D.Y.D.J.D.N.N.H.H.D.D.A.g.N.N.B.H.H.'.N.'.T.|.C.H.T.A.T.Y.H.].].D.H.B.H.].'.B.D.].H.H.D.D.Y.E.E.oXJ.R.J.J.@Xf.N.&.B.D.J.D.R.D.D.Y.Y.R.E.oXoX'.].H.D.].+X].N.'.+X'.@X'.'.U.@X@XoXU.Y.oXOXR.oXoXoX.XoX@X@XoXoXR..XOX.X^.oX.X:XF.^./.*X*XOX*X-XOXR..X~.R.OXY.g.D.D.D.Y.>XoXE.#X@X#XR.XXJ.#X2X*X@XE.Y.F.D.F.^.A.E.oX.X*XoXOXOX/./.*XR.E.OX-X*X^.#X:X@X'.=X[.@XXX7X.XD.oXY.oX*X'.].&X@X-X2X8X#X2X7X-X@X#X7X-XOX9X7X8X8XOX-XoX#X&XE.7XwX*X-XgXqXaX5XqXqXhXT.d t &.k.R.d.F.:X*XF.R.F.D.J.R.R.oXoXH.D.J.D. .D.oX].R.]..X].R.oXoXE.D.J.~..X~.R.R.Y.F.^.F.~.~.F..XoXOXR.R.@X#XoXOX*XJ.Y.J.7X2XE.&X@X*X.XoXoX-X:X#X.XJ.J.-XOXk.k.Y.Y.k.r.r.~.oXD.E..XoXR.R..XoXJ.q.#Xw.:X#Xk.k.w.A.r.oXg.OXy.R.R.J.R.]..XR.R..XJ.e.} XXOX.X~.$X$X.X.XE.[.D.D.oX.XJ.J.D.R.R.R.R.E.E.R.D.J.oX^.R.J.J.~.Y.Y.D.Y.J.D.R..X@X.X].oX.XR.^.OX.XT.D.U.D.F.^.^.[.@XoX.XoX-X^.oXY..X#XoXoXOX.XR.@X&XE.E.E.oX~.^ g.F.D.J.oX#XoX.X'.&X[.].#XOXXXOXE.oXoXoXoXoXoXOX.XoX.X.XoXoXR.Y..X@X#XoXoXE.oXoXoX#X7X*X8XoXhXtXdXjX5XfXjXxXF I ",
"x z Q 2XR.[.f.f.q.E.D.E.Y.&X@XR.}.}.H.@X[.oX^.z.H.T.D.H.g.D.[.R.[.B.U.D.g.B.B.R.N.H.H.H.T.D.B.T.g.A.F.D.R.H.J.J.H.].H.N.S.F.F.D.k.e.E..XF.F.k.E.D.R.R.D.H.].H.[.B.N.y.N.y.A.@Xu.r.e.E.].D.R.H.B.R.J.J.D.D.J.E.oX.XJ.J.F.J.^..X@X+X}.].@X@X@X=X+XR.oXoXoXH.R.2XH.].@X@X#X#XE.R.oX#XOXoXOX.XR.^.OXOXR.oX.XR.oXE.oXF.J..XoX].J.E.-X^.F.A.D.J..X^..X=XR.&X@X.X#X@X.X[.'.=X].].]..X.XJ.F.~.J..XoXOXY.#XoX.XOXR.R.oX#X[.[.oX@X@X-X@XoXOX-X#X.X~.J.#XOXJ.@X-X2X@X2X2X-X2X-X;X-X*XOX*X>X-X2X2X3X8XR.>X*X#XwX8X-X2XyXyXtXqX-X@X=XtXB. .j ../.x.w.r.F.Y.k.F.k.Y.!.oX~.g.Y.oXH.H.R.H.R..XH.[.E.J.D.D.R.]..XR.^.Y.D.Y.^.z.R.D.D.oXE.E.D.g.D.J.R.#XR.A.R..XoXF.d.F.^.:XOXOX7X#X.X.X#X#X.X#X.X.XR..XR.].D.&.H.A.g.g.u.J.R.J.R.E.R.OXOXA.F.J.D.A.J.7XR.J.OX.Xr.F.S.F.S.J.J.OX^.E.D.D.F.F.OXR.F..X.X.X@XJ.J.].@XoXR.D.F.J.R.E.E.J.E.R.J.R.].R.R.T.Y.oXE.Y.R.D.J.!.F.J.R.D.A.D.E.oX].oX.X*X-XOXOXR.J.J.R.D.D.E.oX[.oX[.&XOX*XoXoXoX#X.XY.oXOXY.z.F./.k.F.J.J.J.k.'.f.@X].@XR.@X.XR.#XoX^.*XoXOXE.J.J.J.R.oX@XoX.XR.Y.oXoXoXoXD.J.J..X.X@X@XE.R.#X@XqX8X3X;XtXxXyXwXqX2X2X8X3X6.' ",
"x T o.oX&. .k.f.*.y.f.D.oXR.@X;X}.[.T.T.oXE.oXD.H.R.].@XT.D.[.@XT.B.D.B.H.].H.H.C.C.N.D.H.D.k.k.g.A..XH.D.H.D..XN.T.R.H.S.S.J.@X~.D.E..XR.F.D.Y.R.oXY.R.R.R.D.D.R.H.g.A.B.g.g.&.D.A.E.T.B.oXB.B..XR.D.D.D.E.E.Y.@XJ.J.R.F.H.J.].[.[.@X=X=X@X@X'.&X@XR.R.@X].@X].R.D.].J.oXOXJ.OXoXR.D.D.J..XoXOXY.D.E.OXoX^.Y.Y.Y.Y.Y.E.].]..XoX#X^.F.R.*XOXR.oXU.;XoXY..X.X]..X[.=X'.R.].#XJ.oXOX~.R.D.R.R.~.D.u.D.J..XR.R.#XOX[.R.[.[.R.R..X7X-XoX.X^.~.#XJ.J.#X-XoX#X@X2X;X-X2X-X-X2X*XoX^.oX#XwXyX2X-X;X*X-X8X-XqX-X-XyX@X@XoXqX'.&X3X-.r d ;.OXk.XX^.k.oXR.F.x.OXOX^.^.D.z..XoXR.R..XR.H.J.E.Y.R.E.J.J.R.R.E.R.k.D.^..XY.E.D.A.E.oXOXE.F.Y.R.R.#X.XD.R.R.D.OXk.k.r.F./.oX#X.X.X.XoXOX.XOXJ.D.D.D.R.R.D.R..XD.J.D.e.g.A.J..XoX*XD..XF.R..X.X@Xg.g..XXXR.#X#XF..XS.J.R.J.A.Y.Y.E.J.D..X^.A.F..X].J..X].].J..XR.R.J.F.F.J.Y.U.Y.E.R.Y.R.R.R.R.R.R.oXE.J.J.D.J.F.R.R.H.A.D.Y.E.oXR.R.H.J.oXoXOXoXD.g.D.]..XE.Y.[.[.oXR.oXE.oXE.R.oX@X.XY.F.D.Y.F./.A.oXJ.J.F.R.[.B.D.R..XJ.@X@X.XoX^.^.oX.XOXY.A.R..X.X.X.X]..XOXE.oXoX.XJ.A.A..X.X.X#X@XoXOX*X#X8X8X;X8XqXtX[.].2X8X].qXqXf %.",
"| X.} -Xg.g.r.H A.D.f.A.Y.OX@X[.T.T.T.B.T.Y.oXE.'.T.R.[.].Y.R.T.B.T.R.A.H.'.A.'.T.H.B.D.A.S.S.S.E.R.Y.D.A.D.D.].A.H.H.H.J.J.R.oX.X.XD.Y.R.F.J.T.T.[.D.[.oX].R.H.'.R.].D.e.B.J.g.~.k.D.E.y.].H.y.]..XR.R.D.Y.D.D.J.D.R.~.J.R..XoX'.].[.=X=X[.oX'.oXoX].R.@X@X&X@XH.D.oXoXOX*XD.R.OX#XOX.X^..XoX.XH.D.D.Y.R.D.D.Y.@X@XoXE.J.J..X#X*XOX>X*XOXOXOXoXOX3XoX.XoX.X#X.XT.@X].@XR.oX@X@X^.R.R.R.#XOXoX~.A.oX^.oXR.A.D.A.oX[.&X].R.].].OX#X#X*X7XE.J.:XJ.8X2X#X#X#X3X2X2X2X2X-X-X#XoXoXOX8XqXqXqX3X9X9XE.H.R.oXyXgXyX2X&XqXqX}.&X3XD.j  .F.F.F.F.Y.OXF.g./.^.OX!.k.F.Y.^..X.XJ.H.].oXR.R.E.J.E.oXE.R..X].R.J.u.g.J.A.R.oXD.A.oXoX^.Y.E.oXoXoX#XoXR.oX.XJ.A.A.R.r.k.XX#X.X].oXoX@X-X.X.XR.g.u.g.D.B.D.E.D.D.D.R.D.R.R.J.J.r.oXu.OX*XoX~.^.#X7X].#X.XD.XXOX.X).H.XXJ.D.D.Y.R.Y.R.R..XJ.R.F.J.J.H.]..X].J..XJ.R.R.J.H.R.E.E.^.oXE.Y.R.R.R.R.E.E.oXE.J.F.D.J.D.Y.R.D.A.A.J.R.oXoXoXoXJ.oXoXOXJ.D.D.J.R.D.Y.oX@X@X@X].OXoX*XOX.X.XoX.XF.D.D.D.^.^..X^.oXJ.R.R.T.T.B.oXoX]..X.XoXR.R.oXE.oX#XE.@X#XoXoXoX@XoXoXR.F.^..XR.k.Y.J.#X@X-X2XoXOX*XoXJ..X#X3XvXhXgX6X6XfXqX#XgX3X%.=.",
"X.0 z 7XoXg.n K  .g.A.Y.D.OX@X[.T.'.T.D.D.oXR.OXB.R.[.R.R.D.[.R.D.Y.R.A.N.N.N.].H.B.H.A.y.u.A.A.B.R.y.D.A.g.D.B.'.H.B.H.J.~.J.F.Y.E.D.D.F.F.D.U.D.D.B.T.H.D.B.B.B.N.D.H.R.g.q.E.A.R.g.D.R.Y.A.D.A.R.J.R.D.D.g.k.D.D.].R.J..X@X.X].[.oX=X@X[.@X.XR.R.2XoXR.R.#X@XR.@X@XoX.XY.E.E.oXoXR.D.k.A.~.OXoX.XA.A.F.k.J.oXT.W.E.T.D.R.oX#XOXR.OXOXOXoX@X@XOXE.E.OX.XR..XH.[.T.+X+XoXD.#X'.J.~.~.^.OX.XY.R..XoXJ.R.J.Y.D.R.R.D.E.oX-X#XR.R.H.-XR.u.oX#Xu.R.#X-X-X@X@X-X2X2X7X2X2X2X-X>X>X>X@XoXyX3XyX3XD.oXH.+X].qXhX3X=XoX3XtX3X=XiXD.t  .e.k.!.k.r.^.R.D.k.!./.F.E.^.F.OXJ.R.#XOXF.F.R.A.g.A.D.D.D.J.R.].R.F.A.k.D.d.F..X#XD.J.R.oX^.Y.r..X].oXoX.X#X@XR.R.e.d.F.!.OXOX:X].oX@X@X7X@XXXOXJ.g.R.J.A.R.D.g.J.B.g.u.R.oX].D.j k.d.~.OX:X#XJ.R.OXr.J.-X~.D.J.).G.J.].J.D.E.J.D.k.D.R.J.A..XF.D.J.J.R..X].J..XR.R.R.H.R..XoXE..XoXR.D.J.R.R.].E.E.E.E.R.J.D.J.F.J.Y.J.A.g.A.^.J.R.oXOXF.E.oXoX.XR.D.J.oX.XE.oX]..XR.oXE.OXOX*X2XoXE.E.Y.Y.R.Y.E.R..XD.oX.XR.D.B.oX.X@XoXoX.XR.@X.XY.oX.XoXoX.X#XOX.XE.oXoXoX.XJ.D..XR.g. .g.k.J.R.oX@XoX#X*XoX.XR.J.@XgXqX2X{.6XgX@X6X=X3X%.j ",
"u.} } e.k.R.y.oXE.y.q.y.E.R.@X&X[.[.C.B.T.@XT.T.N.H.R.T.].Y.oX.XR.k.D.D.D.H.H.H.J.H.H.H.g.u.g.g.B.H.e.g.u.y.H.J.J.H.H.H.H.J.J.D.D.U.R.D.D.D.k.D.B.N.D.H.B.D.f.B.D.5.y.B.g.g.y.f.r.;.f.g.D.g.g.D.J.].R..X.XoXY.Y.F.A.R.].]..X.X.XR.R.R.oX].T.].R.@X.X-X#XR.B.H.].D.oX[.@XE.D.oXE..X.X.XoX.XR.J.~.OXOXF.J.R.D.R.oX&X=X@X@X#X*X#XoXoX.XE.E.*Xy.*.*XoXoX#X@X#XoXD.A.T.T.2XoX[.' f.#X~.oXoXoXoXR.D.R..XoXY.E.D.oX*.&.D.B.D.*X7X#XR.J.T.*Xg.u.7X8X;.J.@X2X8X@X@X-X8X8X8X-X-X8XyXwX7X#X9XoX-XqX3XoXoXE.N.T.3X-X2X2X@XgXfX&X3XhXf.j K  .k.~.#XF.r.r.k.D.r.F.F.F.oX*XE.Y.OXoXOXoXD.Y.E.k.d.R.J.A.R.oX.XoX^.J.R.J.^.J.D.D.OXR.R.^.oXoXF.$.H.R.oX#X#X#XoXD.J.;.r.Y.Y.F.F..X].].oXoX-X.X.X7XoXJ..XR.J.R.A.D.J.A.B.e.D.oX.XD.k.J.!.*X:X^.~.OXJ.J.e.g.R..Xg.k.A.R.D.H.].J.D.D.A.Y.A.R..XY.Y.~.'..X].J..X.XR.R.oXoXR.D.J.E.E.J.R.E.Y.Y.R.R.J.J.Y.J.Y.E.R.J.H.D.F.J.R.J.D.g.A.R.D.A.F.D.D.D.oXE..XR.A.A.E.oXE.Y.R.J.J.oX.XoX^.OXE.J.Y.R.D.D.Y.U.R.oXY.^.^.7X].J.D.].@XR..XoXR..XoXoXR.oXoXOXY.E.D.E.oXoXoXoXoXoXoXE.oX^.A...g.A.D.H.D.D.oX*XoXY.~..X2X2XgXfXgXfXqX5X].qXtXW K 6.",
"z U u.k.7Xg.J.lXY.q.f.D.oXR.[.=X[.].'.H.R.B.D.B.H.B.g.J.oXY.D.D.].B.A.E.].).).D.J.F.J.].H.D.B.N.R.B.y.e.u.A.A.R.].T.'.T.H.J.J.D.A.H.R.T.D.D.k.D.B.B.R.'.D.H.g.B.J..XJ.e.A.oXY.E.^.Q .X[.g.D.E.T.R.].J.J.].J.H.R.J.A.D.]..X].H.+XF.D.Y.[.E.Y.E.R.oXoX].J.oXR.H.R.B.D.oX@X@XOX].E.#XoXoX.XJ.A.D.R.^.^.J.^.^.R.^..X=X&XoX].E..XE.R.#XoXoX.X*Xf.e.OX#XoX@XJ.R.#XJ.u.].#X3X].@X@X=XN.J.OX#X*XoX.XR.^.A.E.E.^.Y.>XA.y.f.Y.D.E.R.oXoXR.E.Y.Y.oX8XJ.D.A.@X2XqX7X8X8X8X#X#X-X2X8X7X>X-X*X9X*X8X8XqXqXq.q.'.@XgX3XyXqX=X#XR.f.;X>X] ! h.n ..r.k.u.F.F.F.F.F.F.^.D.u.R.#XD.#XOXR.D.D.D.d.u.r.J.D.g.T.].J.R.R.J..XJ.J.J.D.J.R.^.oXoXoX^.oXD.R.].oX#X@XoXoXS.F.~./.XXF.F..X.X].[.@X[.oXJ.J.:XoXXXD.D.F.k.D.R.J.B.R.oXoXD.D.J.A.~.XXF.^.#XOX~.*X-XOX&.L k..X~.H.].N.R.A..XR.R.R.R.J.oXR.].].R.R.].].J..X.X.X.XoXoX].D.D.J.R.R.Y.E.E.^..XR.J.H.F.J.H.R.].H.D.A.A.J.R.D.A.D.F.F.oXJ.F.D.^.E.OXY.F.R.Y.D.D.R.R.R.XX.XoX@X*X.XoXoXE.E.oXoXE.Y.Y.D..XoX^.oXoXoXR.~.R.H.oXR.#XoXR.oX.XoX].^.OXOXF.^.R.oXOXOX#X#XOX#XoXR..X.X.XD.oXoXR.R.A.A.OX7XoXH.J.R.qX=XtXtXqX+XtX[.[.gX&.K [.T.",
"n r.J.r.8XS.g.5.oXg.g.A.A.U.D.D.'.].oXoXR.g.H.H.H.D.B.R.R.g.f.J.].T.J.R.].J.H.H.D.H.T.'.R.N.N.D.C.6.e.t.S.J.y.y.+XH.H.R.R.R.Y.A.A.D.H.T.D.A.F.D.T.H.T.'.B.D.g.e.u.e.A.J.D.A.A.Y.^.u.oXT.T.Y.A.Y.].]..XJ..XA.D..X.XR.J.'.{.'.N.].R.R.E.OXOX.XoXoXJ.#XR.D.@XoXoXR.[.T.R.].R.oXOX#XJ..X#X#XXXJ.J..XL.F.!.~.~.oXoXoX@XoX].R.R..X#X-X@XD..X.X*X*X*XY.oX#XoXJ.R.-X-XJ.].y.'.3X=X[.[.H..XXXOX#XE.E.J.D.D.R.A.g.q.d.Y.Y.e.F.;.A.A.oX2X].*XY.3XR.8XOXA..X.X@X8X8XqX2X#X.X@X2X8X7X#X#X-XeXOX7X3X8XoXqXuXwXgX@X3X=XyXfXgXH.E.&.6.q.6.&.} E ..~.k.F.7X^.OXR.A.A.^.~.g.J.-XR.A.^.oXR.k.q...;.k.F.R.D.D.R.].R.R.J.R.R.A.g.D..XoX^.R.^.OXoX*X^.].R.R.].]..XoXS.^.^.d.F.x.k..XOX@X}.@XR..XY.F.oXOXOXJ.F.F.k.F.~..Xg.R.oXR.y.g.R.~..XOXJ.oX#XR.F.D.J.oXg.r.J..X.XR.H.g..XA.oX#XoX.XA.R.R.g.H.oXJ.T.T.[.]..XJ..X@X[.].T.D.D.Y.J.R.J.R.R.^..X].J.J.J.R.J.].R.D.D.A.A.J.J.D.D.Y.Y.D.^.^.J.R.oXoXoXD.E.E.E.E.E.oXOXoX.X.XOXXXOX.XoXE.Y.E.Y.D.J.J.f.&.R.~..XJ.XXA.J.S.J.J.oX.X-X.X.XoX@X.XoXE.oXoXE.oXOXOX.XE.oXOXoXoXOXR.E.R.oXoX^.oXD.J.J..X:XeX*XoXtX=X3XqXqXxXqX@X@X .f.e.e.e.R.e.",
"~ ^.OXw.R.J.H.y.g.y.E.D.D.D.[.@XH.D.f.].T.B.D.B.].R.g.H.R.Y.A.F.{.].D.A.H.H.J.R.T.[.[.[.H.y.u.].H.f.4.5.A.N.G.N.+XC.C.'.].R.R.Y.H.R.D.R.F.k.~.D.'.'.D.R.D.H.H.f.u.r.g.F.J.D.A.D.~..XY.E.E.D.D.g.].J.R.H.#XD.D.R.J..X].H.{.@X].@X.XE.Y.oXE.Y.R.R.R.oXoX@XoXD.oXR.].].D.[.R.A.OXoX.X.XoXoX#X#XOX.X~.J.XXoXoX*X#XOX-XoX~..XoXOXOX[.J.J.2XoXOXY.E.R.o.#XoXH.oXR.R.-XH.H.@X[.@X@X[.[.XXXX.X.XY.oX].D.D.E.R.^.k. .D.Y.-XoX .^.OXoX#XR.Y.E.Y.E.r.R.F..X#X#X8X7X0X@X#X2X<X2X2X7X7X7X:X#XOXuXgX=XR.].E.E.vXH.hXD.e.R.yXyXH.g.f.y. .y.s.f &.r.D.r.*XOXr.F.F.u.d.~.oX#X8X8X/.D.F.!.F.Y.^.F.k.k.Y.Y.g.H.oX.X.X].J.#XR.D.H.R.E.^.oXoXoXD.F.F.].R.R.oX@X#X#XF.d.OXF.Y.k.k.#XOX@X].'.D.oXOXR.J.OXR.OXR.F.R.D.!..XH.].J.D.D.J.D..X:X.XF.^.OXR./.R.OX^.u..XXXJ..XD.D.B..X#X@X.XoXR.H.R.B.A.R.oX#X=XR.].oX#XR.]..X@XR.A.D.T.Y.D.S.D.D.F.J.R.R.J.R.R..XR.].J.N.A.B.F.F.F.J.R.Y.F.U.D.^.F.^.E.E..XE.D.D.Y.E.Y.R.[.E.~.OXoXoXR.OXoXE.R.OX.XD.Y.Y.f.&.F.oX~.J..XJ.XXS.D..XoXoXoXR.@XoX2X].#XE.R.E.^.Y.R.oXoXE.E.E.^.oX#XoXoXE..XOXE.oXB.J.#X7X#XOX@XR.tX6X1XtX%.y.B.yXE. .=.f.q.6.3X6.",
"z e.G.o.3XoXe.D.k.k.k.;.d.D..XoXT.T.T.B.y.H.].A.oXD.Y.H.R.R.H.H.+XH.N.A.D.J.].J.H.'.].H.R.J.X.;.S.S.e.H.A.B.f.T.N.R.A.D.Y.D.R.D.D.F.F.D.g.g.D.J.g.D.u.y.A.H.y.D.D.A.A.D.D.A.A.D.A.J.#XH.].J.Y.F.].[.@X'.'.'.'.H.5.R..XH.R.R.3X&XR.-XoX].].R.R.Y.@X[.=X[.T.&XOXY.F.g..X^.D.J.oX^.oXT.R.].R.^.R.J.oXR.oX.XOX#XJ.oX*XoX.X@X&X@X&XD.A.^.OXA.e.@XJ.@X[.].oX-XY..XOX*X[.&X@XE..XOXoX.X@XR.H.-XY.OXoXD.g.Y.Y.oX5.5.D.J.H..X#XR.D.Y.E.#Xu.oXg.&.H.#X@X2X2XoX2X@X2X&X;XqX3XqX3X2X7X*X-XwXhX=X&X=XR.J.o.q.sXH.wXH.].fXhX@XA.N.gX8XE } j r 5.q.J.g.D.*X*X&X.XoXA.R.#X.XD.oXF.^.F.oXk.F..XA.D.J.E.H.F.R.~.OXE.R.^.E.E.oX.XOXE.E.R.^.^.F.r.oXR.R.@XoXoX@XoXoX@X.XJ.D.g.F.*XR.^.oX^.R.*X#X@X#XoX@XE.E.E.F.D.D.F.~..XA.k.F.F.F.~.OX7XJ.OX-XR.F.D.].oX].2XD.B.J.R.R.R.oX@X[.R.R.R.B..X.XA.J..XJ.].'.+X]..X@X.X#X].].oXJ.g.D.oXU.J..XJ..X.XoX^.Y..XE.Y.R.Y.D.k.D..XJ.J.J.J.J.R..XoXR.R.oX[.OXT.oXE.E.E.D.Y.E.OXOXH.R..X#X#XoX#XoXoXoXE.J.A.D.[.'.^.Y.^.Y.^.E.R.E.].oX#XoXoXoXoXoX.XoXoXoX^.J.J.F.D.E.E.Y.R..XoX#XJ.].oXR.R.R.[.[.g.=X1X=X3X#X'.g.D.D.:XlXA.<XqX6X.XG.2XqXR.I w.K ",
"N U o.5.tXoXD.e.w.D.w.r.k.g.oXT.R.'.H.D.A.D.J..X].H.].].+X].'.'.].H.H.J.J..X]..XR.H.H.R.J.q.q.r.u.g e.B.y.D.B.H.u.H.D.A.u.5.g.Y.Y.D.D.D.u.e.D.J.A.g.A.Y..XD.5.J.g.D.H.D.D.R.J.A.H.J.R.oXR.R.oXoXR.[.[.H.T.'.@X#X.XR.R.].].'.[.&.R.oX].]..XR.R.R.@X[.[.R.H.A.g.^.R.Y..XR..XY.J..X@XR.R.H.D.Y.E..X.X^.oXF.F..X~.OXoXoXOXOX8X*X-X&X^.oX*Xg. .oX#X.X@X@X-X2XoX*X*XOX=XR.R.E.F.R.oX.XR.oX[.oXf.Y.oXY.g.A.Y.E.D.e.J.H.R.A.R.R.D.oX#XE.R.#XR.%.2X.X2X2X;X3XoX2X@X&X-X-X2XqX3X&X-X8X7X#X3XhX8X&X[.5.Q A.q.O.hXhX].qXqX|.].2XsXqX} E g  .A.J.#XE.} D.oX*X.X.X].oXoX@X#XY.OXF.oX^.w.u.D.k.D.Y.oXJ.H.J.J.XXoXR.E.Y.Y.E.E.oX.X#XoXR.R.R.D.F.R.D.R.@XOX*XoXoX.X.XR.J.F.F.oX#XOX/.^.R.OXoX.X.X#X-XoXE.E.Y.J.A.d.F.F.^.u.A.u.J.J.OX-XJ.XXOXR.#X-X8X7X#X7XR.J.#XJ.J.J.H.H.R.].].R.J.R.R.J.R.J.oX'.'.].].]..X]..X[.R.R.D.g.D.E.T.F..XH.R.R..XE.J.E.E.R.Y.J.D.A.D.R.J.J.D.A.A.H.J.R.E.^.oXE.oXT.[.oXE.E.oXoXY.Y.Y..X@X@XoX.XoX-XoXJ.oXoXE.D.D.R.R.R.Y.^.E.^.^.^.oX.XOX.X#X#XoX#X@X@X@XoXoX^.R.F.D.R.^.E.R.^..X.X.X#XD.H.T.R.[.-X'.D.=X6X}.#X=XH.e.q.y.oXlX-XqXhX,XA.wXqXfX'.K Q K ",
"E H b.o.2XoXs.e.w.F.D.k.A.A.g.Y.B.B.B.R.@X].H.R.].].}.+X].'.H.(..XJ.#X.XJ.].A.H.H.B.H.H.A.q.k.u.O.} H.e.N.y.B.N.A.D.R.R.g.*.r.F.R.u.d.J.J.J.D.g.g.E.E.A.N.D.5.u.D.g.A.R.].J.D.J.A.J.R..XF.^.*XF.T.R.].'.@XH.H.[.R.H.A.D.].R.oXR.].@X.X@X@XR.R.'.[.[.=XoXD.R.^.F.E.J.R.Y.oXJ.D..X[.oX@X].].oXE..XJ.R.OX.X.XOX^..X*XoXOX@XOX@XoX'.^.oX*XoX.X-X-X-X-X@X].D.g.E.OXoX@XoXE.R.oX.XE.oX[.[.R.oXA.Y.].oXY.E.oXOX#XD..XR.oX.X.X.XoX-XOXE.H.oXoX-XR.#X-XOX-XoX@X;X2X-X&X2X3X=X-X2X7X-X*XOX8X@Xf.B.g.} &.A.t.H.qXqXqXxX@X#XqX8X2XhXOXz.r u.y.D.D.E.y.*X-XOX@XoXoX.XD.E.7XOX*XuXeXF.u.~.~.D.A.D.R.D.D.R..X#X.XY.R.F.Y.Y.F.E.R.oX^.J.R.oXOXF.D.D.R.oX.XOX.XoXoXoX.XD..X.XoX-XR.D.D.Y.OX.XOXOXoX*XE.D.D.Y.U.g.d.F..XOXF.A.A.oX.X.XD.S.-X7XJ.#X7X8X#XD.R.D.D.].R.D.H.].R.D.H.R.R.J.D.H.g.A.A..X'.].'..XoX.X@X@X[.J.H.J.D.Y.^.Y.J.XXR..XE.oX.XJ.R..XE.Y.J.D.A.D.R.R.J.D.g.B.D.D.g.J.oXoXE.[.U.Y.oXY.D.oXoXE.Y.oXJ.H.H.oX#X#X].e.k.R.E.E.[.R.'.'.E.Y.oX^.D.Y.R.oXR..XoX.X.XoXoX.X.X.X^.^.^.^.^.E.E.^.E.E.oXoX.X.XR.R.R.R.oXR.[.;X=X=X2X@X#X.Xy.e.e.=.2XgX3XjXjX}.yXwX3X5X3XtXn y.",
"j O.N.I ].A.s.q.d.;.D.^.k.F.D.E.oX].H.R.R.J.J.oXR.H.R.+X].[.'.@XT.H.+X.X'.].G.H.T.H.].J.u.D.g.g.S.J.&.D.A.B.g.B.B.y.D.E.Y.D.J.E.D.d.g.k.k.D.D.J.e.D.J.J.R.J.u.u.D.D.D.D.J.R.J.D..XJ.oX.X^.g.Y.E.[.].+XoXoXT.'.].R.].H.R.oXR.R.R..X@X@X#X@X'.'.'.@XN.D.R.A.R.#X.X.XD.^.^.R.Y..XE.@X&X@XD.H.E.R.oX^.F.^.OX#X#X.XoX7XoX*X*XR.;X=X[.oXE.R.oX*XJ.R.@X=X@XoX].Y.OX*XoXY.OXE.J.OXOXE.[.&XoXJ.oXE..XE.R.Y.oXE.oXoXJ.J.J.g.D.R.Y.oX#XoXOX-XoX#X2X.X-XqX].#X@X.X@X3X@X2X[.@X-X2X-X&X7X8X#XB.oX*.*.g.k.e.&.O.g.xXtXfXfXfXfXtXgX}.tXOXQ j g.q.J.f.g.D.#X*X-X.XoX.XoX-XY.E.;XoXR.R.>XD.r.F.D.D.R.R.F.F.R.J.R.E.Y.E.E.E.R.F.R.oXR.R.E.^.R.OXF.D.J.R.oXR.OXoX.XoX.X*XE.@XoX.X.XE.D.J.R.oX.XoX.XE.OX^.J.R.[.E.U.~.~..XJ.^.oX.X~.J.A.oX-Xg.F.#X8XoXoXJ.D.R.J.D.].D.g.J.@X].J.R.R..XH.H.R.y.D.J.].'.[.R.]..XoX2X2X@X].R..X^.E.R.F.J..X.XoXE.oX.XJ.F.R.R.J.F.F.D.F.R.Y.Y.D.A.A.D.H.g.F.R.^.E.E.Y.E.*XoXY.oXE.E.E.OXR.D.R.#XoXR.R.J.R.oXE.E.oX'.T.D.R.J.E.E.f.A.D.].oXoX-XH.D.oXR..XoXoX.XR.J.R.R.E.^.^.E.E.OX@XoXoXR.].R.H.-X@X[.;X3X=X=X2X=XR.y.u.&.N.@XgXjXgXjXjXqXhX+X5X3X[.K 6.",
"j #X2XN.T.-XD.Y.r.F.r.D.R.R.Y.Y.R.R.].oXoX@XoXR.Y.T.T.E.T.Y.A.Y.H.H.'.].].'.J.H.H.H.J.D.u.g.e.g.A.k.5.q.D.Y.f.[.R.A.D.D.D.A.A.g.D.R.R.A.D.D.A..Xq.k.e.A.D.A.u.u.A.D.D.A.D.Y.F.A.J.J.F.q.E.OX.XT.T.R.@X].'.[.-XR.A.A.T.].D.R.#XoX].@X@X#X@X[.[.'.@X@XoX].].].~.~.oXR.@X.X]..XoX.XoX*XOXD.Y.E.R.R.^.D.R.oXoXoX.X.XOXOX7XoXoX2X2X@X*XoXOXoX.X.X8X#XoXoX@X#X*X*X*X&X.XR.^.^.R.oXOXE.oXOXoXoXR.R.R.D.H.oX.X].^.R.R.~..XR.-X-X.XoX#XoXY.OX#XR.2X@X-X@X.X-X7X-X.X8X=X2X[.@X2X;X=X9XuX-XOX-XD.D. .....r.e.u.2XT.@X@XqX6X5X1X6X5X3X*.b D k.OXD.F.Y.oXOX-X#XOXR.OXuXR.T.3XeXY.;.J.>Xd.k..XA.R.R.R.R.R.J.D.E.Y.^..XoX^.F.R..XJ.R.^./.F.oXY.R.R.R..XR.oXoX~.R.D.#X*X#XoX].R.R.R.^.R..X.XoX~..XOX^.E.oXoXOXoXF..X~.J.u.~.F.R.R.R.J.J.A.R.oX7XoX.X.X#X2X].D.oXH.R.oXR.D.Y..XD.D.J.R.oXg.R..X.XY.R.D.J.].].#X#X@XoXoXoX.XY.D.F.D.F.R.R.Y.E.^.F.k.F.J.D.J.R.R.].R.F.F.J.A.g.A.H.R.Y.F.Y.oX.XoX*X.XoX.X.XY.oXoXoX#X.X.X#XoXR.@X-X^.OXE.R.oXR.D.D.D.D.E.E.g.H.].oX#XoXR.g.u.D.D.D.R.^.^.R.Y.R.R.^.oX.XE.E.oXOXoX.X@XR.].R.[.@X3X;X@X3X2X=X@X].J.g.D.&.-X3X6X1X1XfXH.N.jX6XhXT.] K ",
"u g.8Xu.R.E.A.q.&.F.D.r.D.E.F.^.g.A.Y.Y.D..XoXD.y.f.g.D.D.Y.D.Y.].].T.'.J.H.H.b.g.'.D.g.A.e.A.A.k.J.R.O.g.u.&.B.B.A.D.Y.D.D.Y.D.A.E.oXJ.Y.R.k.F.R.R.u.g.A.N.A.D.A.g.k.J.R.D.A.D.Y.E.F.J.OXoXB.Y.H.D.oX@X[.'.+XR.U.T.D.D.g.H..X+XoX#X=X=X+X].[.T.5.].-XoX].oX@XR.J.oXoXD.oXoXR.oXoXOX*XoX.XoXR.R.R.R.oXoX^.oXOXoXOX*XoX6.@X@X[.[.E.@X=XoXOX#X7XoXoX].R.R..XR.oX=XOXR.oX#XoX^.oXOX.XE.E.oXJ.H.R.H.g.J..XH.E.J.~.^.R.R.oX@XoXOXOXoX*..XoX*X.X@X.X-X-XoXoX@X2X@X=X2X&XoX@X2X7X3X;X=X-XoXD.q.H r.F.F.e.*.R.T.].1XaX,XC.5X5X6XT.b F f ;.k.k.oXD.OX.XD.*XOXOX*XoXD.oX8X7X-Xy.L 7XoXr.^.d.J.J.J.R.^.oXE.^.Y.E.^.^.~.F.R.R.R.R.R.^.^.^.R.J.J.R.oX~.D.~..X^.r.k.oXoX.X].].J.Y.R.J..XoXOX.X]..XR.R.E.R.^.^.g.J.R.F.y.A.D.oX].R.R.R.J..XoXoXoX#X#X.XoXR.R..X].oX@X].D.Y.Y.A.g..XJ.R.J.R.D.J.Y.R.Y.]..XoX@X@X@XoX.X.XE.J.F.!..XJ..XE.R.E.^.J.z.F.F.D.J.J.R.R.R.D.D.F.k.r.u.A.R.J.D.R.#XoXOX#XD..X.XY.Y.oXOXoXoXoXE.oX#X#XoXR.D.R.Y.E.[.Y.T.R.D.D.[.oXT.[.+X+XoX].e.A.D.u.D.e.A.F.R.R.E..XoXoXoX.XY.Y.oXOXoXoXoXoX@X[.@X@X3X3XOX3X=X2X&X].R.k.D.*.H.B.oXoXhXqXO.6.fX=X[.W ! ! ",
"j A.y.2XR.*XoXq.&.../.D.e.E.OXoXH &.R.oXR.R.oXOXD.D.E.Y.Y.Y.D.A.R.D.H.H.H.).G.b.N.].H.A.R.D..XS.A.e.O.R.A.Y.D.Y.D.Y.D.Y.E.H.Y.D.g.A.oXD.e.u.k.~.H.g.g.R.J.g.q.F.d.D.F.A.D.R.Y.A.H D.R.Y.D.B.T.R.].'.[.oXoXH.[.2XU.U.g.D.[.2X'.'.@X@X#X2X+X].].T.#X@X#X-X].H.oXoXJ.].R.D.oXoXR.oXOXoXOXR.D.J.E.oXOX^.^.^.Y.oX7X-X*X*XD.y.@X+X#X#X*X3X;XoXOXoXoX*X@X.XoXoX*X[.oX*XE..XoX#XOX~.^.*XoXD.D.oXR.H.].R.D.J..X]..X~..X#XoX#XoX].OXOXY.E.oXOXoXOXE.oX@XoXR.-X.X-X2X' =X#XOX3X-XOX-X3X2X@X-XOXT.*.D.D.r.O.r.q.Q ' [.}.M.V.H.4X1X6XT.n b D ..D.oX2XH.@X#XoX.XoX-X7XH.H.-X-X;XY.Y.Y.-XR.k.k.k./.~.R.J.Y.oXE.^.F.Y.R.^.!.F.!..XXX~.F.R.R.k.z.A.J..XR.J.A..X~.J.k.r.^..XoXoX.XR.E.R.F.OXoX.X~.oXoXR.R.~.J.!.!.D.N.D.N.J.R.R.R.].oXJ.J.#XoXR.oXR..XR.g.J..X-X#X'.R.'.[.oX.XE.^.D.oXJ.R..XR.D.H.Y.F.E..XoX@X+XoX.XoX.X].R.J.J.^.oXF..X.X.XE..XR.F.R.J.F.J.H.D.J.Y.D.D.F.A.f.d.g.D.J.J.R.#X^.oXE..X.XE.Y.Y.Y.E.E.R.-XOXoXoX]..X.XR..XR.E.Y.D.Y.T.R.H.].R.[.+X+X{.]..XD.J.J.D.R.A.R.^.R.R.R..X^.R..XR.J.R.oXOXoXOX@X@XoX[.3X;X=X3X-X&X@X2X=XR.D.A.q.q.*.W H.-XA.oXG.#X5XvXtXf.K E ",
"u A.#X2XR.g.R.Y.w.D.F.k.~.D.D.R.R.E.R.R.oXR.A.D.].].OXJ.R.Y.J.D.E.A.T.D.H.).V.b.H.g.y.H.R.R.u.u.A.H.A.g.OXY.D.U.Y.D.;.f.R.Y.E.Y.U.g..XR.f.A.F.J.D.H.oXJ.A.J.e.A.D.D.D.D.F.D.F.J.e.E.D.Y.@XB.@Xy.5.'.@XH.]..X.XoXoXT.Y.].H..X+X+X].'.].1X}.'.].'.oX-XD.D.@X@X[.@X@XR..XR.oXoXoX.XoXoX-XoXY.R.^.oXR.A.D.OXOXOX-XOX*X*XOX3X].[.2X2X[.W.;X;X[.@X*X*X@XoXoX.X&X[.[.oXR.A..X.Xd.D.#X^.E.Y.E.oXD.H.oXD.J.D.A.].F.R.F.#X-X].oXoX.X*X#XE.oX*XE.OX#XoX.X-XOXF.oXJ.-X-X=X2X-X3X;X;X2X;X2XyXOX&X;XQ y.q.J. .L } q.D.3X'.V.H.y.H.{ 2XtX&.b D L k.#X.X].oXoX.X-X-XOXOXH.oX8X;X8XD.q.7X*XE.D.&.w.J..XoX.XR.oX[.^.Y.R..XXXoX~..X.X.XF.F.R.R.e.x.D.R.R.A..XOX:Xk.w.~.~.#X.XoX.X.XR.Y.F.F.#XOX/./.@XoXJ.F.J.L.!.L.A.J.J.J.g.J.D.].2XR.H.J.].].-X.XoXA.g.g.oXR.].].[.oX].R.R.oX^.R.].J.A.J.J.J..XJ.g.d.D.D.R.oX]..X.X@XoX].Y.D.A.F.D.e.H.Y.E.E.R.Y.F.Y.F.D.J.H.D.J.F.x.D.F.D.A.A.A.F.R.R.F..XJ.oXR.R.D.Y.E.oXY.R.E.R.*XoXOX*X].J..X.XR.J.Y.Y.R.oX[.R.H.R.D.].+X+X+XR.].oXu.e.].R..XoX^.R.F.R.oXoX^.oX.XR.R.OXOXoX@X&X[.2X2X[.T.3XtX;XoX&X@X[.oXD.A.;.E Q A.Y.8XF.J.G.'.o.B.hXtXW ! ",
"H y.[.=X6.y.y.8.D.T.B.6.B.R.oXE.[.[.R.E..XoXY.F.A.g.R.R.R.[.T.H.T.].T.T.R.D.B.C.H.D.B.H.D.D.R.g.A.A.A.k.g.t.g.oXA.D.O.g.Y.Y.J.OX'.H.'.T.H.B.J.J.R.'.H.H.'.'.'.'.H.D.F.F.D.J.R.R.E.F.J.'.T.W.[.|.R.R.E.oXoX.X].@XT.T.H.H.'.+X{.|..XoXoX3X[.R.E.R.=X[.H.A.OXOX.X.XU.*X*XD.;XoX].J.@X&X@X@XOXE.D.R.R.} u.7XoXoXoXoX&X-X&XOXoX-XoX#XOXOX@X2X}.@X#X*X;XB.H..X]..XoX@X.X].7X.XJ.J.R..XoXoXR.oXk..X.XD.Y.D.R.D..X~.#X@X].E.E.OX[.OXOX&XoX-XoX5.D.oX;XOX^.^.^.#X.X@X#X2X3XR.-X7XqX-XR.2X8X#X.Xq.} y.Y.} U K u.oX7XB..XA.u.k.e.~.OXu.7 y.Q } J.@XF.J.#X:X-X7XOXE.*X#XoX*X7X7XU.s.z.#Xe.@.d.D..XoXR.E.&X@XR.R.oXoXoX^.F.F.S..XJ.D.~.F.A.^.Y.R.T.]..XD.F.XXR.R.OXOX.X].[.=X.X.XR.R.#X-XoXR.oXE.Y.R.~.~.R.J.k.F.J.R.D.H.@X.XR.#X-X.X-XoX.XoXE.Y.oX*XoXE.^.oXR.oX.X.X@XoXJ.D.D.].J.S.A.A.A.J.Y.R.R.g.A.@X@X|.@X#X.X.XY.D.J.A.F.R..XR.D.Y.Y.U.F.R.Y.F.R.R.J.J.~.J.A.k.k.D.D.A.E.A.E.OXoXE.R.E.[.T.H.].].R.oXE.U.[.8XE.oX-XA.R.oXD.R.OXR.R.oXE.F.oXD.E.Y.^.F.D.@X+XoXu.r.XX$X.XJ..XOX@X.XR.].[.oXE.oXR.@X@X#X].Y.D.R.eXoX].2XqX2X7XwX-X#X#XoXg.!  .q.A.9X-XA.J.f.f.J.A.3XtX&.K ",
"O.A.&XT.T.@Xg.g.] g.T.B.T.T.D.R.R.R.Y.oXoX].D.Y.g.Y.oX2X[.B.T.T.H.].T.R.B.f.T.B.B.B.B.A.A.D.J.J.D.D.Y.A.J.u.H.R.D.oXY.oXJ.D.Y.D.D.B.H.D.H.R.].D.B.T.[.].'.T.C.N.R.R.R.R.D.D.J.Y.E.F.R.oX[.[.[.'.oXR.E.R.oXR.].].T.T.T.J.'.'.|.|.].@X[.&X[.[.@X.X[.+X=X@X#X~..X#Xe.Y.oXB.R.T.oX=X@X@X@X@XoXR.D.E..XR.R.oXOX*XE.oXR.*XE.-XOXD.#X-XOX#X-X2X[.@XOX#X@X].].@XoX@X#X].8XoX.X]..XoXR.R.^.D.E.OX^.oXE.#XE.OXY.A.A.~.J.H.D.*X.XY.oX@XY.&X@XoX@XoXOXoX@X*XoXoXoX@XoX#X2X2X8XD.H.R.wX.XoX*X#X7X2XO.d.D.q.y.o.I O..X-X&.J.O.J.k.k.&.*X.Xt g. .H.2X;.D.R.7X#X[.OXoXoXoXR.R.7X-X7XE.oX^.R.r.;.z..XoX^.F.H.].'.^.~..X~.R.~.~.oX#X].J.F.F.^.OX^.OXoXR.R..X.XF.S.~..X-XOXoX#X+X'.R.oX@X#X-X-X-X-XoXY.D.J..XOX~.D.F.J.J.R.J.R.@X].R.@XoXoX@XoX.X#X#XOXOXOXoXoX.XR..X@X.XJ.J.J.H.R.].].J.J.J.F.D.J.D.J.R.J.R.[.[.=XoX#X.XE.R.D.D.A.J.J.F.J.E.OXoXR.Y.R.R.F.J.R.J.J.!.F.A.F.D.g.B.H.E.Y.Y.Y.Y.oX^.E.&X'.D.J.D.J.oXE.E.T.[.oXoXoXD.Y.oXY.E.E.E.@XY...k.D.R.E.E.#XD.~.[.H..X@XOXOX.X$XoXoXE.].]..XoXoX.X.XE.R.oX2X3X3X-XoXJ.J.OX@X5X3XwXoX-XwX#X.XJ.e.6.Q Q k.uXR.J.r.k.^.k.f.Y.3X6.n ",
"H } [.&XD.].].@X} W q.D.B.H.T.H.R.[.R.E.T.T.B.B.A.Y.J.R.D.B.'.'.T.R.B.T.D.T.[.%.H.H.H.D.D.A.B.D.oXR..XJ..XJ.J.N.oXE.oXOXD.D.E.f.B.D.].D.B.J.oXH.].R.D.B.D.'.'.H.R.R.].].F.D.J.R..XY.R.E.R.T.[.R.E.D.Y.D.oXR.oX[.T.T.T.].].'.'..X.X@X].@XoX[.]..X#X].]..XoXR.R.oXoX*X-XY.[.].@X@X@X@XoX[..XR.J.E.R.oX.XJ.J.OXoXoX;X[.oXE.E.oXOXoXOX*X;X2XoX@XOX#XoXoXR..XoXoX-X.Xq.#XoXoXR.@X-XJ.E.*X^.E.oXF..X.X[.Y..XD.D..X-XJ.Y.oXR.E.oX&X&X3X@XoX#X-XoXOX*X*XoXoXoXoX@X@X#X@X-X8X@XH.8X8XwXD..X.XB..X^..X .y.u.L &.D.qXD.e.A.r.A.F.u.oXy.r F ' B.oXu.:XR.^.!.[.=X-X-X#XD.D.OXoX9X7X7XoXD.F...d..X.XJ.J.R.@X@X.XJ.F.F.R..X~.R.F..XXXJ.D.Y.oX*X7XY.Y.R.R.R.J.OX.XoX*XoXoX#X@X].R.oX#XoXoXoXoX#XoXY.D.J.oXOX~.D.R.F.J.J.R..XR.J.R.oX.XoXoXoX].#X*XE.E.OXoXR.Y.R..X.XJ.J.]..X.X#XoXR.J..X.XR.J.J.E.D.D.R.@X@X'.=XoX@XR.D.D.D.D.D.F.F.D.D.J.E.R.D.F.E.Y.A.D.F.H.A.F.F.F.~.J.A.A.]..XE.R.D.E.OXoXoXR.Y.D.J.J.R.oXE.E.oX&X8X*XE.OXoXR.Y.Y.R.].@XR.f.D.J.OX^.^.OXE.OX#X]..X.X.X#X#X8X#XoXE.R..XoXoXoXY.oXY.]..X#XoX@X*X*X.XR.>X2X8X3XoXJ.-XlX@XoXR.u.f.e.} J.wXOXJ.D.g.u.R.e.R.tXL n ",
"Y A.B.@X.XoXoXD.D.Q } D.D.B.H.C.U.oXU.D.A.H.B.B.A.f.D.D.D.H.N.H.[.'.D.H.g.B.[.N.H.B.H.D.H.A.q.u.A.A.A.J.D.].J.H.oXA.D.E.Y.D.oXg.D.R.oXH.y.A.].T.Y.D.D.T.R.'.B. .J.H.R..XY.D.R.^.oXR.R.R.T.T.R.R.D.D.R.J..XT.oX@X].T.R.].oX].].]..XoX].@X&X'.H.].oX].].R.R.R.@X;X*X*X*XoXOX@X@XR.+X@X@X@XoX].R.]..X.X]..XJ.oX@X#X=XR.&XOXoXoX#XoXoXOX@X-X[.oXoXoXoXoXR..X@XoXoX@Xg.oXoX-X-X-XoXJ.e.OXY.J.OX#X7X7X@XoXoXA.OX].oX.X^.Y.D.E.E.R.oX7Xn e..X#X~.oX*XOXoX.XoX.X-X@X@X+X].@XoXqXyXoX-XwX#XoX-X8XoXoX.XR.g.g.g.oX7XR.D.R..Xq.A.A.U U K W } J.-X-X.X.X^.D.oX7X8X-X#XoX.X#XOX-X*XoXA.d..Xe.z.oXR.D.Y.R.].oX#X^.J.J.~.OX~.R.~..XJ.A.A.^.-X7XD.&.g.R.R.H.D.OXoXY..XoX.X].].@X.XoX.X.X.X.X.X.XE.E.E.E..X.X^.R.~.R..X~..XoXJ.J.R.oX.XoXoX.XR.oXoXY.E.OX.XD.F.E.oX].J.J..XJ.A.H.R.H.R..XR.J.R.J.Y.D.g.B.].[.T.]..XoXJ.A.F.D.D.Y.R.^.R.J.D.D.H.D.F.E.J.A.A.D.A.g.d.D.~.R.J.J.J.J.D.D.D.D.E.E.D.E.D.D.D.F.J.^.oXE.R.;X*X*XoXE.*XE.oX.X^.R.R.E.E.oXD.^.E.E..XY.oXE..XoX#X].].2X2X-XoXoXOXoXoXoXoX.XD.oXE..XoX#XoX#XoX*XOX7X7X2X-X8XyX7X8X8X].2XwXeXA.u.u.D.yX&XD.E.OXD.u.#X&.=.H K ",
"L 7X-X2Xg.;.g.&.g.f.&.D.@XH.H.'.U.Y.D.T.Y.].R.R.D.A.R.R.J.A.g.].@X].'.'.H.g.B.].R.H.'.'.].R.B.J.q.u.S..XA.J.].oX^.F.R.E.R.D.R.A.J.R.R.D.y.B.R.H.oXoXoX'.H.T.H.g.R.H.R.].Y.Y.Y.R.Y.^..XoX[.'.R.J.T.R.[.oX.X'.'.[.].R.R.[.].H.J.R..X.X[.].+X].T.R.oX.X.XoX].oXoX[.R.~.OXoX.XE.oX[.+X+X#X-X#X@XoXoXoXoXR.oXoX.XR.@X@Xo.H.].&X-XD.J.#XOXoX&XoXoXE.OXoX@X@XoX-X#XR.oX#X.XoXJ.@X-XR.R.J.Y..XJ.R.'.=.Y.2X[.]..XA.R..XJ.^.*XoXE.oXg.f.oXJ..XF.S.~.^.OXoX#XoXoXoX7X@X@X-X2X3X@X&X3X9X*X^.9XY.7X7X-X.XA.#XF.&.f.zX@Xq.e.R.F.r.K e.y.} l j A.D.d.-XF.*X*X/.OX7X7X#XOXoX#X7X*XE.oXoXR.D.OXF.D.R.k.d.J.J.J.].OXoXoXF.A.J.R.oXOXJ.R.F.d.R.-XR.k.O.e.A.R.oXR.R.oXD.J.@X@X].J..X.XoX.X.X@X@XoXoXoXoX@XoXE.^.oXoX.XR..XR.R.~.F.J..X.XoX.X#X.X.X.XOX*X*XoXJ.R.^.J.R..X.X.XR.g.u.A.F.D.J.J.D.D.J.H.R.].J.D.H.].@X=XE.oXE.D.Y.D.A.Y.R.E.R.J.J.Y.J.D.D.E.Y.A.D.J.A.g.r.D.F.D.D.R.].H.A.D.Y.R.E.Y.A.R.Y.R.A.g.A.Y.oXE.&X8XOXY.oX*X#XoXE.oX.XR..XoXE.Y.F.E.oXoX&X].#XR.@X+X#X@X@X-X2X-XoXOXOX@XoXoXoXoXE.oXoXY.OXoXoX-X*XOXoX2X&X-X;X;XOX.X@X2XqX8X8X#XtXD.;.7X;X&Xy.y.J.~.}  .U.] &.j ",
"k g.2X7Xg.U &.W y.g.e.g.R.N.'.[.Y.D.B.[.oXE.H.].B..XR.Y.H.D.R.R.].].].H..X].u.g.'.'.'.J.H.D.A.R.A.D..X.X.XR.].R..XE..XD.D.D.R.D.D.R.R.H.g.D.H.T.A.H.].R.H.H.J.H.T.H.R.'.Y.Y.R.J.D.R.~.R.].'.R.].[.[.oX@X@XoX'.T.T.R.].oXR.D.Y.OX].@X#XH.R.].].T.oXoX.X.XoX@XR.D..XoX#XOXoXE.oX@X+X+X@X=X@X@XoX].R.R.J.oX.X[.oX].B.N.B.@X].g.oXE.&X@X[.@XoXoXY.oXoX@X-X].oX#XR..XJ.#XoXR..X].-XR.#X.X.XoX].oX6.&X@X2X.XB.Y.R.J..XoXOX#XoXOXY.g.y.R.-X.XF.~.F..X-X#X#XoXoX-X@X@X2X@X@X8X&X3X7X-X.X7X8X7X7X2X8XJ.g.~.d.Y.hX[.[.f.g.e.r.&.7X#X} Q l Q F.D.oXu.R.*XoXoX*X-X-X*XoXOX8X*XE.*X#XOXOX#XY.A.D.r.r.F.R.].#X.X.XoXJ.D.J.R.oXR.F.^.~.F.]..XB..Xr.r.A.E.OXoX-X#XH.H.].@X@XR.H.R..X.XoX#XoX.XoXOX#XOXoXoXOXoXoX.X.XoXR.F.D.F.^.oX.XoX.X#X@X#X.X*X*XOXY.D.R..XJ.J.R.J.R.R.D.A.R.E.Y.F.D.D.J.J.A.B.H.A.u.u.D.@X[.oX.XR.A.A.z.g.Y.A.Y.E.Y.D.D.D.D.D.Y.Y.D.D.Y.D.A.D.D.D.D.D.J.J.R.Y.E.OXoXoXoXR.^.oXoXD.g.D.R.OXoXoX&XoXR.OXoXY..XY.J.J..X#XoXE.E.oXY.OXE.oX#XoXoX2X#X@X+XoX=X2X2X*XOXoX.X.XoXoXoX.XoXoXY.oXR.E.oX*XOX-X@X&X@XqX&X-X*X#XoXqX8X8X8XqX.Xe.-XyX@XY.f.F.~  .J.yX&.j j ",
"0 g.2X-XoX&.&.g.R.y.g.y.A.N.'.J.[.R.T.[.R.T.B.D.y.].R.J.R.R.R.B.'.@X].N.A.J.A.D.@XoX'.].J.D.H.A.k.D.F.H.].].].H.oXD.D.k.A.F.R.D.A..XR.J.D.J.H.'.H.R.'.'.].R.H.H.D.T.'.'.T.R..XR.Y.R.F.D.R.'.R.[.[.[.oX+X@XoX[.'.H.R.].oX].E.oX*X@X+X2X].R.].].'.J.oX.XoXoXoX].oXoXoXoXoXoXoXoXoX+X].oX@X.X.XoXR.R.J.J.#X[.#X3X@X@X@X[.oXT.oX-XoX].@X].].E.oXY.R.oX@X@XR.].oXoXoXoX#XR.2X-XR.#XJ.R..XJ.].].@X@X3X2X#X#XD.^.D.].]..XD.E..XE.oX.Xe.J.OXF.L.~.^.OX.XJ.OXoX.X@X@XOX;X2X@X3X;X3X3XR.;.oX-X7X7X8XJ.7XJ.F.Y.q.3X&Xg.f.5.H q.yXyX]. .z } ;.A.A.>XoXA.R.z.A.R.*X7X-X*X*X7XOXOXoXJ.J..XOXY.R..XD.k.F.J.].oXoX.XoX.X.X#XoX.XXXXXR.D.E.oX.X].J.k.k.^..XD.D.&X#XR.H.J.].oXR.H.oXoX.X.XoX.XR..X#X*X*XOXOXOXOX.XXX@X#X*XR.D.~./.oX.X.X.XoX-X#X.XoXE.R.Y.D.A.J.R.R.J.D.D.R.D.A.J.oXE.D.D.R.R.H.H.D.D.D.D.g.D.@X'.oXY.Y.k.f.f.d.Y.D.R.oXE.F.D.Y.Y.J.Y.J.D.Y.Y.D.A.R.D.D.Y.Y.D.D.E.E.Y.E.^.^.oX^.^.oX[.A.A.R.oX#X#XoX@X-X2X2XoXE.OXoXY.~.#X#XR.Y.@XoXY.oXT.D.R..X.X+X-X-X@X@X2X2X[.*XOX.X].]..XoX.XE..XoXoXOXOXOX*XoX@X2X2X3X=X7X-XyX7X-X-X2X-X8XqX3X8Xg.&X;XT.g.y. .O.J.8XtX] l &.",
"0 D.2X-XA.g.oXE.D.&.D.A.#X.XJ.@XT.[.[.T.D.E.Y.D.oXH.H.J.R.D.g..X+X+XJ.H.H.B.J.oX].R.H.].R.R.J.e.r.J.F.H.N.].J.].E.y.g.J.D.D.J.D.D.~.D.A.J.@XR.T.H.H.H.H.].'.H.].D.R.[.[.T.R..XR.E.oXR.J.oX[.[.[.T.R.#X].@XR.+X[.].R.R.].oXoXoXoX@X).#X@XoX].].@X#X#XR.oX@XoXB.N.oXoXoXoX.XR.J.Y.#XoX+XoX]..XoXE.].#XJ.oX-X@X@X2X}.@X@X@XH.R.oX.X[.2X-XOXOX-XOXoX@X&XoX-X-X.X#X#XoXR.-XR.D.7X.XoXXX.X#XoX[.[.T.}.].+XJ.J.oXJ.D.-X.XR..XE.oXE.oXoX.XXXS.#X~..XoX~.u.XXoXoX@X2X@X=X2X@X=X8X;X7XR...*.oX-X>X-X8X-XoXr.:.s.=XT.f.H.R..XJ.8X].B.e.z z D.J.k.XXR.R.-Xd.J..X#XOXOX*X*XOXE.oXoX#X#X.X^.R.Y.OX^.F.J.J..XoXR.R..XJ.J..X.XoXF.L.OX.Xg.A.].].L.~.J.F.D.f.A.oX].H.'.].].].J.J.7X#X.X.X@X#XoX@XoX*X>X=XOX@XoX.X]..X#X7X~.k.R.R.oXoXR..X.X-X#XR.R.^.OXE.A.A.J.J.D.R.R.R.R.D.D..X^.R.D.D.R.D.N.H.N.D.E.oXA.g.@X@XY.D.E.F.g.g.g.A.U.D.D.A.D.Y.Y.D.E.E.Y.J.Y.Y.D.D.H.D.R.E.Y.D.D.Y.^.d.A.E.oXoXE.oXE.E.g.A.R.oX#X-X=X@XoX&XoXE.OX.XR.R..XOXOX@XOX[.E.oXoXoXR.T.#XoX=X-X-X=X@X=X=X].@X@XoX.X].]..X.X*X#XoXOXE.oXOX*X#X-XoX3XqX;XOX-X9XD.D.wXwX8X2XqX@Xy.y.R.&XC.T.D.Y.R.A.lXC.R. .l ",
"g oXy.+X#XH.f.&.d.k.f.oXoXJ.R.E.R.'.H.[.U.@XU.Y.[.T.T.H.].g.g.B.J.R.D..X.XoX^..XR.H.'.'.'.'.D.g.D.D.A.H.G.N.S.D.D.B.H.oXD.g.R.D.(.'.y.y.T.'.T.B.g.D.g.k.R.D.F.A.D.F.g.Y.Y.g.Y.J.D.A.A.D.D.H.T.E.].#XOX@X[.[.@XoX^.oXoXB.f.@X@X@X].].@X@X'.'.].+XA.oXoX.X].OXE.E.].R.#XoXR.F..XXX.X@X.X@XoX.XJ.OX~..XoX.XoXR.].[.#XoX#XoX.XoXoXoX@X-X@X-XoXA.E.oX#X@X2X[.oX-X].).oXD.#X#XA.*X#XoXOX*X-XoXE.oXR.D.-XR.J.oXE.E.E.*..XA.D.R.oXR.oX.XJ.R..XR.OXg.Y.OXR.R.^.OXOXXX#X7X7XoXoX2X2X2X@Xe.w.u.oXOX2XqX].y.N &.F.>Xq.A.R.A.].%.e.yXQ } j ~ s.D.d.R.OXJ.XX.XD.OX#X8X-X8X.X].J.^.oXR.R.g.OX].H.].R.J.J.R.'.].].].R.H.H..XoX.XJ.^.#XoXe.q.R.Y.L.OXR.~.d.z.oX^.g.F.~.].R.R.R.].7X7XOXR.oX2X-X@X[.&X-X&XOXoXoX.X].].].].].oX.XR..X^.OXOXR.E..XH..X#XOX~.g.D.Y.E.oXJ.R.D.J.E.D.oXR.D.H.R.H.H.J.N.'.C.B.R.f.g.E.oXR.].R.D.D.H.A.u.A.D.J.J.D.D.D.D.Y.E.R.J.Y.Y.D.D.H.T.R.R.R.D.D.D.R.R.oXY.oXR.oX^.R.E.A.D.R.R.+X+XOXOXOXoX*X*XoX*XJ.R.oX.XoXoX@X@XoX.XoXoXoX#XoXoX;X;X3X-X-X.XoX.XoXE.J.E.oXOXoXE.D.OXoXOXOXoXOXoX@X+X2XoX#X-X-X*X9XE.@X8X8X2X8X.Xd.} k.eXE.g.T.g.H.J.L 7XD.=.j ..",
"I y.y.u.xX-Xg.&.j u.g..XY.E.D.R.T.T.T.R.[.[.R.R.T.R.E.H.].R.R.B.J..XR.].J.F.A.k.R.'.N.B.B.N.'.D.B.D.N.A.N.g.A.A.T.R.B.u.oXA.B.J.H.'.M.6.f.B.B.B.D.D.A.A.J.A.D.Y.D.A.y.A.F.D.R.Y.Y.D.D.B.D.D.R.E.@X<XOX+X].'.@X.XoX^.Y.R.R.].[.@X'.@X[.].=X+XT.+XXX#XoX.X.XoXY.Y.].oXoXR.J.R.oX.X.X.X.XoXoX.XR.XXJ.J..XoX-X@XoXoX*X.XoX].R.oX.XoX@XJ.@XoX].oXoX*X].@X].2X@X@X@X@XoXJ.R.#X*X.X*XE.oX^.OX*XoXT.g.g.oX.XOXD.oXoXoXQ ^.D.D.R..XE.E.E.R.R.^..X#XJ.R..XoXOXOX/..X#X7X#X#X#X-XqX2X=X8X@XOXw.R.R.@X'.J.+XL D.>XR.g.Y.OXQ o.y.oX9XB.Q Q z.k.^.k.D.~..XOXF.f.*X*X*X#X8X.XR.*XOXoXR.Y.Y.oX+XJ.].].'.].R.J.]..X.X.XoXoX.XoXOXOX.XoXoXE.E.E.E.OX.XR.F.D.^.^.^.g.J..X.XR.R.J.J.OX*XOXoXoX@XoX].[.@X@X@XOXoXoX.X].+X+X].J.J.R.J..XR.E.^.J.E.oX].R.*X.X~.d.f.^.oXD.Y..X.X^..XR.Y.H.D.D.D.H.J.H.N.'.H.N.H.B.T.oX[.oX.XR.D.D.R.J.A.A.D.J.D.D.D.Y.Y.Y.E.R.Y.R.R.J.D.T.R.]..X].R.Y.Y.oXR.R.A.oX^.E.k.R.E.D.D.T.R.].].oX>XoX*X^.A.OXE.oXoX#XOX&X@X@XoX^.oX*X.XE.@X#X#X@X[.oX[.@XoXoX.XR.E.oXoXoXoXE.Y.F..X^.E.oXOX#XOX#X@X@X@XqX-X@XqX-XOXtX8XoX8XqXyXf.&.7XE.A.d.&Xg.Q q.J.*XU. .Q ..",
"} u.@Xy.fX@X&.} ~ u.k.OXF.E.E.Y.R.R.R.B.T.U.[.R.D.D.R.].oX].Y.B.D.].R.].R.R.Y.D.'.].B.H.H.B.R.B.H.J.A.N.g.g.A.g.B.oXR.y.A.R.oXJ.H.].'.B.H.R.D.D.D.A.A.J.R.R.D.E.R.D.A.D.Y.J.J.Y.oXY.Y.A.R.T.[.].+X#X+X.X[.[.@X.X^.E.D.].@X'.@X@X'.'.'.}.+X}.'.'..X.XoXoX.XR.oX#X.XoX].oX-X@XXXJ.@XoX@X@XoXR..XoX.XR.R.J.].R.].oXoXR.E.R.].oXoXoXoXR.J.oX.XoX7XOX&X8XR.@X@XoX].#XoXoX].oX-XoX#XY.oXR..XoX[.oX[.[.OXJ.F.R.OXE.oXR.oXE.Y.^.oX#X.X^.J.~.R.R.^.J.R..XoXR.~.~.~.OX2X#X#X-X2X3X@X].&X2X>Xd..XA.J.J.N.wXOX>XF.A.F.e.;.e.o.A.y.].t 2 j k.F.OXR.*XOXJ.A.k.R.OX.X-X*X#X.X7X.X.XE..XA.H.B.H.].].'.].].'.H.R.].].].]..XE.E.oXoX.XoX.X#XOXR.OX#X.XOX^.^.oXd.k.F.R.E.R.R..XR.H.oXOXOX.X.XoXoX@X&X@XoXoXOXoX.XR.#X@X].H.N.H.].oX-X.X^..X^.oXoX].oX/.:X^.D.R.E.#XOXoXE.R.Y.Y.oXoXT.R.B.B.R.R.H.J.H.H.N.H.D.D.U.R.R.J.D.B.D.J.H.A.g.D.J.F.A.A.D.E.Y.R.R.E.E.Y.D.J.T.R.].].R.Y.T.Y.%.y.H.D.oX^.oXJ.E.^.D.A.T.'.[.].Y.*XE.*XR.d.*XE.^.E..XE.@X@X@X[.oXOX-XOX.XoXoXoX&XOXOX[.oX]..XR.oX^.R.R.^.oXOXoXR.oXoX.XOX-X@XoX2X#X2X-X8X8X2X3X8X-X3X@X3XuX@X-XqX3X8Xg.Y.f.e.*.&.e.D.E.T.= b  .",
"q } t.N.zXhXD.A.oXg.g.oX.XR.oXR.].oXoXg.D.U.oXY.'.D.T.[.[.R.J.D.T.'.J.R.J.R.J.A.].'.oXoX].R.D.B.D.H.A.A.A.D.R.R.U.D.A.E.q.D..XD.H.'.].T.].oXD.g.R.J.F.J.J..XA.A.].R.oX].R.Y.A.D.^.J.Y.D.'.T.].T.'.oX.XoXoX[.+X].E..XH.H.].R.@X[.'.R.oX=X+X+X@X[..X].#X#XoXY.oXOXR..X.XR.oX.XoX@XoXoX2X&XoXJ.oXoXE..XoX^.oXJ.Y..XOX.XoX.XR.R.J.D..X2X@X#XR.A.OXoX@X=X2X-X-X2X@X@XJ.R.R..XE.*XOXOXR.R.oXOX@X@XT.D.R.oXR.^.R.OXoXoXOXoXD.R.oX*X~.J.~..XJ.^.R..X.X.X>XoX.X#XXX.XOX#X#X-X2X3X3X=X&X-XOX.Xf.B.H.@X2XqXyX-X7XD.D.g.Y.;..X .R.oXY.] % j d.*XJ.R..X#X~.J.R.oX^.^.J..XoXOX.XoXY.E.A.D.H.+X[.'.R.].+X].J.]..X.XR.H.E.OXOX.XoX@X#XoX#X#XoX7XR.J.OX.X^.R.$.>.^.^.R.R.R.R.E.R.E.OXoXR.R..X@X@XoXoX.X].oXOXOX.X.X.X].].]..XoX].@XR.^.OXOXOXOX.X~.d.~.R.oX*XoX-X*XR.Y.oXoXY.J.R.D.H.B.N.D.A.N.D.A.D.B.J.D.f.f.D.R.J.D.D.J.R.H.B.g.D.F.D.A.A.D.Y.Y.E.E.E.E.Y.A.D.T.Y.Y.Y.D.A.D.D.H.H.R.D.R.Y.R.F.^.E.D.g.J.[.oX].oXoXOX*XoXoX#XoX.XE..XE.oXoX#X@XOXoX*X-X#X#XoX].E.[.OX^.oXR.oX.XoXE.E.oXoXoX^.oXoXoXOX.X#X2XoX.X*X#X7X2X-X8X8X2X8X;XE.[.&X*X7X2X3XtX8XY.D.D.U.*.D.u.;.9XB.T.f = ",
"l K U ].@XoX7XT.D.D.A.J.oXR.R.[.J.].].T.U.E.[.R.R.H.D.H.A.H.J.H.].H.D.H.R.J.J.g.H.D.R.R.H.H.A.A.H.D.D.J.J.D.J.R.oX.Xg.Y.A.D.g.D.'.H.R.J.R.].A.A.E.E.E.D.g.oXJ.D.H.D..X.XR.R.k.D.oXE.Y.Y.'.[.[.R.].@X@X@X+XR.'.J..X.X.XH.T.T.].R.R.@X[.].=X@X].#X@X.XoXoX#XoXoXR.OX.X#X.X@X].R.@XoX+X2X@XoXR.oXoXF.Y.E.Y.R.A.Y.E.OXoXoXoXR.J.J.J.#XoX.XJ.oX-X^..X2X[.;X2X@X-X2X.X.XA.D.OXR.]..XoX-XR.].oX[.Y.D.Y.R..XA.&.;.J.R.F..X@XR.R.].#X.X.X.XOX~.OX.X#XOXE.oXoXOXOXoXOX#X-X-X-X2X3XqXqX-X@X;XOXoX#X#XqXqXqX*XoX7X>XD.A.&.Q ^.;.A.;XD.f.r ] Q #XOXOX.X/.F.#XY.D.R..XF.^.oXR.@X#XA.E.[.H.@X#X+X].'.}.#X@X.X+XoXoX].Y.E.OXOXoX@X#XoXoX.XOX7X*X.X.XOXOX*X.Xx.F.E.E..X.XE.F.J.~.D.oXOX.XoXoX.X].#X-X#X.X.X#X#X.XoXoXoX.XoX@XoX].@X.X.XOXOXoX.X].OXF.f.^.-XR.*XoX[.D.].@XoXR.B.D.H.H.H.J.J.H.D.D.B.D.B.D.D.y.f.D.J.F.F.J.R.].J.D.D.D.D.H.J.J.D.A.R.E.E.E..XY.D.D.Y.R.Y.D.A.A.A.D.H.H.H.H.R.Y.^.oXR.J.A.f.D.oXoX[.OXoXOXE.oXOXJ.oX#X@X@X]..XE.oXoXoXE.#XoX.X-X2X@XE.oXOXoXOXoX@XoXoXoXoXoXY.g.D.^.oX.XoXR.oX-XoX.XoX#XOX#X2X-X@XgX3X&X@X;XE.*XyX9X2X|.3X3X&Xh.y.^ k.k.O.*XE.yX .q.",
"K e.U e.zX#X*XD.g.D.D.oX].@X[.[.].R.H..X.XE.Y.[.oX].].@X].J.J.E.'.D.D.J.].J.R.A.R..XJ.[.].D.oXY.B.B.A.R.Y.A.A.A.J.E.D.g.Y.D.D.E.'.J.].R.R.D.D.Y.A.Y.E.Y.A..XoXoXH.H.R.R.R.^.F.D.OXoXR.R.'.@X@X@X@X#X@X@X[.R.'.R..X.X#X@X].R.].[.oXoX.X+X-X#X.X+X.X.X.X.XoX.X^.~.g.#XgX@X].'.].].@XoXoX.XoXoXoXR.OXoX.XY.oXoXOX*XoX.XE..XR.Y.OXOXD.oXoX.XoXoXoX2X3X&X&.H.@X#XOXoXOXE.E.*X#XJ.@XD.R.R.@X-X*X&XE.T.]..XJ.R.F..XJ..XR.oXoX.XR..XoX#X~.XX/..XD.F.^.oXR.^.oX#X#X@X#X7X@X&X2X2X2X3X@XoX-X9XOXD.8X8X-XqX-X8X9Xy.D.y.f.A.u.k.f.&.B.T.r B.Y.-XD.F.OXoXF..XoXA.J.OXF.Y.oX/.R.@XD.E.oXy.H.H.}.].'.[.#X#X@X#XoXoXE.E.R.Y.E.oX[.oX].R.J..XeXoXoX.X.XoX*XoX^.R.oXJ.J.oXOXR.k.k.A.oXOXoX@X#XoX].#X-X-X.XE.oXoXR.oXoX.XR.J.R.[.@X2X#XoXoXOXoXoXoX7X.XD..XoXD.oXoX@X].@XT.J.R.g.J.H.N.A.D.A.A.A.A.A.J.A.f.A.A.D.D.F.F.D.F.J.Y.J.J.D.J.R.R.R.D.D.D.R.E.E.E.oXR.D.D.R.R.Y.D.D.A.D.D.H.D.H.R.R.D.D.J.R.F.A.g.Y.OXoXoXoX&XE.Y.E.R.J..XoXoXoXJ.Y.J.E.^.].oX-XR.D.@X3X=X*XOXOX^.OXoX.XR.OX^.E.R.D.g.F.OX.XoXoXoX#X-X.X'.R.OX#XoXoX-X-XqXtX3XqXD.-X7XeXeXgXtXqXR.D.[.f.g.k...R.k.] hXl ' ",
"r y.].].zX8XOXD.R.D.D..XR.@X[.'.oXR.D.R.E.R.T.R.R.T.H.oXJ.g.u.J.'.H.H.H.H.A.J.k.J.R.D.R.T.A.R.D.N.g.g.D.R.D.D.D.g.y.f.A.Y.f.Y.OXH.J.]..XJ.A.D.J.Y.D.R.oXE.D.E.E.].R.].R.R..XR.J.oX^.R.H.'.[.@XoX@X@X@X@X@X[.[.R.R..XoX-XH.D.oX[.#X.X@X3X2X2X2X+XoX#XoX.XR.F.D.~.#Xd. ..X2X].].}.@X@X].R..XoX].J.E.E.E.E.OXoX.X^.#XOXE.oXE.Y.oXOX.X#XR.#X@XR.-X].|.&X=.H.7X-XoXOXR.E.oXOX-XoX#XR.oX@X&XR.J.OXoXY..XoX]..XA.^.F.^.D.R..XR.J.R.oXoXJ.~.!.L.k.k.^.OX#X#XoXoX-X#XXX2X@X@X2X2X2X2X-X8X;XyXe.5.8X@XqX].oX.X*X7Xg.*.&.Q ;.u.d.B.3XB.f W D.*XoXR.oX7X#XJ.R..XoXF.x.~./.Y.].#XR.].T.5.N.T.'.].'.].@X#X@X@XOXoXoX.XE.R..XOX].oX@XoXR.XX7X:XOXoX#X#X-XOX#X.XOXH.D..XOX^.k.w.E.oXoX@X#X@X@X@XH.J.J.J.R..XoX.XJ.R..X.X].R.'.].+X@XoXoX*X-X-X-XJ.B.R..X].oXR.#XoX@X].D.R.R.A.J.'.R.A.A.F.D.A.J.g.D.A.u.A.A.Y.D.F.F.J.R.R.R.R..XA.D.R..XR.D.D.J.Y.E.Y.R.E.E.D.A.F.F.F.F.D.D.D.D.[.H.N.D.R.E.R.R.R.J.J.D.E.OXoXOX&X*XoXoXoX.X@XOX.X.XoXR.^.E.OXOXoX.X-XoXH.@X2X=XoXR.R.J.oXoXoXY.E.R.E.oXoXoXoXE.E.OXoX@X-X#X+X'.^.OX-X@XR.8X8X-X8X3X8Xe.-X-XeXuXR.T.].qXf.e.%.e.;.r.OXf.R.fXf l ",
"g Q R.].J.8XY.Y.D.F.A.e.'.[.T.C.R.R.J.J.E.oXR.D.'.@XR.H.g.A.H.OXH.H.R.H.B.A.XXJ..XJ.R.T.D.Y.E.oX'.T.B.D.F.D.A.g.k.A.g.k.D.E.oXD.J..X].].J.D..XR.OXA.g.E.oXA..XoXR.]..XR.J.J.].].OX.XOXR.&X@X2X#X@X@XoX@X@X[.'.H.J.oXR..Xe.q.[.H.H.oX@X#X2X@X].#X.XoXR..XoX.XR.#X.X#Xq.oX'.oX#XN.oX#X].J.J..XJ.R.Y.Y.Y.D.E.F.R.oXOXoXE.oXoXE.OXoXoXD..X#XoX*X7XoX6X=X3X2XoXE.*XOXE.Y.OX*X@XoXg.@X=X@X@XR.J.oXoXoX].A..XR.#X~.R.J.R.J.].R.].].oXR.~.L.F..X.XOX#X^.R.@XR.A.oX7X-XOX8X-XqXqX-X@X@X8X9X.XwXyXwXqX[.6.&.*.e.7Xh.y.D.e.a.@.k.E.hXC.8 ] D.R.*X*X]..X-X#X.X#XOXoXoX~.!./.J..XR.oX[.f.f.H.'.|.].].@X=X@X+XoXoXE.D.J..XoXoX+X].#X@X@X-X#X7XoXE.*XOXOX#X2X-XoXR.Y.R.~.F.k.k.oXoXoX-X*X.X].oXR.J.J.R..X.X.XoXOXoX.X]..X[.oX[.].@X@X@X*X*X.XR.B.H.oX7X#X*XoXE.@X[.f.g.].R.J..XT.'.A.A..XF.u.A.f.g.A.g.A.f.D.D.F.F.J.~.R.J.Y.].D.B.A.J.]..XR.D.Y.E.Y.D.Y.R.D.g.F.F.Y.Y.Y.J.D.A.H.T.'.R.H.D.J.R.R.J.E.R.^.oXR.oX&XE.oXoXoX#X@X.X.X.XoXR.^.E.oXoXoXJ.@X2X@X@X=X@XoXoXoXE.OXOX-XoXoXOXOX.XE.oXoX^.R.oXR.R..XoX#X+X.X:X#XoX-X9X-X9X3X&X@X8X-XuX9XF.&.g.O.].@X6.g.B.r.k.u.Y.R.hXf l ",
"w T r.;.d.-XyXR.t.b.y.g.@XoXH.J.D..XA.D..XJ.D.D.[.].].oXD.g.H.B.T.T.B.D.A.R.R.D..XT.].R.R.g.oXD.r.J.D.D.R.g.R.'.D.T.g.D.E.A.g.Y.J.].].R.R.'.'.T.'.[.T.H.@XH.B.R..XS.R..XY.J.Y.R.oX@X].;X-XoXoX@X.X].@X].@XE.[.U.[.D.H.#X].&X-XR.).]..X#X@X+X+X#X#X].].oXoXoXE..XH..X#X@Xg.[.E.T.#X.XR.oXoXR.'.@XOXF.XXA.~..X.XoX~.~..X.X.X].J..Xf.D.&XOX#XoXOXoXoXoX.X-X-X.X#X7X8X&XoXoX].-XR.J.R.oXY.-X*XE.-XE.^.Y.D.OX.XD.oX].R.E.R.D.oXoXoXoXY.OXR.^.^.F..X~.#XR.#XoXE.#X#X7X&X3X;X&X6X1X2X@X3X-X-X;XqX3X&XW.;.!.w.R.k.k.O.k.D.5.D.q.E.q.m &.w.OXA.OX#XJ.-X2XJ..X7X#X#XOXoXoX@X'.D.J.+X].R.].].'.+X}.}.{.'.'.R.R.R.oXoXoX.XoX#X].@X].'.@X+X.X-X#X-X@XE.OX7X*X-X*XY.E.A.oXOX.X.XoXD.oX*XoXE.OX-XoXD.J.E.^..XE..XJ.J.].+X[.T.'.#XoXoXOX#XoX^.E.B.T.+X1X#X].'.}..XH.oX#X'.T.H.R.R.D.R.J.R.R.A.D.u.u.A.A.N.A.J.J.^.R.J.J.Y.R.R.R.D.D.A.H.J.D.Y.Y.Y.Y.D.A.D.J.J.Y.Y.Y.Y.Y.D.A.A.D.).H.].A.H.D.g.J.].^.D..XR.R.R.^.*XoXU.@X@X&X[.&X'.@XE.E.D.J.R.#X@X@XoXoXoX-XoX*XE.oXOXR.y.q.A.oX.XD.D.g.oXR.oXE..XoXoXoXoXoXoXR.OXoXoXOX-X3X3X-X^.*XE.-X&X=XiX=Xk.F.k.k.k.g.B.g.B.Y.A.D.R.A.z  .",
"w L ;.#X>X7X*XR.#XD.N.J.J..X#X.X^.R.g.R.g.D.J.F.H.].@X].J.D.A.J.H.R.T.[.Y.R.J.k.J.D.B.T.H.y.f.D.;.D.Y.H.[.H.D.T.B.D.Y.Y.E.f.g.A..X.X].J.T.T.H.B.H.T.R.D.T.T.T.T.F.J.J.R.oXR.R.#XH.oXR.R.].@X@X@X@X.XoX].].R.[.R.H.'.].@XR.@X#X[.OX@X#X-X#X+X[.+X1X2X=XoX.XOXOXoX.X#XD.@XH.Y.*XY.R.R..XoX@XoX[.[.OX~.OXoXOX.X.X-X^.~.~.^.R.#XoXoX@XR.E.oXOX.X^.R.@X.XOX>X#X.X.X2X=X@XR.@XoX].H.t.R.Y.oXoXoXOX*XOXE.oXE.J.e.q.J.D.J.oXOX^.oX]..X@X^..XOXoX^.~.^..XoX^.oX.XoXE.E.E.=XT.@XtXqX=X3X@X=X2X3X=X=X3XI.B.;.;.^.0 .X~.D.E 6.D.D.] n *.:.R.~ k.F.J.]..X7X8X~.J.oX.X#XOXOXOXoX.X].J.H.].].J.'.'.].'.|.].'.|.]..X.XoXR..XoX*XT.T..X+X.X+X@X@XoX@X-X@X^.OX-X#X#X*XE.oXD.oX#XoX#X#XA.R.oXOXE.E.OXE.Y.oXOXR.R.R.@X].].].oXoX'.oX].@X#XE.E.-X-XY.oXoX#X2X@X}.}.@X@XR..X@XH.H.H.].OXOX.XR.Y.D.J.^.u.y.g.D.D.J.J.A.J.Y.R.R.R.J.J.J.B.D.D.J.H.A.D.J.E.E.R.Y.E.E.J.D.D.D.D.D.D.D.Y.R.].H.H.A.A.D.H.A.J.R.D.R.Y.E.oX^.OX*X&X&XE.&X[.@X[.[.U.D.R.E.R.J.].#X-XoX.X-XoXoXoX^.oXoXY.Y.oX#XoXJ.g.A.Y.oXoXR..X.XR.R.R.]..XE.oX^.oX#X*X;X;X-XoXoX*XoX@X3X=XI.S.@.:XK &.OXA.} H A.A.*.g &.O.J.",
"k.;.~ ^.J.D.R.g.t.A.]..X).J..X#XoXR.D..Xg.D.R.R.H.H.'.H.R.].A.D.[.'.B.D.g.D.R.D.H.R.D.H.T.D.y.Y.g.} g.H.T.H.B.N.D.A.D.A.R.g.R.R.D.R.].R.D.D.T.T.R.R.[.R.T.T.].D.A.J.R.E.oXR.J.oXoXoX].].].@X].@XR.R.].oX].].[.oX].oXH.'.R.@XR.H..X@X#X=X=X=X1X1X2X#X@XoXoX.XoX*X@X@Xg.oXR.A.oXD.Y..XoXE..X@XoX].XXXX.XXX.XoX.XR.oXoXR..XR.8X-XoXOXoXOXOX*XoXOX#X-XOX#X.XoX-X].R..X].8X-X].].B.].R.A.OXOXE.OXY.D.D.Y.Y.oXJ.D..XR.D.E.E.^.]..XR..XoXD.oX^.^.#XR.~.oXoXoXOX-XoX#X*X;X3X3X@X@X[.3XqXbX&X3X&X2XtXtXf.e.k.F.y A.k.^.^.H.@Xg.D.&.*.2 q.A.w.F..XA.R.-X-X-XoX-X-X7X*XoXoXH.oX.XH.D.H.J.J.'.'.].'.'.{.{.}.]..XoXoX^..XoX#X@XJ.H.].#X#X-X@XoXoXoX.X.XoXOX.X.XOXoXOXY.oXOXoX.X#XR.oXY.oXOX*X-XoXJ..XoXR.^.oX.X].].R.].].].@XoX#XoX#X-XY.g..X-X].'.].'.].}.[.J..X@X-XR.'.H.]..X*XoXOXoXD.D.A.D.u.g.A.B.D.J.B.J.R..X.X].R.J.J.J.].R.R.Y.D.J.D.Y.E.Y.R..XE.Y.D.D.D.D.A.A.D.J.J.].H.D.J.g.A.R.k.J.E.D.F.D.R.E.Y.@XOXOXOX@X-X@X@XR.].oXY.R.D.H.J.J..X#XoX].#XOXoXoX.XoXOXOX#X@XoX.XA.g.A.Y.OXoXE.oXoXoX]..XoXoX.XoXoX*X-X;X;X2X2X>XeX>X;X;X&X3X[.@...k.;.k #Xu.7XD.E.A.A.%.D.j z ",
";.r.w.#Xf.-Xg.E.q.u.R..XA.J..XA..XE..X.XoXD.J.^.oXH.]..XJ.].R.y.T.R.H.H.D.H.J.D.R.[.H.H.T.[.f.T.D.Q e.H.H.D.B.N.Y.D.D.Y.E.J.Y.g.H.R.].'.D.D.D.D.H.D.].].R.D.D.D.].J.R.'.D.D..XR.@X].[.@X@X@XR.@XoX]..X@XoX].].].B.D.B.].'.@XoX-XoX#X-X=X@X=X#X@X-X@XoX#XoXR.].OX7X#XoX7XoXE.E.oXoXOXOXE.R..X.XR.oXOXR..X.X.XoXR..XR.J.J.F.-X#XR.y.D.-X-X-X@X@XoX*X;X-XOX.XoX.X.XoX.XR.R.R.J.H.R.2X].oXOXoXOXOXoXoXY.D.E.E.R.R.D.R.].R..X].oX.X.XOXD..XR.J.#XJ.F.-XR..X>X^..X#X-X&.oX8X&X2X2X2XoXz &X;X2X8X@X[.tXR.J.R.R.oXR.E oXg.} OXu.oX].: z F.r.k.F.d.-X8XoX9XeXyX8X7XOXoXoXH.oX.X].@X].H.oX].].[.'.'.+X}.}..X.X.XoXoXoXoXoXoX].J.oX@XoX2X#X#X.XR.R.^.oX.XJ.Y.oXE.oXR..XoXoXoXoX.XoXoXOXOXoXOXoXR.OX*X.X^.R.].].].R.R.].'.+X@XR.D.Y..X@XoX.XJ.H..X#X].'.H.B.].-X#XoXR.oXoX@X.XoXE.R.R.H.D.B.F.B.D.D.g.A.H.A.R.E.^..XR.R.R.J.D.D.B.A.D.Y.R.D.F.F.D.J.E.E.Y.H.F.Y.F.D.A.D.D.D.'.J.H.J.u.D.J.D.R.R.D.A.A.D.R.Y.oXR.U.@X&X2X@X&XoX[.R.D.R.R.].R.].R..XoXR..XoX@XOXoXOX*X#X@X@XoXJ.A.J.J.E.E.OXY.E.oX@XoXoX@X].J.^..XOX*X@X@X-X;Xr.f.-X*X@X=X@X;X#XJ.R..XeX*X .k.*X .A.D.Y.yX .l ",
"N k. .F.8X#XD.D.5.q.g.D.J.].].A.R.Y.oXoXOXJ.Y.oXH.H.].@XR.J.].N.T.'.[.[.R.J.].J.].D.B.D.T.D.6.s.r.k.F.A.~.F.A.F.R.D.A.J.D.J.J.g.H.H.H.T.'.R.J.A.u.N.D.D.R.A.D.Y.H.H.'.[.R.R.OXE.oXoXoXoX].oXD.D.@XR.].].@X].@XoX@X].R.&X'.[.'.'..X#X-X=X=X=X@X+XE.oX#XoXoX@X&X@XoXR.#XOXR.^.A.R.oXOX#XoXoXoX.XR.oX.XE.*XOXD.oX-X[.H.].R.E.oX#X~.E.E..XD.]..X#X#X;XoX[.7X8XoXoX-X#X7X-X.XR.R.].].B.g.R.oXE.oX^.Y.@X&XOXoXE.E.Y.g.Y.E.E..XJ.]..X@XoX^.#X.XJ.^.^.J.Y.>XF.R.#XoXq.yX].].-X&XoXoX2XT.O.lX8XqX8XyXqXqXyX2X8X#X-Xk. .*XF.F.D....Xd.L k ;.k.&.A.OXwX@XqX7X>X9X-X-XoXoXoXR.R.R..X#X.XJ.].{.].{.'.'.[.'.'..X.XR.R..XoXoXoXR.].].@X@XoX#X.XoXR.J.J..XoX.XR.R.oXR..XR.E.].oX*XoX#X@XoXR.].J.Y.^..XOXOX^.E.R.]..X+X].].].].@Xo..X#X].#X-XoX-X@X.X@X+XN.N.'.@XoXoX].H.].'.].R.E.E.E.J.R.R.D.D.A.g.D.R.D.D.J.H.J.Y.J.J.R.R.J.H.H.D.g.A.D.H.Y.D.F.D.D.J.E.E.Y.D.F.Y.Y.J.D.F.J.J.R.J.J.D.k.R.D.R.Y.D.A.D.D.H.].oX[.E.[.OXoX@X].@X@X@XR.Y.J.].'.+XoX.X.X.X].R..X].#X@X#X-X@X@X#X#XR.H..X.XR.R.oXR..XoX*X@X@X#X].J.^.^.oXoX].oX@X&Xe.A.9X7X&XyX3X8XyXyXwX].*XOXW h.OXF.E.&.y.8Xf.] ",
"..r.f.E..Xf.J.A.*.A.D.R.oXN.t.H.oXD..XOXY.E.oXoXJ.#X].].].g.e.t.@X].T.H.T.].@X'.J.B.H.D.H.D.g.*.u.J.D.A.J.S.F.F.J.J.k.F.u.D.R.].H.H.H.R.]..XR.F.B.H.J.A.J.D.D.Y.N.T.].T.oX@XY.^.oXR.H.].].R.B.D.].D.].J.@X].@X].oXR.J.].'.@X+XH.].+X#X=X#X@X@X[.E.E.oXoXoX@X+X+XXX.X.XoXoXoX.X^.oXoXoXoX.X.XoXoXR.R.R.OX#XY.oX*X*X.X-XoX#XoX#X.XoX.XOX#X2X#X@XoX9XoXB.&XqX-X-X-XR.~.-XJ..X*XD.Y.D.D.@XA.g.OXE.OXR.].oX@XOXoXE.Y.Y.Y.Y.J.D.R.]..X^.oXoXoXR..XOX.XE.OX.X*XOX*Xf.9XoXoX@X#X-X@X3X-X~.OX8XeXwXwX-X-XfXfX2X].-XJ.oX-XOXF.&.D.OXr.j A.r.k.O.R.#XR.A.yXOXOX:X#X-X@XoXR.Y.g.D.].R.oX@XH.|.|.].'.'.}.].].R..XoX.X.X^.oXoXoX.X]..X@X@X@X'.D.Y.R.R..X.X].oXR.oXR.R.].R.].oXoX.X-X@XR.H.].oXD.~..X.XR.J.E.^.].].@X+X.X].'.@X.XJ.J.J.R.oX@XoX.X.X@X#X].R.oX#X'.H.'.'..XB.H.J.Y.E.oXR.R.'.D.H.k.d.g.D.D.D.H.A.H.J.J.R.R.].J.D.Y.Y.D.Y.Y.A.D.D.Y.Y.Y.E.oXY.A.g.D.F.J.J.J.F.J.Y.E.D.D.A.Y.OXF..XY.Y.Y.Y.].T.oX@XoX@X@XoX[.-XoX].R.@X[.].D.R.'.@X.X.X.X.X.X]..XJ.-X@X@X#X@X@X#X#X.X].R.oXR.@XoXoXOXOX*X.XoX-X@X+XOXoX#X@XoX@X=X-XoXOXOX7X*X9X7X-X2X3XgX@X[.&XD.;X*X*X;.e.@X-X]  .",
"n k.U g.E.E.e.r.A.e.g.R.J.H.].@XOXY.E.E.D.R.R.E.A..XJ.H.].D.g.J.+X'.H.H.].].].N.A.].].B.D.Y.R.g.F.k.A.S.D.A.J.S.F.J.J..XA.N.A.H.'.].[.].Y.D.D.D.R.J.].R.J.D.J.D.T.T.T.f.D.oXD.oXR.D.g.R..XR.J.oX].J..X]..XR.J.B.D.Y.].R.J.J.]..X@X@X-X2X#X[.'.'.-XoX.XoXoXR.H.'..XOX.XoX#XOX#XOX.XoXoX.X.X.XoX@X.XoXR..XoX*X&XoXOXoX-XoX@XoXoX.X.X.X#X-X-XoXoX+X-X*X@X@X@X@X&X-Xe..X@XoXoXD..XoXR.R.@XY.E.OXD.E.R.B.g.D.Y.D.D.^.E.Y.R.Y.R.].oX.XoX^.R..XoXoXoXoX*X-XoXOXOXOXA.OXoX7X-X.X@X].@X=XOX.X8XgX-X@X].wX6X5XhX#XB.].H.2Xz.e.A.#X.XO.N r.;.k.k.k.y.r.D.*XOX.X-X-X8X#XR.D.D.D.J.R.R.@X#X.X'.'.{.].'.].].+XR..X@X.XoX.XoX.XoX.XoXoX].].oX@XJ.R.R.R..X].R.oXR.oXR.].oXR..X@XoX^.R.R.J.@XoX@XF.R.~.oX.XR.R.R.'.'..X.X.X].).@XJ..XR.H..X#XoX].@X].]..X.XoX@X#X+X'.].[.].H.@X#XoXoXY.B.B.T.T.'.D.k.u.u.A.A.A.D.H.R..X.X].].].J.A.g.g.D.D.A.D.E.Y.R.E.E.oXY.g.g.F.D.D.Y.J.D.D.Y.oXD.Y.Y.oXoX.XoXE.^.^.E.].H.+X+X@X@XoXoX[.2X@X.XoX'.D.D.].@X].'.+X@X@X.X.XS.]..X#XoX@X#X@X@X#X@X.X.XJ.oX].-X@X@XOXoXOXR.'.=X+X@XoXoX-X-XoXoX@X=XOXA.*X7X-X8XoX7X5XqX5XgXH.A.U.oXoXr.*.*XY.]. .o.",
"}  .g. .y.*XE.y.d.f.u.g.H.].]..X.X.XoXg.oXD.g.D.J.J..XH.N.y.y.].'.[.@X[.].H.J.V.D.oXT.B.B.B.T.T.B.R.[.H.R.R.R.H.S.F.F.J.S.u.A.J.].].'.R.J.D.D.D.J.u.H..XR.A.Y.F.D.f.'.H.D.@XY.D.R.XXD.J.R.~.R.D.J.J.R.].].].].'.E.E.R.J.@XJ.J.@X.X.X@X2X,X+XoX+XOXoX.XE.oX#X=X#X`..XOXXXOXOX.XOX^.OX*X#X@X@XoX.XoXoXY..XD.oXE.@XoXOX*XoXoX=X@X-XOX#X-X@X@X+X+X].;X@X;X;X=X;XoX@X].R.oXJ.OXOXR.oX@X'.B.Y.*XoXE.oXR.R.].E.[.E.Y.^.D.D.oXR.J.J.oXoXOX.XoXOXoXR.J.oXOX-XY.D.OXOXoXOX-X.XoX@X#X@X3X=XoX.X9X3X3XoXtXqX6X6XgXqX#X8XR.u.&.*XyXR.u.r.N ..;.F.oXk.u.e.D.*X#XoX-X-X-X].D.H.D.oXR.H.@X].H.@X].].@X{.'.T.H.].#XoXoXY.oXoXOX.X.XD.R.oX@X@X].oXoXoXY.Y..X].R.].J..X].].oXR..X#X^.OX.X].g.@XJ.].7XoXF.R..X^..XoX'.J.]..X.X).).#X.XR.R..X@X2X-X.X.X+X#X#X+XR.].@X+X].'.[..X@X@XA.Y..XA.D.R.'.'.Z.k.A.d.g.J.D.B.J.D.].oX].J.J.R.R.oXD.g.D.D.g.A.Y.R.E.E.oXoXY.A.A.J.D.H.R.R.F.J..XoXJ.oXOXoXR.#XoXE.oXoXD.H.H.+X+XE.[.@X@XR.[.].#X[.R.T.D.oX@X@X}.2X-X@X.X.Xe.A.XX@XoX#X2X#X#X#X#X.X.X.X.XoXoX[.].&XOX;X].[.6X#X#X.X#X2X2X@X@X@X@XoXOX7X7X-XoX8X9XqXqXqXgX@X*XOXF.r.D.yX-X] [.y.o.",
"o. .A.9XD.g.-XA.R.g.u.g.D.[.E.T.U.U.OXR.E.J.D.D.R.].R.oXR.D.B.].oXoXR.oXY.D.Y.g.H.H.H.oXH.;.r.A.H.D.D.D.D.A.k.D.Y.z.r.F.g.g.J.R.'.).J.].J.].J.A.z.E.R.D.T.'.R.'.E.D.d.R.].R.T.T.oXJ.H.T.[.[.C.T.+XH.].[.@X@X'.].T.oXR.R..XR..X@X@X2X2X8X-X[.+X@X].].+XR.H.D.XXXXoX-XOXoX.XE.OXOXoXoXoXR.E.R.oXoXoX*XoX.XoX].@X.XoXoXOX*XR.oXOXoXOXoX>X-XJ.J.#X<X;XR.[.-X=XqX-X[.#X.X#X@XoXoX@X&X@X@X#XoXoX&X].H.g.A.E.E.D.oX*XY.oX^.J.F.R.E.R.Y.OXXXOX#X#XF.J.XX.X.X].R.~.OX#XOX.XR..X.X#X.X:XXX.XOX].qX3X&X8Xf.g.3X8X[.H.T.hXN.@XoXN.N.o.N.d =.e.D.F.k.k.k.l.L x.*X:X:X-XOX@XE.'.T.oXY.E..XB.'.D.R.oXOXE.R.A.oXE.^.oXD.H.oX.X.X.XJ..X#XoXR.R..XoXU.R.[.].@X#X]..X.XoXoX].oX@X[.OX#X#XoX].|.[.'.9XoXF.Y.R.Y.E.oX|.].'.].H.H.[.+XoXoXoX.XXX2X8X.XG.<X+X1X=X@X{.).OXoX.X#X.XJ.oX@XoXE.E.R.R.J.H.F.R.T.T.T.H.H.F.A.J.R.R.J.J.~.J.F.R.H.D.H.A.A.D.D.R.oX].oXoXD.D.B.F.k.F.^.R.A.D.oXR.D.D.OXoXR.#XoX2XoXJ.D.D.R.oX*XoXOX&XoXq.&XOXR.'.[.].R.R..XOX.XoX+X.X].].J.J.@X#X}.#X].+X2X3XT.+X#X[.=X@X@XE.[.oXoX-X[.@XoX#X@X-XR.7X*XoXoXE.oXR.OXE.OX-X3X=XT.F.oX9X@XE.R.tXoX;X=Xg.B.H T.%.F ",
"j } F.-XD.*XE.g.r.e.d.e.D.B.R.&Xe.f.E.^.Y.Y.Y.T.R.oX].].R.oX.XoXE. .Q OXoXoXE.A.D.].D.B.D.A.A.A.u.D.J.J.q.g.A.g.D.g.g.A.A.y.R..X.X).]..X].D.J.oX^.R.A.A.H.H.H.'.J.A.A.oXR.D.B.[.J.R.R.H.R.[.H.T.].H..X&X&X@X'.'.H.H.H.R.H.D.R.XX#X#X#X8X-X'.].,X}.].#X#X.XD.F.J.oX^.R.#X*XoX.XR.Y.R.^..XoXR.R.J.*XoXoXoXoX].@X@XoX.XR.R.A.E.^.E.A.*XoX.XJ.OXXX7X2X[.-X;X&X@X@X=XOX.X.X.XoX;X-X@XR..X@X.X].@XoX.XJ.R.^.R.R.R.E.oXR.oXoXR.J.R.E.oXOXOXOX.X.X:XOX.X#XR..XoX7XOXOX.X.X7XR.~.:X#X.X:X.X#XoX].=X3Xf.L R.-XtX[.qX3X=XhXH.e.2X-XN.%.n n J.F.r.k.k.XXF.r.~.:X>X>XOXY.T.T.'.R.[.Y.R.Y.B.H.R.J.^.OXR.E.oXY.E.E.E.Y.H.R.].+X@X.X.X].].oX.XY.oXU.T.R.].[.+X].oXoXoXoX].oX[.[.E.J.R.#X;X[.'.].OXY.D.Y.Y.Y.E.^.'.].'.{.@X'.+X2XoX@X#X.XJ.H.@X@X<X#X#X@X@X].'..XY.J.OX#XoXoXR.XXE.R.R.R.R.J.J.).T.D.T.Y.D.D.D.k.R.J.J.J.J.F.D.F.J.A.g.A.D.A.B.A.R.oX]..XoXY.J.D.l.A.D.F.D.A.A.D.J.Y.D.E.oXoX^.F.+XoX].J.J.^.oXoXoXOX[.=X[.&X=XU.].].H.D.D.H.~.R.oXoX.X.X].J.J..X@X-X2X].H.].1X+X#X2X#X=X@X@X@X&X#XoX@XoX&X@X2X8X-X.X7X7X*XOXoX.XOXE.oXR.&X3X3XW O.*XuXtX;X-X8XuX-XB.B.3XT.e.-.%.",
"l &.A.-XE.*XE.u.%.e.k.D.E.D.B.E.E.E.R.].OX.Xf.g.D..XoX.XA.H.R.R.OXoXf.g.oXE.A.q.D..XR.D.J.H.A.E.A.H.D.g.u.D.Y.A.A.g.D.J.F.u.A.A.J..X@XJ.J.J.E.J.g.g.k.D.].'.T.'.k.Y.*XE.].oXD.f.].J.D.D.R.'.H.H.H.D.R.[.'.'.R.'.-XR.].@XoXoXoX.X.X#X@X@XoX].@X+X@XoX].oX]..XOX#XoXE.R.OXOXE.oXOXR.R.R..X^..XR.R.oXoX2XoXR.R.oX.X.X.X^.oXoX*X*XOXA.oXE.-XoXwX.XS.8X&X@X2X].D.3X].R.oX-XoXoX-X@X@X]..XoXR.R.].R.R.J.oX^.^.oXJ.D..X/.OX^.F.R.oXoXE.~.oX*X7X^.^.oX-X@X.X.XoX-X#X#XOX' .X#XJ.8X:XOXOXR.#X#X-X8X3Xe.U u.D.=XqXtX8XqXD.g.2X-X-Xf.K Q K ;.F.k.u.F.N F.k.R.F.^.OXOXOX[.oX'.].E.E.oXR.H.H.D.R.OXOXF.A.OXR.E.Y.D.E.R.J.R.].oX+XoX].R.oX@XoXOXY.Y.E.].].oX@XoXoX.XoXR.].].].#XOXJ.D.R.oX[..XoXE.E.oXE.E..XE.].].'.|.2X'.'.2X#XoX].].@X@X#XJ.@X[.2X].H.D.H.].E.E.OX.X.XoXR.oXR.R.R.R.J.J.J..XR.Y.Y.Y.D.A.A.g.D.D.J.R.R.J.D.D.R.D.g.A.D.A.g.D.].oX]..XoXR.Y.D.S.F.F.D.D.D.D.A.D..XR.A.E.OXR.J.].+X.XJ.R.oXOXE.@X[.R.oX*X&X>XE.].oXH.R.oX.XOX.X+X]..XoXR.J.].].=X@XoX=X'.'.H.{.}.@X#XoX@XoXoXOXoX].[.].oX.X@X-X@XE.oX7X*XOXE.R.[.T.[.;X>X;XU.] e.g.oXyX;X7X*XtXN.-X&X&XR.f.&. .",
"j z O.-X-X].&XoX&.&.g.g.R.g.D.oXR.D.T.@XT.R.U.Y.oXR.R.oXJ.J.H.D.E.oXoXR.Y.D.oXA.S.D.R.H.H.H.A.].D.H.g.q.OX.XY.E.A.g.g.J.J.H.A.g.H.H.J.R..XD.A.g.D.Y.Y.D.D.D.H.H.oXD.].5.B.D.H.B.R.J.B.g.A.H.H.H.].R.[.@X[.'.].oX+XH.R.].].oXJ.J.].#X@X.X].oX@X].+X#XoXoXR.oXR.k.oXoX.XR.R.E.OX*XoXoXE..XR..X.XoXA.Y.2XoX].R..XoXoX@XOX*X*X*XoXE.R.oXR.#XD..X.X-X#XoXoXD.[.-XR.*X#XoX].J.oX#X].R.@XoXXXR.R.].H.D.D..X^..XoXJ.D.~.E.OXoXR.J.J.^.oXOX#X.X.XD.R.-X.XD.].J.R.A..X^.oXe..X8X].#XOXeXOX8X].#XoXg.u.g.k.A.g.8X8XT.3XqXI O.8Xg.-XD.n n H r..Xd.e.u.F././.Y.g.R.XXOX*XoXoX'.'.T.R.oXR..XR.D.oXoXR..XR.^.J.Y.Y.F.oX.XD.].].oX.XoXoX.X.X@X#X*XoXE..X.XoX@X@X].oX[.oXH.R.Y.Y.A.OXOXJ.oX&XH.q.oXoX@XoXE.E.E.R.].].|.'.2X'.'..XJ.@X@XoX@X7X2X].@X].#X~.S.D.R.oXoX#XY.J.].R.oXoXR.R.J.J.J.J.J.R.[.R.R.Y.D.D.F.D.D.R.].R.R..XR.D.J.R.H.D.H.D.A.R.[.oX[.]..XR.D.A.F.R.R.F.D.Y.Y.D.D.E.oXD.J.OXE.E.R.].].J.J.oXOXE.E.E.-XOX*XOXY.A.J.oXH.R.@X.X-XoX+X]..XE.D.H.]..X@XoXoX3X6X].H.|.}.+X2XoX@XoX[.[.oX&X-XoXoX@X#XOX-XoXE.>X*XOXoX].OXE.A.*XE.q.y.y.g.F.OXuX[.[.yXE.f 2X8Xg.D.=. .L ",
"K H E.hX&XD.f.&Xq.q.D.oXD.D.D.R.R.[.T.T.R.T.g.R..XA.g.J.J.R.H.H.Y.E.Y.OXD.A.A.g..XJ.].R.H.].D.g.A.A.g.q.oXH.D.oX[.U.f.g.B.J.D.J.D.H.D.R.R.Y.g.f.g.A.D.D.D.H.].].R.R.R. .%.T.].H.A.R.H.g.u.D.R.].oX@X-X2X@X].].'.T.'.+XR.].oX].*X@X@X@XoXoX.X].oX-XoXH.R..X#XA. .oX.XE.E.oX#XoXE..XoX.XoX.XoX.X.XJ.J.OXOX-XR.A.#X#X#X#XoXoXoXoXoX2X;XJ.].*X@XJ.oX2X;XoX-X@X-X[.&XOX*X*X].R.Y.R.*XOXoXoXoXoX@XR.J.E.^..X.XR.R.~..X^.oXoXR.J.D.R.OXR.oXJ.#XOXD.OXy.D.OXoX#XR.oX.XoX;X@XoX2XoXoX:X#X[.&.wX.Xy. .O.r.A.-X-X2X2X3XqXD.#X].A.OXJ.n n } ;.e.g.d.#Xk.D.OXF.F.OX*XoXoX.X[.R.].].oXOXY.oXE.J.^.#XR.@X@X.XR.F..X^.oXR.D.].oXoX].oX@X@X@XoX.XoXoXE.R.].oXoX.X'.oX[.].R.oXR.g.J.XX.XJ.oXoXD.A.].].].R.H.H.R.J.'.H.}.+X2X#X@X'.H.-XoXoXH.@X#X#X2XR.A..X.X~..XoXR..XD.R.oXoX@X.XR.J.D.H.J.J.J.J.E.R.Y.Y.D.Y.E.E.E..XE.D.D.J.R.R.D.R.J.A.D.D.D.].].[.[.].E.R.D.A.F.F.F.F.J.D.T.T.A.D.OXoXY.oXE.J.R.R.J.H.J..XoX[.oXoXOXoXOX*XoX*XE.oXJ.g.D.D.oXR.].R..XR.A.D.]..X].oX#X@X#X#X#X@X@X@X2XoX@X[.'.'.].-X-X@XoX*X-X*X-XOXY.*X*XoXoX.XoXO.*XoXJ.&.;...J.R.8X-X8X8X7X-Xe.oXD.;XoX~ j } ",
"L ;.E.8X=X6Xf.T.oXg.D.H.u.A.]..X'.B.H.[.R.[.R.D.F.F.J..XR..XJ.H.D.oXD.A.R.J.Y.D.oXD.R.oXT.H.H.B.J.J.g.y.e.g.B.H.H.D.D.u.D.S.D.J.A..XD.A.A.E.A.g.J.g.g.Y.J.D.D.D.].H.N.T.D.R.f.B.J.H.A.J.R.D.R.@X.XoXoX@X[.R.].R.H.[.'.H.R.].E.#X@X+X@XoXoX#XoXoXoXoXOXOXJ.D.Y.oXoXE.oXOX*XOXE.R..XoXoXoX.XoXoXoXoX.XR.R.-X.XD.E.oXOX@X.X#X@X-X7X&X&XoXR.oX@X#X-XoX@X-X@X&X&X} *XoXE.oXOX*X#X.XoXOXoX#X@XoX].H.J.oXoXoXoX~..XOX~.oX.XR.R.].R.R.oXoXoXD.OXE.*.oXoXE.E.oX.XoX.XoX.X].[.oX-X7X#X#X#X#Xg.8Xu.D. .e.r.A.A.A.7X#X2XwX].e.A.oXOXY.E  .U q.].g.w.J.F.^.F.F.E.#X#XOX#XOXoX=XoXR.f.e.*.E.OXR.F.#X#X.XOXOX.XoXoXR.R.E.E.oXoXR.].@X@XoX-X#X.XY.oXE.Y.R.oX.X].@XoX[.R.oX@X^.f.D.~.^..XoXE.J.J.].].].R.H.H.J.H.'.H.].}.+X2X#X].@X#XJ.+X].@XoX#X@X.Xg.R.R..XoX.X.XR..XoX-X7X.X.X'.H.H.H.H.T.H.H.E.R.R.E.Y.Y.R.J.D.D.D.R.H.B.H.'..X.XJ.D.J.J.J.R.T.R.[.R.E.E.F.F.D.A.D.F.D.D.D.T.^.Y.^.oXR.[.[.H.'.R.J.R.].].[.oXg.D.g.-X-XOX.XoXoX.XE.A.A.A.R.A.R.].oX.XY.R..X.XoX.X.X'.@X#X2X+X+X.X#X[.[.[.R.@X@X@XoXoX].OXOXOXoXoXR.OXOXoXoX.X:Xe.:XF.d.;...d.R.o.H.R.8X8X8XwXu.R.'.2XD.f. .~ ",
"N oXgXtX|.3X=X@XT.&.D.e..XA.OXH.C.H.'.T.'.H.B.D.F.J.S.J.R.].A.u.*XA.Y.Y.Y.g.#XD.k.y.g.].R.B.H.].J.Y.g.f.e.B.B.B.e.y.D.g.J.J.F.~.J.J.A.D.D.A.f.A.J.y.y.A.D.D.J.R.'.H.g.B.B.R.f.e..XA.e.R.#XJ.J.R.].R.J.R.R.J..X].].].H.H.]..XoXE.].+X#XoXoX-XOXoX*X[.@X@XOX.XoXoX.XE.OXoXoXOXE.E.oXoXoX.X.X.XoX#XR.R.Y.F.oXOX*XE.oXOX@X.X@X.XoX@X;XoX-X-X@XoXR.O.].+X@X8X*XOXB.&XB.D.OX#XoXoXR.Y.OX.XOXoX[.R.H.F.oXoXoXoX.X.X~.J.R.oXoX.XR.J.R.oXR.oXR.E.Y.D.@XR.*X.X.XY.@XoX#XoXR.&X3X].2XoX2X-X8X-XOXu.R.q.J.d.~ A.g u.8X#XlX2Xg.7X-XE.F.~ } c %.J.R.D.~..XF.~..XOXoXoXOXoXoX.X[.].&XoXE.A.E.R..XA.F.OXoX#X@XJ.oXY.F.Y..XOX].E.T.'.@X@X.XoX@XoXY.^.E.Y..X.X]..X@X'.].R.oXE.E.A.D.R..X~.Y.D.D.F.[.].}.+X'.].].J.].].'.].'.#X].].@X#X.X@X#X.X.X#X.X@X.X].].@X#X#X>XoX#X-X-X7XoXoXT.H.H.T.T.T.T.T..XR.R.R.Y.Y.Y.D.A.A.D.].R.N.B.'.oX.XJ.J.J.D.H.R.T.R.oXR.R.E.J.R.J.D.D.F.F.H.D.H.oX^.Y.Y.R.'.oXoX+X].R.R.].].[.[.OXOXY.-X*XOXoXoX^.g.E.J.Y.D.R.A.R.[.oXoXoXOXoXoXOXY.R.oX@X#X@X|.oX+X2X=X+X}.'.1X2X-X.X.XE.OXoX[.oXOXOXOX*XoXOX#XXX#XA.OXJ.;.r.k.&.H.q.K wXR.qXwXD.D.yX-XoXq... .",
"K e.qX[.Z.qX}.N.g.f.g.J.D..XF.F.+XT.T.C.T.R.T.B.D.J.F.J.D.D.D..XA.g.g.D.Y.Y.oXA.D.E.D.R.].H.H.u.&.A.A.A.R.T.N.H.H.T.D.g.u.J.S..XF.~.J.g.Y.D.g.e.D.A.D.Y.D.A.B.u.N.N.N.f.B.B.Y.J.D.H.g.g.J.R.J.u.D.H.D.J.H.A.H.A.T.H.H.].].Y.oXY.<X].@X@XOXoXR..XT.[.;X@XY.A.E.oXE..XoXY.E.-XoXD.oX.XoXR.oX.XoX.XoX].oXoXE.E.>XE.oXoXoXR.@X.X+X@XE.OX*XoX@X#XoXR.@X+X@XoX@X*XD.D.oXE.OXoXoX*XOXE.^.J.~..X+XoX].).#XoXE.R.~.J.J.J.].oX.X].oX.X].J.oXR.F.oXoXoXU.oXOXOXE.D.J.oXoXR.[.&X&X-X-X#X-X#X@X.XoXoX@X;X#XOXA.k.U A.-X8X#X.X*Xf.f.y.^.~ U ~ q.#XF.R.OXD..XR.Y.OX^..X.XR.oX#XD.g.R.Y.oXE.OX^.J.R.A.oX#X.XR..XY.D.^.oXE.E.Y.oXOXR.R.@XoX].].].R..XR.R..XR.R..X].H.].H.R.A.E.E.oXoXOXOXE.T.E.oX].].}.#X@X+X.X].'.].H.].oX#XB.J.@X#X@X'.#XR..X.XXXR.oX].=X#XoX2X-X#XoX7X2X@X-X.XR.'.'.'.'.T.T.'.R.F.D.J.J.R.oXE.R.R.E.R.D.B.H.].R.D.D.J.D.g.D..XR.[.@XR.Y.E.F.R.R.Y.F.F.J.J.H.B.D.^.F.F.R.T.oX=X@XoXR.H.H.R.'.[.OXoX*X*XoX*XE.oXoXr.R.R.E.E..XR.R.[.E.R.oXOXoXoXR.^.oX#X].=X2X}..XoX2X2X].T.N.[.@X-X].J.Y.*XoXD.].oXOXE.oXE.OX-X#XF.E.OXoX*X*X&X8Xq.J.n wX7XyXoX-XR.e.e.q.oXE  .",
"w.&.7X3Xf.D.R.s.A.e.*.Y.R.oXoXoXE.Y.[.A.R.-XD.g.N.D.J.H.].J.R.A.A.r.A.g.y.R..Xu.'.].H.u.R.J.k.r.D..XJ.d.E.J.q.D..XD.k.A.r.g.R.T.D.H.B.B.D.D.A.A.A.q.g.g.R.A.H.A.A.A.D.A.B.g.g.D.D.D.g.J.J.D.B.D.R.R.B.R.H.D.D.e.B.N.T.T.'.@X[.@XOXoXOXOX@X-X@X].OX@XoXoXoX.X~.!.R.R.oXoXT.'.[.T.T.@X&X@XoXoXoXOX#XR..XOXoXoXoX@XOXoXoX-XoXE..XOX&X&X&X[.&X].R.@X@X&X&X@X@XOXoXE.OX.XOX-X#XoX.X@XoXoXOXF..XoXR.].L A.g.oX.X.XJ.J.E.F.8XO.u.XX.XXX.X.XH.J.@XoXJ..X[.oX].H.].OX.X.X.XOX;X=X;X@X@X].&XOX-X[.-X].].oX&. .8XoX.X-X*X@X&XR.f.D.A.q.U &.&.*XOXY.F.J.OXOXF.Y.!.R.Y.E.E.R.&.q.D.g.A..XOX.X.XE.oXoXoX].oX].H.J..XJ.E.R.oX.X[.T.T.oX&XOXoXE.E.oXR.Y.].R.J.].oX*XoXR.H.Y.J.^.oXoXR..X].]..X+X'.].].@X].+X].'.Y.R.H.H.].].].].'.=X@X[.@X@X@X@X[.[.'.-X@X@X@X.X@X@X@X@XqX-X@X#X'.].J.H.R.oXOXY.E.^.^.Y.U.R.T.D.E..XD.F.R.A.A.Y.R.B.B.B.f.A.Y.Y.@X+X[.[.[.R.J.R.Y.J.J.D.D.D.J.F.J.E.g.R..XD..XD.+XH.H.H.N.T.OXR.@X[.oX#X@XoX.X.X+X].oX].R.oX^.R.H.R.OXJ.H.@X#XOX.X2X#X.X.X@X#X.X=X].H.J..X@X#X#X].].'.}.oX#X-XD.H.].@X2X=X=X].+X@XoX#X].2XR.R.oXk.w.oX2X#XqXqX#X=X[.f.e.A.A.D.Q ",
";.q.T.@X&XB.=Xe.u.e.d.A.J.D.oXE.E.Y.@XE.f.D.#XA.H.J.D.D.R.J.H.f.A.A.^.R.D.].J.&.C.'.R.B.D.d.k.k.D.F.F.f.d.k.d.D.J.oXg.q.^.A.g.g.&.B.H.D.B.R.A.u.B.y.B.H.].H.H.N.A.A.D.B.g.f.f.H.*.D.g.D.D.R.@XR.].H.g.R.J.D.H.D.R.T.T.B.B.[.@X@XE.oXOXoXoX[.T.].*XOX^.E.^..X.X.XoX.XoX.XH.R.[.'.R.R.].oX@XoXoXOXoX].oX^.R.oXoXY.^.OXoXoXE.OX-X*X&X&X[.[.&X@X].oX@X@X@X@X&X&XOXoXOXOXOX.X.XoXoX@XF.F..Xg.R.J.].T.A.E.g.R.oXoXR.R.^.E.oX.XOXJ..X.X@X-XoX.XoX.XR.R.R.R.].J.].OXoXoXJ.#X8X-X@X].@X.XoX*XoX#X-X].B.#X .oX7XoXH.8XOX[.B.Y.g.;XE.A.r y T.oX*X>XoXF.R.oXOXF.x.^..XY.Y.].D.D.Y.g.D.].OXXX^.oXOXOXOXR.B.B.D.J.].J..X.XoX.X@XoX].[.oXoXE.E.F.R.Y.Y.].].J.R.E.E.oX].e.u.D.Y.].oX].@XR.H.J..X].J.H.+X#X@XJ.J.R.].R.H.J.J.J.].'.].[.=X@X].[.[.R.oXR.@X;X2X+X[.2X=X@X@X@X-X#X].T.oX&X[.R.R.[.D.E.E.Y.Y.Y.Y.D.A.J.A.g.A.J.D.g.A.H.H.T.R.D.D.Y.F.].].].[.oX].R.R.T.J.Y.Y.D.D.H.D.A.J.J.R.R.D.].oX@X'.'.'.H.R.OX^.'.@X&XoXoX#XoXJ.].J.H.A.A.R.R.E.J..X.X.X].].oXoX].-X@XoX#XoXR.g.@X}.+X@X@X+X+X+X1X].'.@X#XoX-X#X'..X+X@X#X].+X.XJ.#XR.#X.X-XH.oXk...8XfX-X@XyX#X[.D.2X6.yXuXQ t ",
"@.} D.3XOXY.f.6.g.A.u.E.A.oXoX^.E.D.D.E.*.g.oXg.F.A.A.].R.R.oX@XA.D.[.R.H..XR.u.H.].'.R.R.d.r.e.A.R.F.f.g.A.f.D.k.f.J.D.D.f.g.] t D.B.H.g.u.D.R.N.f.B.H.T.H.H.B.A.A.D.D.D.A.y.f.u.H.g.].@X].].N.A.J.J.J.J.R.R.J.T.T.R.D.T.@X[.'.Y.oXOXoX#X[.H.+XoXE.E.E.E.^.R.R.].R..XoXR.].@X@XR.R.oX@XoXE.oXOXT.Y.oXR.Y.#X*X.X^.OXoX.XJ..XOXoX&X-X@X&X&X;XoX#X@X@XoX@XOXoXoXoXR.oX*XoXoX#X.XJ.!.~.OXR.R.R.J.g.oXoXA.g.J..XJ.D.D.oXJ.7X-X.XXXJ.].oX.XJ.D.R.R.^.J.J.].J.J.^.^.^.F.oXoX]..X.X#X.XoX@X[.N.'.1X3XH.=.oXyX7XoX;X&X&X[.B.A.[.A.e.q.&.g.R.E.D.oXOXJ.J.XXR.F.R.E.oXE.D.J.Y.R.D.R..XXXXXY.oX.XE.oXR.H.R.J.J.R.J.R.^.oXoX].[.oX].]..XE.Y.J.Y.D.H.R.'.H.H.OXoXoXR.e.y.D.E.@XoXH.'.R.T.T.R.R.oX].].H.H.H.+XR.].R.H.D.D.H.].].R.'.@X'.H.].'.R.-X=X&X2X2X].=X=X#X-X-XH.@X2X.XT.[.@X[.[.T.@XW.oXE.Y.E.oXE.T.D.R.A.D.D.D.D.f.g.H.H.A.H.D.D.E.D.H.].].[.@XoXJ.D.T.D.Y.Y.U.U.J.J.u.g.R.Y.D.R.R.-X=X[.'.R.R.].oXoX#XoX@X-X@XoXoXoX].J.].R.R.R.F.A.J.R.F..X].J.oXR.].oX].oX-X#XoXH.'.{.,X1X@X}.}.}.2X'.R.oXoXR.R.#X'.#XH.2X@X+X+XoX.XD.oXH.D.B.=X@X&.g.8X3XoX#X7XwX&XR.U.T.D. .D.B.",
"w.D.D.&.q.F.*XD.D.d.u.F.E.E.Y.r.OXoXA.oXA.OXJ.J..XF.D.R.D.H.oX=XR.R.].H.A.D.A.g.H.H.y.g.g.r.A.k.F.k.A.D.g.A.D.d.y.y.y.f.f.D.Y.A.T.H.D.D.g.D.J.g.B.D.H.H.g.B.B.D.D.D.A.A.D.D.g.f.F.k.q.J.@XH.J.J.g.J..XR.R.R.D.J.H.D.D.R.[.].R.Y.Y.H.R.R.oX@X'.].Y.R.E..X.X].].E.oXoXoXoXR..XoXR.R..X#X@X.XoXoXR.[.Y.oXoXR..X.X.X#XOX.X*XoXE.[.@XoX*X@X@X[.@XoXOX&X@X-X-XOX^.oX#XoXoXOX].R.oX].].~.^.^.OXR.#X].J.oXoX.Xg.H.oXoX].A.^.R..X.X#XXXJ.~.Y.F.D.D.^.oXoXoX].oX.XJ.^.oXoXOX#X-X].oXoX@X.X-X'.[.'.#X[.qXqXqXoX].g.].8XT.e.f.g.A.T.OX&.D.R.e.g..XR.g.~..X;.k.OX9XOXD.R.oXY.g.D.J.Y.oX.X]..XR.].].R.].R.R.oXJ.R.R.F.F.R.oXoX'.[.@X@XoXoX[.[.R.Y.J.H.J.J.J.R.oX#XR.H.R.F.k.D.B.H.B.].[.[.D.e.].oXH.y.A.]..X@X].].H.H.D.D.H.H.'.].'.T.D.H.@X[.].oX-XoX@XoXH.oX].oX-X#XH.].&X].&XT.D.oX[.T.R.[.oX.X.XoXoX[.R.T.D.A.D.F.J.R.Y.Y.A.H.g.D.D.A.E.D.H.].oX[.@X@XR.D.Y.D.F.Y.T.T.R.J.g.g.J.F.J.].].-X#XoXJ.H.R.R.Y..XR.oX-X@XoXOXoXY.oX].oX.XR.R.D.D.J..X~..XR.E.oXY.@X@X.X.XOXoX.X~.H.'.].+X+XoXoX@X[.].oXoX#X-X@X7X].@XA..XJ.].J.J.oX7XD.H.H.@XT.qX8X3X[.@XN.8X#X~.e.Y.f.&XB.K U.T.",
"k A.&Xg.&.D.-X-Xd.e.q.g.F.F.r.Q Y.R.g.Y.D.F.u.Y..X.XJ.].D.'.'.B.T.H.R.H.D.A.u.g.g.D.D.Y.D.u.k.F.g.D.y.e.D.A.u.J.E.R.f.q.D.J.g.D.N.R.e.u.y.} g.r.A.R.]..XN.A.A.H.g.H.J.H.D.g.f.f.r.u.k.A.H.J.'.[.J.D.H.R.].D.B.].R.D.N.D.H.D.U.E.].D.J.R.R.@X@XR..XoXoX.X]..XoX@XoX@XoXR.J..XoX]..XR.]..XoXOXoXD.oXR.[.oX].]..XXXE.J.F.OXoXE.oX*XoX#XoXE.@XoX*XoX@XoX.XoXoXE..X#X#X.XoX.X.X].R.]..XR.D..XD.oXoXOXA.g..XoX.XoXR.R.J.D.J.R.R.OX.XoX.XJ.R.^.R.^.oXE.R.H.R.J.D.Y.E.^.[.'.3X&X@X@X[.=X].].N.#XqXR.D.tX8X3X@X[.@XH.[ y.B.g.D.Y.d.r. .k r.k.J.~.A.k.OXOX!.OX>X-XoXE.E.J.g.D.D.J.R.R.J.+X[.R.@X@XR.H.R.D.D.R.R.J.F.R.^..X'.'.].oXoX].R.R.R.R.R.J.H.R..X@X^.^.A.g.R.Y.A.D.y.R.'.].H.'.T.g..X].B.e.H.@X+X'.'.'.H.H.H.H.H.H.H.'.T.H.R.'.+X=X2XoX@XoX@X;X@X@XoX@X#X@XoXoX@X'..XD.u.oXoXoXR.].R..XoX].R.R.Y.T.R.R.D.D.A.A.D.g.g.J.D.J.Y.A.R.D.N.H.R.J.E.oXR.F.J.D.D.J.T.T.H.D.D.D.D.R.R.R..XoX@XoXJ.D.R.J.H.].-XoXoXoX.XE.OX*XJ.D.J.R.J.Y.J.J.J.J..X].J.R.D.D.R..X^.oXoXR.J.J.J.R.E.E.R.R.^.^..X.XOXoX@X-X.XoX@XJ.J.A.#X@X-X#XR.Y.A.B.7XoXT.@XiX3X[.=X@X&Xu.;.oXR.y.oXD.} R.] ",
"~ } g.3Xd.^.eXR.y.d.;.g.u.E.k.&.R.Y.D.R.R.f.Y.F..XA.e.u.y.f.T.}.H.N.H.].].R.D.J.A.D.D.A.f.q.e.D.u.u.g.D.D.A.J.R.D.u.D.A.D.D.Y.k.].H.oXR.f.*.k.e.A.S.F.J.p.A.S.J.B.H.D.A.g.y.f.f.w.u.J.A.R.].(.|.J.A.A.J.oXH.H.H.D.H.D.D.D.Y.[.E.oXH.oX.XH.oX#XR.].oXoXoX].].]..XR..X.XR.R.oXoX.XoXR.R..XoXoXoX^.].R.oXoX].oXOXOXD.D.A.Y.A.Y..XoXXX#XOXoXoXR.*XOX&X[.R.]..X.X^.^.oXR.E.oX@X].H.R.@XoX.XoX.X~.oX.XJ.J.oXOXJ.oXR.R..X.XJ..X.XR..XE..X~..X.XJ.J.R.R..XR..X.XR.^.R.^.'.H.=X=X2X=X|.=XoX-XoX@XqX&X@X&X#X3X@X@X+Xf.D.T.D.g.Y.U.g.*.j A.A.9XJ.u.J.D.J.#X:X^.R.oXOX^.D.g.B.D.D.R.J.H.J..X[.T.@X-XR.R.[.H.A.J.R.E.Y.^.E.R.R.J.J.'.'.R.R.'.R.R.].].H.J..XoXR.D.D.D.J.J.R.^.H.#X[.H.f.H.'.'.B.H.H.H.'.H.H.H.].'.H.H.R.'.T.H.H.'.H.].@XR.R.@X@XH.R.R.[.oX@X@XOXOX#XoX-XoX@X@XR.D.g.].R.oX.X.XJ..X@X].J.Y.Y.Y.A.D.e.f.A.D.Y.g.A.D.g.A.R.E.E.D.g.H.J.D.Y.E.Y.J.H.A.A.J.R.T.D.g.A.Y.D.E.R.J.oXoX.XoXR.J.R.R.J.]..X-XOXg.f.oX-X^.H.A.H.R.].^.R.~.~.D.~.R.F.D.g.A.F.^..XOXoXF.F.Y.S.J.~.F.F.F.F.Y.OX^.^.E.R.J.A.g.].A.R.H.2X#X#X#X-XD.oX;X*X[.;X&X[.3XiXT.qXT.R.=XoXA.^.T.e.A.=. .",
"A.z *XOXk.OX7XA.f.r.g.k.D.D.oXD.E.Y.J.F.D.A.R.k.D.A.D.oXoXB.H.[.].J.R.R.R.R.J.H.A.D.D.F.Y.Y.q.g.e.A.D.J.J.H.R.J.B.B.R.f.g.f.A.A.A.].A.g.g.O.y.f.u.u.u.k.p.A.A.A.H.H.u.e.e.u.k.A.g.u.A.N.J.'.{.@XF.J.J.R.oX].oXH.B.T.H.R.T.D.R.R.].H.].[.J.]..X'.R.[.+X+X.XR.J.J..X.X.X.XoXoXR.R..X.X.XoXoX.XE.oX].].@XoXR..XXX~.E.@XE.Y.D.R.oXR.J..X.XoXE.D.oXoX3X&XoXoXOXoXoX.XoXE.E.R.].oX'.].N..X@X#X#X.XOX~.E.oXD.A.o.J.]..XR.OX]..XR.Y..XY..X.XoX^.J.R.E.E.].R..XR.R.Y.D.R.#X@X1X2X3X@X}.[.OX].-X@XoXB.8X=XH.@X2X@X'.H.;Xe.g.h.E.e.g.d.j Q q.J.F.S.R.#X#XD..X.XXXoXF.k.A.D.D.Y.D..XJ.J.R.R.'.T.[.@XR.R.@X@XD.R.R.^.R.oXR.Y.R.].].'.].[.oX+X].J.].R.H.H.].].D.D.Y.R.oX^.E.J.H.oXR.T.H.T.T.H.y.y.B.H.].H.'.'.'.'.H.H.R.T.H.H.R.T.H.[.oXJ.R.R..X].R..X@XR.@X*X.X.X.X.X].R.Y.Y.OX.XY.R.R.J..X].].+X@XoX].E.E.Y.J.R.A.d.A.D.z.f.D.A.y.u.F..XR.D.Y..X.XR.E.^.R.E.J.A.A.J.R.T.D.B.g.H.D.E.R.H.oX@XoXoX~.J.J.R.].].oXOX*X*XOX#X*XOX#XJ.D.H.R.^.~.^..XJ.~..XE.R.F.D.oXOXoX/.R.D.F.Y.A.F.F.F.F.F.F.F.^.Y.R..X.X]..XR.oXoXoX-X-XoX]..XoX*X@XOXoXY.W.tX&XU.6X'.@XB.&XB.e.k.E.Y. .].y.l ",
"A.Q f.A.k.k.oXR.e.q.e.oXY.D.D.Y.A.D.R.A.e.J.r.k.g.D.D.B.R.R.].H.).F.J.H.H.R.J.B.Y.F.F.A.D.Y.*.f.A.g.D.H.g.D.oXg.e.g.D.g.A.R.A.k.b.A.A.D.R.f.&.y.A.r.r.A.F.F.d.q.5.N.A.D.D.g.g.u.r.S.F.A.H.N.(.'.XX.X]..X.XH.@X[.@X].D.D.g.e.D.oX].H.].oX@XoX]..X@X@X[.[..X].].]..XR.J.^.oX.X^.OX~.oXXX.XoXoXY.D.D.D.].].T.]..X.XE.@XE.oXJ.^.oX~..XOXR.*XoXoXOXoX@X&X@X@XoXoXoXoXJ.R.oXR.].&X[.H.o.'.]..XJ.J.F.k.A.Y.D.-Xu..XR..XJ.R.R.].F.E.E.OX!.^.~.J.Y.^.Y.A.J.J.R.J.R.J.F.oXJ.#XoX@X@XT.=X[.oXoX].@XE.[.uX>X<X(.H.5X@X'.B.R.B.E.U.A.-Xf.n A.r.e.A..XoX.X.X*XOX^./.oXR.A.D.R.^.oXY.oXF.J.].R.[.[.oX[.R.H.R..XR.R.J.R.R.oXR.F.H.R.].R.R.].[.'.].J.R.J.H.J..X.X^.R.f.e..XR.D.R.R.oX'.[.'.'.'.T.H.H.T.B.H.H.].'.'.'.'.H.T.H.H.T.R.H.H.T.H.J..XY.@X.XH.R.2XR.R.oXOXXX].oXR.oXT.g.[.D.T.R.&XR.#X+X@X@X@X@X@XoXE.R.J..XoXA.A.A.s.g.k.D.F.A.A.D.g.D.D.R.R.Y.R.Y.Y.R.R.S.D.J.R.T.T.H.D.Y.Y.E.R.J.].oX@XOX~.F.D.J.].{.@XE.E.E.R.Y.oXOX#XD.A.J..X~.A.d.F.~.J.E..XoXOXY.R..XJ.F.F.F.Y.~.L.J.F.F.J.~.R.F.g.k.D.R.J.R.#XJ.R.].R.[.@XH.@X&XY.oXoX&X;X&X[.3XtX[.=X5X=XC.B.h.d.F.OXB.@X@X' n ",
"Q &.F.D.r.w.oXr.u.u.g.A.D.'.'.D.D.H.J.R.H.R.oXJ./.R.R.J.R.R.H.B.OXU.B.&.H.R.R.].D.Y.g.A.g.A.D.D.B.D.J.k.E.u.g.J.g.A.A.F.u.A.G.b.A.D.D.oXD.B.y.f.g.B.A.].g.q.e.A.&.g.u.u.g.g.A.k.D.J.R.E.R.A.[.E.@X@XR.[.[. X[.[.R.D.D.A.k.g.].'.'.'.R.].@X#X+X'.[.@XoX].R.~.R.F.R.R.oX.XJ.oX#X.X@X].@XoX].].R.].].].].oX.XoXR.R..X~.F.R.E.@X].R.XX~.XXoXOX.XOX*XoXE.oXoXoXoXoX~.D.R..XR.A..XY.A.O.D.J..XR.R.D.R.D.F..X^.oXR.J.F.F.J..XD.R.#XJ.R.F.F.Y.g.H.@X[.%.A.).@XJ.y.2X@Xe.J.H.J.D.oX-XR.oX@XyXOXOXY.*.U.*.k.^.y.f.3XB.oX+XY.s.D.oXD...&.u.;.u.F.F.#XoXoX#XF.D.A.J.D.F.J.].^.^.R.Y.E.R.H.J.^.oX-X-XoX~.S.XX].A..X@Xu.A.R.R.J.].[.@X@X].].oX@XR.D.E.D.J.F.D.'.'.N.y.D.^.~.~.H.R.B.D.E..XoX^.).J.+X(.N.H.D.T.H.H.N.J.H.H.V.H.).].].H.H.J.J.Y.{.@X#X+X'..X#X.X].].J.R.D.R.H.'.'.'.[.=X@X'.].'.oX'.J..XR.].R.R.oXD.A.R.D.F.k.g.F.A.J.J.J.D.J.H.N.B.T.[.T.H.T.R.D.F.Y.Y.Y.Y.U.D.D.R.Y.D.D.oX.XoX[.@XR.H.F.J.oXE..XOXE.E.oX].E.g.D..XD.E.A.oXA.k.F.F.~.~.J.R..XR.R.oXH.D.J.oXD.Y.Y.D.Y.J.D.^.E.s. .F.D.R.g.R.@XR.D.R.Y.oXY.oX.X.XoX8X9X#XR.OXoXeX7X^.OX*XoXR.A.oX>Xq.y.E.oXg.$...",
"j q.*.^.e.&.F.oXF.u.y.u.D.H.H.N.J.J.J.].J.D.R.D.F.r.R..XE.D.].@XE.U.U.D.R.N.g.J.y.D.D.A.g.k.A.d.A.H.g..X.X*Xg.F.U.D.f.D.D.q.].J.A.]..X@XD.D.N.H.B.g.e.g.A.S.A.u.g.D.B.q.q.g.A.S.A.A.d.F.Y.Y.oXR.T.[.R.[.T.[.}.W.T.D.D.A.D.B.R.T.'.'.'.].@X#X@X].+X@X@X@XR.J.R..X].R..XoX.X.XoX.XoX[.@XoX].@X@X&X+XoX].oX.XoX]..X#XOX^..XE.@XoXR..X.X.X#XOXOXoXoXE..XOX*XOXoX.X~..X.XR.D.D.F.D.E.R.R.R..X.XR.D.D.E..X.X~.F.F.J.~.J.J.J.XXD.B.@XH.D.OX.Xg.H.B.D.oX].#XJ.J.0 oX@X-X2X8X#XR.oX.X.XJ.R.%.oX&XY.R.Y.Y.q.E.g.y.D.@X].'.z.:.^.Y.D.f.^ K } J.OX.XF..X@XJ.F.k.u.J.J.J.D.R.^.R.R.F.D.J.R.J.OXE.^.R.OX#XR.J.].H..XJ.R.J.F.R.H.'.].[.[.].].XXT.T.oXY.E.R.^.d.N.B.B.g.D.u.F..XB.D.H..XoXF.D.D.]..X+XH.H.H.H.'.].J.H.D.'.H.H.).H.).'.R.R.H.H.Y.'.(.|.].].oX@XJ.H.J.H.H.D.J.'.].=X@X'.@X[.].@X+X[.'.].@X].oXR.T.D.g.y.g.D.d.D.u.J.J..XE..XR.E.D.A.B.T.T.T.R.R.D.D.D.D.D.F.Y.D.z.D.D.J.D.D..XoXoX}.@XJ.J.F.D.E.R.].E.Y.#X*XOX*XoXE.R.Y.J.Y.R.E.A.F.~..X~.F.J.R.R.D.D.D.R.E.g.g.oXY.Y.oXE.D.R.^.D.D.R.E.-Xg.A..XR.oX*XoXOXY.@X].J.OXu.J.9XOXD.^.>X*X*X7X*XoX#X#XoXD.&.g.A.e.oXg.>.",
"r &.u.u. .r.e.f.A.D.J.A.H.D.T.R.H.[.].H.D.H.R.A.k.u.u.u.J.R.A.B.oXE.oXY.R.J.A.A.g.y.Y.oXg.u.R.A.u.J.].R.y.A.g.D.B.g.R.S.D.A.A.J.H..XR.Y.D.R.B.N. .f.A.A.D.A.A.A.e.u.D.e.5.A.A.A.S.D.u.Y.Y.E.E.D.'.@X].[.R.T.T.B.'.T.T.H.R.H.T.T.T.T.T.R.].}.}.].].]..X].H.A.D..X].R..XoXoXoX.XoX].@X@XoX].oX-X@X.X.XR..X].oX.XoXOX.XoXoXE..XoXH.oX@XoX#XoX#XoXoXoXoXOX*XOXR.D.D.e..X].e.A.oXE.J.A.J.].J.R.R..XR.Y.Y.D.Y.D.R.F.J.R.J.D.@XA.q..XD.oXA.D.D.D.H.oXR.J.J..XXX@XoXu..X].+XoX.XoX.X#X#X@X].].E.U.T.j U.^.E.D.&.g.D.].B.Y.z.D.y.oXK &.^...A.A.7XR.D.D.J.k.r.r.J.R.Y.D.R.!.A.F.D.g.F..XJ.oXE.E.D.oXoX.XR.H.N.].R.oX.XR.R.J.].].].[.oX.X.XD.R.OX*X.XE.~.R.R.oX@XB.D.A.J.F.D.R.].A.e.B.Y.oXJ..XJ.G.H.H.C.C.T.H.J.H.J.G.H.H.V.A.G.J..X].R.[.N.V.(.].].oXoXR.R.].].J.J.R..X].@X[.'.[.'.'.[.].@X].R..XR.oX].].H.D.J.D.D.d.D.A.E.E.oX.XoXoX.XF.H.H.T.T.T.R.R.A.A.A.A.A.D.Y.U.A.D.k.D.R.R.@X.XR.@X[.H.J.R.J.E.E.Y.D.D.OXOX.X*XOXoXE.oXY.Y.D.oXE.J.J.F.A.F.J.J.D.g.D.J.D.J.u.f.J.Y.D.Y.R.Y.^.oXY.R.J.F.Y.g..XoXD.Y.Y.D.].R.#XoXoX.XOX*XOX7X.XOX>X9X*X-X-X-XoX-XOXR.k.E.E.h.&.B ^.",
"U e.k.R.!.;.d.k.g.g.g.J.R.H.B.R.D.[.R.D.B.J.].D.H D.~.Y.A.D.y.R.[.E.Y.D.D.R.D.u.g.g.g.A.R.y.r.D.A.].H.D.@XB.e.H.T.Y.u.g.k.k.D..XA.R.A.A.F.R.g.y.*.A.Y.A.H.y.y.e.u.D.oXR.g.A.A.g.J.R.D.R.D.D.].R.@XoXR.[.[.[.[.T.'.R.H.D.R.B.D.H.R.].].[.}.+X@X#X@X.XE.R.].E.E.oXR..X.X.XoX#XoXoX].oXoX@XoX[.@XT.[.oX].].R.].R.R./.R.OX#XOX.XoXR.#X#X@X@XoXOXoXoX].R.D.R.@X.XJ.R.q.g.D.g.R..XR.T.B.J.@XR..XA.F..X].R.Y.oXoX#X.XR.k..X.XJ.^.OXoX.X.X.XoX.XoXOXOXE.@XJ.r..X].7Xu.u.2X'.@X2X7X7X.X-XtXyXH.oXY.E.&.oX>XA.y.*.@X5.8XH.D.Y.A.f.D.*.n D. .F.A.OXR.F.g.D.r.e.r.J.E.E.Y..X.XF.F.Y.D.Y.oX]..X].].H.].]..X.XH.g.H.@XH.]..XR.].[.[.[.oXoX.X].@X@XE.oXA.k.r.d.R.H.D.A.D.D.F.F.B.D.].N.e.D.].oXu.A.u.N.J.H.H.H.H.R.H.J.D.H.N.H.H.G.A.R.oX].R.'.V.H.].}.].].R.R.J.H.J.A.R.].].D.'.[.+X@X].'.+X@X+X'.R.R.R..X+X+XR.J.oXR.B.D.y.A.R.E.E.E..X^.R.R.T.T.'.T.C.D.H.J.D.D.A.D.Y.Y.U.A.Y.D.F..Xk.E.R.oX[.'.H.J.R.R.E.E.E..XoX-X#XoX-XOXOX.XE.oXE.U.g.R.^.~.F.D.R.^.J.H.g.D.Y.A.Y..XoX.XE.J.J.E.E.oXoXE.R.R.R.J.A.D.g.J.E.E.Y..XE.#XoX.X8XyXoXg.9X8XoX7XyX].].8XqXJ.#XoXf.Y.y. .g.E.Q d.",
"o.' } A..X;.r.k.y.f.g.E.B.6.5.].T.D.B.D.R.D.H.R.J.R.D.A.*.q.q.Y.R.H.T.].J.D.S.S.g.D.f.r.F.k.d.u.g.oXB.R.H.].].J.T.[.g.e.k..XR.D.y.A.A.A.F.D.B.D.D.D.A.g.D.y.f.A.J.R.R.].D.A.J.F.R.R.D.D.D.A.OXOX1X[.'.[.@X[.[.'.].].J.D.J.g.A.H..X.XXX@X@X@X<X<X#XoX.X.X@X;X*X@XoXOXoX.XoX@X@X@XE.oXoX*X*X@X@XT.E.oXE..XY..XoXoXF.A.R.R..XJ.R.R.oX@X-X@XOXoXoXE.@XR.H.R.@XoX].oXJ.H.R.B.D.].].D.Y.D.R.E.-Xq.q.oX.X.XoX.XoXE.oXoXOXE.R.^.OXA.;.^..X.XoX.XD.R.oXF..X.XS.~.oXOXJ.w.].f.B.oX#X8XR.oXqX2XR.H.].oX-XD.oXA.;.R.oXo.oXN.^.oX^.oXD.Y.W &.r.oX-X-X^.OX.XY.w.r.k.Y.E.Y.E.oXoXY.U.R.E.T.T.[.oXoXJ.R..X.XR.R.H.H.H.@XH.R.oXH.R.].].R.[.[.R.J.[.E.R.g.Y.J.Y.g.u.g.g.A.u.f.k.F.H.g.D.R..XoX]..XA.F.g.D.].H.H.'.'.].H.H.D.H.H.].J.H.J..X+X'.R.].+X+X].[.oX].D.g.D.H.H.H.oX@X#X].].[.[.[.'.'.@X1X'.T.'.].]..XoX]..XH.R.H.D.].u.A.R.R.T.R.E.Y.F.R.T.H.H.H.B.g.D.R.].J.H.J.R.R.D.B.A.D.oXoXA.g.J.oXT.R.R.R.R.^.R.Y.R.oXoX-X#XE.*XOXOXY.D..XoXoX} A.R.^.~.F.Y.J.D.J.OX^.Y.E.E.E.Y.E.oXoXoXOXoXE.E.oXD.R.oXR.J.R.J.#XY.Y.Y.Y.Y.*X#XoX-X@X-XR.Y.OX*XuX8XoXoX8X8XH.oXH.E.*XoX7XE.8X:.&.",
"A.O.k.OXw.R./.x.g.B.f.A.B.Y.D.D.B.D.A.T.R.H.H.H.D.A.g.e.y.*.q.E.H.R.R.R.R.D.~..XoXu.f.A.u.D.OXk.g.R.y.A.e.J..XH.C.B.B.Q &.D.k.D.u.S.F.F.F.F.D.].J.Y.A.A.A.u.A.oXR.H.g.H.J.D..X.X].R.H.D.J.D..XD.@X}.+X@X@XT.R.R..X.X].J.J.A.J.R.L.L..X.X+X@X@X#X@XoXoXoX@X;X;XOX#XoX.X.X.X]..X@XoXE.E.*X&XOX@XE.E.oXR.E.Y.oX#X-XoX^.~.~.oX.X@X2X2X-X-XoXOXE.OXoX2X=X@X#X=X@XoX@X2XY.Y.R.R.H.T.'.D.D.T.Y.oX5.e.-XY.J.R.D.R.D.R.Y.D.oXoXE.D.D.E.oXoX].H.R.R.E.Y.R..XJ.A.D.~..X7Xr.#X2X@X2XoX.XR.].[.=X3XC.].@X.XY.y.g.D.-X[.B.2X+XoX^.Y.Y.R. .F *.D.g.oX-X^.oX.XD.>.r.F.F.Y.U.R.^.J.D.D.Y.E.T.D.[.@X@XJ.oXoX.XR.R.H.].J.'.2X].}.'.'.].'.R.].E.Y.Y.R.E.E.D.D.k.d.r.f.D.D.F.e.A.k.g.y.e.B.H.R.].J.R..XR.A.J.].H.G.H.H.H.H.H.R.D.H.].H.R.oX@XoXR.R.@X].[.'.].oXE.D.D.D.D.H.H.R.].oXoX[.].R.'.'.'.@X@X[.'.].R.].].+X].+XoXR.H..XH.Y.J.[.[.R..X.XF.d.D.'.B.B.T.H.D.H.J.].J.J.R.].].R.H.A.k.OXF.R.k.J.F.H.T.R.J.J.E.J.D.oXOXOX8X7X.X#X7XoXD.Y.D.[.Y. .oXF.F.F.D.F.J.D.J.D.A.k.^.E.E.E.OXOXoXoX*X#XoX].oX].[.=XR.D.oXoXJ.OXR.Y.oXE.J.J.].oX].8X@XD.oX-XOX2X@X&X8X2XJ.-XoXoXoX@XOXD.R.&.n ",
" . .A.>Xw.O.^.r.*.g.T.D.D.E.[.H.g.E.E.Y.Y.R.T.H.]..XD.&.A.g.g.oXH.R.H.g.J.F.~.F.Y.D.y.u.g.D.J.J.e.R.H.H.[.y.%.#XT.T.D.D.~.d.D.R.D.F.F.F.R.R.J.F.R..XD.D.g.g.g.g.J.J.H.R.].R.J.J.].R.H.R..XR.R.d.'.].[.[.@XR.@X@X'.].].R.R.D.R.J..X.X].+X#X#X#X#X@X@X#X@X@XOX&X&XoX.XoXoXR.]..X.XoX.XoXoXoXOX@X[.^.oXE.R.F..XE.E.^.OX~.~.oX#XoX-X8X-X@XoXOXoXOX#X-X@X=X=X=X#X=X=XR..X[.H.H.oX'.H.T.R.@XE..XA.J.@X].J.J.R.oXoXE.F.D.Y.Y.R.f.e..X^.].e.A.@Xk.D.oXY.A.oXu.} J..XoXk.8XgXqX-XoXR.[.@X[.=X2X=XN.A.f.A.oX*X8X8X2X@X3X+XY.oXE.Y.U.f.2 &.B.H.R.E.oX>X*XF.r.r.D.F.E.D.Y.R.F.D.F.Y.R.Y.E.oX].@X@X@XoXR.].R.D.H.].T.=X@X{.}.[.].'.R.E.E.R.E.D.R.Y.@XY.F.k.R.J.g.g.R.D.D.A.D.e.J..X.X.X.X.X].J.D.D.D.J.R.J.J.H.C.H.H.].B.H.R.[.@X@X+X].H.H.].T.'.'.'.oXE.R.[.].].R.].'.]..X@XoXoX.X+X+X+X=X+X=X[.[.J.'.].+X.X].#X].]..Xg.J.R.@X#X]..X.XR.k.F.'.H.H.R.R.R.R.J.].).J.]..X.X'.R.^.D.R.d.F.D.R.R.T.D.R.H.R.E.D.D.E.#XoX*X-XE.oX7X.XY.E.T.E.T.g.&X^.J.F.J.E.oXoXE.Y.Y.E.oXE.E..XoX*XoX].oX-X#XoX.X'.H.].@X].J.].#XoXD.Y.OXOXR.].-X[.&X8X2X@Xf.R.-X=X@X[.;X;X@X8XwXR.OX;X&X@XD.n n ",
"z H u.k.eXF.k.:. . .h.D.[.A.D.g.F.oX^.E.R.H.T.].].].R.H.R.*X*X-XT.'.R.H.@XA.A.k.A.oXY.D.g.F.A.e.H.g.H.N.H.#XH.H.B.T.D.q.q.^.k.r.A.S.F.F.R.~.J.k.g.R.Y.A.q.g.A.g.e.B.R.T.R.J.A.J.J.J.A..XoX#X#XR.].}.}.'.[.[.@X].[.[.@X[.[.].@XT..X].].@X1X1X#X#X@X.X.XoXoX.X[.@X^.oX#XoXR.oX#X]..X.X*XoX].&XOX@XD.Y.F.Y.R.@X[.R.F.OX.X.X#X7X.X.X&XoX].-X#X@XE.R.2X@XoX@XoX@X@X'.R.].R.R.'.T.N.'.E.B.Y.oX#X.X.XH.XXXXR.oXoXOXoX^.Y.Y.E.E.g.d.E.oX@XH.D..X.XoX^./.~.~.D.R.^.J..X#XwX#X#XD.-X&X'.@X=X5XT.qX#XN.#XOX7X7X.X8X3X2X[.N.oXoXD.D.T.&.n W.&.oXA.g.E..XR..Xa.w.k.Y.oXD.Y.Y.J.D.F.F.k.A.R.D.J.@X#XoX@X].oXR.F.g.oX[.H.1X|. X@X[.R.R.E.Y.Y.^.D.T.D.g.Y.Y.D.A.Y.D.D.A.g.D.J.A.J..XH.J.].J.'.J.^.R..XJ.J..XJ.H.].'.H.].R.H.D.].@X[.R.R.'.].]..X[.].T.R.OXoXY.U.Y.D.N.'.'..X].oX]..XoX+X].].=X#X@X[.@X]..X].+X].]..X].+X].J.A.R.}.@X'.]..XOXJ..X'.T.H.R.R.R.R.J.+X].'.]..X].T.H.x.R.^..XR.^.F.R.T.B.D.H.R..XD.F.R.7X*X#X-X*X7XuXoXE.J.@X@X@XD.B.XXR.R.^.R.E.oX.XE.Y.^.E.E.Y.oXoX*X#XOX@X#XoX].oX+X@XR.'.-XoXJ.J.E.OXOXE.D.J.R.D.2X8X-X2XqXg.;X9X3X3X=X2X2X-X#X[.R.7XB.B.=.U.n Y.",
"j Q j E.f.g.A.f.t &.A.g.E.J.Y.D.D.Y.Y.Y.E..XoXJ.u.B.].]..XoXoXA.].J.R.oXR.J.].J.'.H.H.N.D.D.k.e.N.y.S.A.q.T.T.D.R.D.D.A.A.oXA.D.A.u.D.B.f.D.R.e.u.F.D.J.J.k.q.S.D.E.D.y.g.D.A.Y.J.@X].+X2X].=X].'.[.[.[.]..X@XR.E.R.E.R.Y.D.Y.oX+X<X@X].#X#X@XoX].oX-X#X-XoXoXE.A.D.R.@XoX].@X[.T.=X[.H.#X-XoXOX~.R..XoXOXJ..X#XD./..XE.oX.X].@XR.E.&XR.E.oXOX.XoXR.-X2X&XoX*XoXJ.oX.XH.E.[.Y.R.E.F.R.Y.E.oXY.Y.#XoXJ.@Xu.g..XD.E.D.F.R..XR.F.oXD.*X.Xg.R.O.u.r.OX.XF.J.F.Y.Y.oX3X=X*XOXoX.X7XOX#X3X2X-X2X7XuXOX@X2X@X2X+XZ.6X4.g.].B.].#Xg.O.e.A.u.D.u.oX#XJ.r.r.a.j.R.@X'.'.H.J.k.D.F.D.J.F.D.E.E.E.oX-X-X@XF.R.oX[.oX2X6X@X{.@X].].R.R.H.H.'.R.r.R.A.r.F.g.r.D.y.R.H.R.F..X#XR.Y.F.J..XF.J.H.D.A.y.B.[.D.J.D.Y.A.].@X].H.H.[..X.XoX@X].H.].].H.H.J.R.J.J.J.J.G.G.H.J.'.].].].Y.F..X@XR.].@X.X@X@XoX@XY.oX.X].+X#X-XR.D.g.e.A.'.oXH.@XR.].R..XY.D.D.^..X~.R.].R.R.].]..X.X].~.H.R.R.E.[.oXR.D.D.Y.R.R..X^.R.J.Y.oX*X#X7X-X^.uX=XoX[.oXY.E.oXJ.Y.*XY./.D.q.Y.D.OXD..X*XoXY.OX*X[.&X*XOXoXoX^.F./.XXXX~.^.oXoXR..XoX@X].H.R.].R.OXqXtXoX8X2XqX@X-X7XE.7X*XD.-X[.y.=XT.e.oX#X%.5.",
"Q q.Q } &.A.Y.f.O. .D.g.A.A.D.E.R..XoXoXoXR.A.J.g.u.D.R.k.D.R.J.D.H.H.R.J.R..XJ.@X'.].H.D.D.D.R.g.J.A.u.Q T.B.R.D.g.U.U. .&.y.g.D.A.H.D.A.f.D.Y.F.r.u.~.J.D.A.F.A.u.f.g.D.Y.D.Y.g.J.@X.X].H.T.'.[.'.T.[.@XOXoXJ.Y..XoXR.D.D.D.D.J..X.X].#X=X@XoX].oX-X@X#XE..XE.E.E.oX.XR.H.].'.oX'.R.@X*X.XE.OX^.*XOXR.OX.XJ.J.d.F.R.^.oX.XR.@XR.;XOXOX-XE.oX-X].oX@X2XoX*XOXT.R.oX.X.XOX[.R.@XY.Y.E.J.Y.oX.XoXoX#XR.y.].e.q.oXD.R.^.F.^.oX^.^.k.oX#X^.OXA.J.e.J.~.J.~.Y.R.Y.oX8X-XD.D.-X2XoXF.2X2X#X=X2X*XoX-XqX8X-X@X#X].@XN.R.-X+X@X].y.o.O.B.g.g.D.#X#X.XA.k.k.F.!.[.[.H.D.u.r.A.D.F.Y.Y.D.E.R.D.R..X.X.XJ.].@X=X@X#X@X+X}..XH.].J.B.H.H.H.&.&.D.D.k.F.A.F.oXA.A.D.H.D.D..XF.F.D.D.J.A.H.D.[.].T.y.@Xg.D.J.A.J.].D.B.].].H.H.J.].].J.H.J.H.H.J.].oXF.A.A.A.'.J.H.H.H.'.+X@XoXE.oXoXH.].#X-X[.@X[.@X].oXoXoXoX@XoXD.B.d.q.e.]..XJ.].]..X#X#XOX.XR.^.^.J.D.H.R.R.R.]..X].R.J.R.R.R.R.E.Y.Y.Y.D.D.T.E.oX.XJ.A.A.D.A.f.F.OX*XuXR.R.].].E.oXoXY.XXF.!.k.d.Y.R.oXE.E.oX*XoX*X*XoX;X;X&X@XOXOXR.A.D.^.F.F.^.^..X7X#X#X@X.X].@X&XoX[.'.@X3XwX].@X[.eX9X:.>XyX*X3X[.H.@X2X3XyXB.g.5.",
"j D. .j } oXA.g.D.O.A.A.D.J.E..XH.R.J.A.Y.Y.A.oX].A.B.R.D..XR.g.H.R.J.J.J.R.R.D.H.A.R.].].E.y.e.H.A.F.u.R.T.B.g.D.D.6.q.g..X#XoXD.H.D.g.R.J.D.Y.k.A.J.~.u.A.J.J.A.g.D.D.A.Y.E.R.A.g.].H.H.[.].@X@XoX'.@X2X@XoXR.#XoX^.^.R.F.Y.^.XXXX@X@X@X=X#X[.#X@XOX.X.XR..X.X#XoX.XD.H.R.oXR.@XR.R..XE.oX#XoXOXR.OXOXOXOX#XF.Y.oXoXoX#XoX].oXOX*X#X*X#XR.R.*X+XoXoX&X].&X@XR.R..X.XoXOXE.Y.oX .y.Y.R.E.OXoXE.g.-Xu.q.J.oX^.^.Y.R.oXR.oXD.A.oXOXoXoX^.R.R.*XY..X~.D.Y..X*XoXE.^.*XY.D.@X8XoXA.=X].'. .#X7X9X7XqXyX2X8X5X].].].oXg.].].y. .e. .n g.D..X.X.X#XXXA.k.!.^.oX@XT.Y.F.k.F.A.D.D.D.g.@X[.T.]..XJ.J.H.D.D.'.[.[.+X#X2X+XJ.oXR.B.T.].H.k.F.E.Y.D.k.e.r.A.g.e.g.g.J.D..X^.!.R.J.R.H.oX@XR.].=X+XJ.B.R.].J..XoXH.H.].'.'.J.J.].].J.J.R.J.H.R.H.].A.k.F.R.].].J.H.H.H.R.].oXoXOX.XD.].#X-X'.[.].[.oXoXoXoX@X.X].J.H.k.e.e.J.].].]..X.X#X@XoX.XY.R.oX.XR..XR.R.R.].]..XR.R.R.R.R.[.E.Y.E.oX-X].R.E.R.Y.J.D.k.D.^.oXOX^.oXuXD.H.R.].oXOXoXR.Y.F.R.g.f.Y.R.E.Y..XOXE.oX*X-XoX[.oX@XOXoXoXoX.X/.R.R.^.oXoX.XY.@X@XoXoXoX@X&XoX@X@X3Xe.g.qXyX8X7X*X9X8X&X-XB.@XoXH.y.;X%.&.B.B.",
"n E.L n Q } f.y.g.D.A.f.E.k.A.D.N.T.H.D.oXoXY.Y.J.J.J.H.D.R.J.g.]..XJ.J.R.J.D.g.H.H.].R.R.oXf.e.u.g.A.e.D.[.T.g.f.[.E.A.A.g.f.A.e.D.H.B.Y.D.A.D.A.~.J.D.k.F.D.S.T.D.Y.A.u.A.D.D.D.u.R.].=X3X@X].oX].'.@X#X].].oX-XR.D.R.E.Y.Y.oXXX].+X@X+X=X2X#X@XoXoX.X].E..X.XOX.XE.g.J.[.@XT.T.H.D.A.A.oX-XE.*XR.OX*XoXOX#XF.E.oX.XR.oX#X#X#X-XA.#XR.Y.oXoXOX2X].@X&X-X[.@X@XR.oXoXR.E.oXE.E.y.D.oXE.E.OX#XOXD.R.J.J.R.g.R.R..XH.R.E.^.*.*..X-XE.^.oX.X.XoXoXR..XE..X^.oXoX*X7X*X#X-XH.J..X@X3X5X2XD.-X>X*X-XoX=XyX3X5XqX[.}.gXoXR.g.-XA.q. .K g.A.oX-XOX#XJ.J.k.D.^.oXoXR.^.F.k.J.F.^.Y.D.g.A.D.H.oX@X]..X.X.XJ.R.+X@X@X1X=X].].@XR.D.H.D.A.D.Y.Y.Y.Y.A.A.F.f..XY.H.D..XH.J.F.D.J.D.R.H.].[.H.'.oX8XD.J..XH.J.R..X.X].H.B.[.R.F.J.J.J.]..X+X].].N.R.A.D..XoXoX.X].].].R.R.].R..XoX.XR.].oX].'.oX].].oXoX.XoX@X@X].D.D.D.D.A.D.R.oX@X#XoX.XJ.]..XJ.R.oX].H.J.].]..X]..XoX.X.XR.].[.oX].E.E..XD.g.D.].].E.R.D.R.D.J.oXoXY.Y.^.H.T.R..XOXOXoXE.J.R.oXE.Y..XoX.XY.oXoXOXE.oXoXOXE.oXOXoXE.R.R.^..X^.oX^.F..X-XOX-X@X@X@X@X&X@XoXoXR.tX@X-X8XR.#XeX>X9X7X7XyXyXB.yX8XB.e.R.tXN.&.",
"z  .A. .n n D.*X=. .A.R.D.g.OXY.#X#XT.A.D.F.E.D.D.R.D.y.D.R.J.H.R.J.A.D.J.D.A.d.H.H.].R.D.oXY.oXoXg.u.D.A.g.g.J.Y.f.R.oXR.J.D.R.B.g.B.D.Y.g.d.D.F.J.A.D.A.D.A.D.E.B.g.A.D.A.g.D.R.Y.@X@X=X@X@X]..X].].@X#X[.@X=X.X.X.X.XoXoXoX.X.X]..X+X.X@X#X+X'.].[.oXoX.XR.R.^.R.E.g.D.Y.D.f.D.H.H.R.oXoXoX#XD.*XOXF.OXOX^.R.F.E.Y.D.R.oX.XF.oXe.oXJ.R.oX*X7X@XoX2X2X2X].oX@X.X@XoX.XOXOXOXoXE.oXoXoX.XoX*X-X#XD.OXoX.Xk.~ D.#XoX#XoXoXA.g..XOX^.E.oXOXoXY..XR.R.D.^.#X7XOXoXf.D.oX-XR.oX+X'.R.oX+X@X7X7XeX>X2XyX2X3XqXqX3Xy.&X=XH.D.R.g.H n  .%.q.D.oXJ..XOX.XA.;.R.@XJ.R.^.F.k.F.F.J.A.A.R.g.B.H.oXoXR.].oX#XR.].@X@X@X@X[.'.].].H.D.g.5.e.A.A.D.D.g.y.A.D.g.OXOXR.].R.B.u.D.J.oXoX@X[.[.[.+X#XH.@X2X.X.XJ.J.].oXoX@X+X'.[.OXJ.H.A.A.J.H.J..XoXF.@XJ.].].J.'.H.D.R.R.H.D.E.F.R..X].].].].H.[.@X].R..XoX^.oX].@X].g.e.D.R.F.J.R.oX-X@XoXJ.H.oX-X#X#X2X#X.XoX].oXoX.XoXoXoX.XR.oX.XR.R.].R.J.g.y.B.].].].^.J.J.^.^.F.A.Y.oXR.].R.R.oXOXoXE.[..XD.oX]..X-XoXOXoXoX-X#X-XE.oXE.OXoXoX.X.X^.R.Y.OXOXF.A.OXeX*X#X=X@X@X@XoX@X@X[.oX8X=X@X8X:X:XeX9XpX-X9X8X&XxXB.B.;XqXN.B.@X=.W ",
"j } n }  . .OXA.^  .x.F.#X~.g.J.].'.R.E.Y.D.Y.J..XR.g.y.].R.H.T.J.H.A.F.R.F.D.k.A.B.H.R.E.E.R.@X^.~..XoXA.N.D.].E.g.R.R.E.R.D.oX'.B.B.B.E.Y.Y.D.Y.D.A.D.u.D.R.J.Y.A.B.g.A.D.F.oXoXoXoXoX+X'.#X@XoXR.R.+XoX[.@XT.J.R.R.R.Y.Y.E.oXoXoX@X@X@X@X+X].[.oX]..XJ.J.F.F.J.A.g.f.D.oXd.q.H.].]..XoXR.E.7XD.^.^.F.oX^.~.oXY.E.E.J.R..XF.e.XXR.XX].-XD.E.7XoX-X#X@X'.[.[.@XoX.X.X#X*XOXoXoXD.F.Y.oXOXoXOXoXoXOX.XoXR.OX..e.oX.X.X.X.X^.D.F.oX*XoXE.oXOX].oXE.oXoX*XoXOXoX-X@X3X2X].oX2X@X#X8X-X@XoX-X-XgX-XqX'.].-X3XqXqX+X[.T.qX*X[.} =.} J.u.g.J.#X#X.XJ.@XD.;.F.oXJ.oX!.F.F.F.D.d.y.r.R.'.'.'.oX].H.]..XR.J.R.[.[.].[.oX(.].'.J.R.g.;.u.D.D.T.E.T.D.R.F.R.OXoXR.#X].R.].D.D.oXR.].R.'.]..X.XB.@X#XJ.H.J.oXoX@X@X-X3X@X+X.XS.F.J.].+X].+XR..X.X@XJ..X].].].R.R.oXoXY.Y.E.E.E.E.R.].[.].'.[.[.].H.R.Y.R.R.R.R.R.Y.A.k.F.F..X].oX#X@XoX'.].R.oX+X@X<X@X.XoX]..XoXoXoXoX].J.R..X].J.J..X.XJ.'.H.T.'.R.J.R.Y.J.#X7XOXY.E.-X>XoX].].oXoXE.R.R.H.H.J.].].].oX].oXoX*XoXOXOX*XE..X.X.X.XoXOXOXoXXXOXXXoX-XoX^.#X=X@XoX].R.oX@X[.oX3X&X@X8X>XeXpX9XOXE.oX3XtX2X2Xg.wX&XtX&X@XW [ ",
"n 7X} n ..-XoX . .E r.F.#XOXJ.Y.[.T.E.T.T.R.A.R.J.J.J.H.H.D.H.H.].J.J.].R.J.F.u.R.D.A.Y.oXR.E.R.oXk.~ J..X3XH..XY.Y.].R.=X@XH.B.T.'.'.D.R.R.E.R.U.J.A.A.g.R.R.D.R.D.T.A.f.D.^.OX^.oXoX@X2X@X#X@XoXR.R.].T.'.'.y.oX].R.R.].E.oX#X^.oX@X#X2X-X2X2X@X@X].R.D.D.D.J.J.A.g.A.R.OXd.f.F.^.Y.A.D.J..X-X*XU.oX#XE.k.R.^.Y.R..XoXoXOXoXD.OX#XXXOX#Xg.J.-X@X2X+X[.'.oX[.oXoXR.R.oXoXE.E..XoXE.Y.oXOX.XoXoXOX#X#XOXOXd.A.k.@XR.J.@X.XoXR.R.E.*XOXoX*X#X.XR.*XOX.X*X#X#XoX-XqX+X+X2XqX@X].8X2X#X.X8X.XoX@X8XqX@X'.3XqX].8X#X+X2Xf.E.g.h.!  .O.q.D.oXR.oXOXXX[.oXk.F.~.].OXF.w.k.F.F.k.A.f.D.@X[.'.oXoX].@X@X].].].[.oX].].oX|.|.'.]..XF.k.F.D.H.D.A.D.D.g.d.Y..XJ.D.].D.T.[.R.Y.[.H.R.J.]..X@XoX.X.X@X@X].oX-XoX@X@X-X2X#X@X:X~.oXOX.X].A.H.R.J.@X].H.+X.X@XT.R.E.E.Y.D.D.Y.E.E.R.R.R.].].oX[.R.R.D.Y.Y.E.J.R.H.J.#XoXF.R.R..XR.@X.X@X@X+X@X+X#X#X#X#X@X.X].]..XoX.X.X.X].H.Y.R.R.H.J.]..X].C.H.T.'.'.R.J.D.-X#XR.R.E.E.OX*XoX]..X.XE.E.E.D.N.].J.oX].H.@XR.^.OXY.*Xg.-XOX*XoX#X#XoX.XoXoXoXXXXX.XoX#X#X@X*X2X2X@X[.].-X;XoX].+X3X@XOX:XOX:XyX9X&X*X8X3X2XqX7X7Xg.g.g.B.f.%.",
"n A.} &.OXoX&.g.s. .r.k.k.u.oXD.[.[.;XA.T.Y.' o..XR.J.R.N.].].C.'.'.R.].J.F.F.q.A.J.J.E.oXT.R.g.f.k.u.A.#XT.H..X^.g.D.R.T.H.+XT.T.R.T.H.OXY.g.g.h.E.Y.R.D.B.g.*X7XT.E.OXD.D.E.R.OX*X-X#X;XoX+X1XoX.X@X-X'.}.@Xy.@XoXR.D.R.oXE.A.oXOXOXoX#X@X@X2XT.].].oXJ.R.J.R.E.oXoXoXJ.E.r.Y..XR.J.J.].oX#X#XoX[.OXoX^.D.R.oXoX^.^.oX^.^.^.^.#XXXXXOXR.oXoX7X#X#X=X#X8X-XoX].@XoXoXR.Y.E.oX.XoXoXE.OX*XoXOXoXoXoX^..XoXD.A.oXJ.H.J.oXD.oXoX#X^.^.^.oXOX]..XR.J.E.oX-X#XoXE.-XqX@X2X@X@X#X@XR.#X#X-XR.oXqX8X#XqX3XtX#XqXqX8XH.].=X&.=.s.oXg.n  .O.u.-X.XOX#XXX|.*X^.k.A..X^.j.F.R.k.d.r.Y.A.R.@X@X'.oX+X.X.XR.H.R.H.T.[..X]..X].(.'.R.J.F.D.F.g.T.T.f.A.A.d.Y.u.R.E.].R.D.H.R.Y.F.@XR.].].]..XoXoXoXQ oXOXJ.R.@X@X3X2X-X8X8X7XJ.k.R.XX.X].H.+XoX.X2X].'.#X].].D.R.Y.A.g.A.E.oXR.R.Y.R.].].].oX[.R.].Y.E.E.oXR.R.R.R.R.J..X*X^.Y.J.-X].#X#X#X+X#X#X#X@X@X#X@X].oX@XoX].]..X].R.Y.Y.R.J.J.J.J.J.'.].T.T.T.'.E.oX-X-X.XR..XoXoXY..X.XoX.XY.[.[.B.J.H.'.H.J.#XoX].oXE.7XoXE.A.*XOXoXOXoXE.oXOXoXR.e.XXOXXX7X#XR.-X-X=X@X].[.-X-XR.]..X@X@XE.OX9XeX-XuX9X-X8X2XxX2XA.-XD.f &.[.=X%.",
":.E e.R.&.qXB.*.y.g.y.f.y.R.Y.Y.@X+X.X].J.R.r.e.D.^.R.R.].'.'.[.H.'.].Y.Y.A.H.D.H.T.'.].Y.D.Y.].B.D.2X].D.].oX].F.F.!.D.A.E.D.[.F.J.J.J.R.F.S.R.D.Y.E.A.A.B.A.f..XoXD.OX8X=X;X@X@X2X#X2X+X@X<X<XOXH.oXoX@X2X].@XR.R..X.XR.oX#XR.XX.X^.OXoXR.oX@X].H.H.R.].oX.XD.oX-X@X].J.].g.g.'.R.@XoXoXOX@XOX=X&XoXY.Y.R.E.R..XoXu.R.oX.X&XoX#X*XOX.XU.@X[.&X2X#X2X2XoXoX*XR.#X.X.X.XE.OX*X@X]..X-XoX.XoXoXoXoXoXoXR.oX.XoXD.J..XH.J.@XoXJ.oXoX~.~.D.*X-X&XR.oX#XoXR.B.H.oXeX1X3X2X=XqX@XB.f.-X#X#X.XoXtXtX@X>X7X7X2X>X8XtX8X|.[.=Xf.e.%.&.q.A.u.*XOXE.^.D.k.B.*XoXF.F.k.F.OXF.x.k.F.R.!.^.A.oXXXOX-XoXR..X@X[.@XH.R..X].OX.X].R..X.XH.D.Y.D.R.D.J.J.F.A.d.D.R.E.oXoXD.A.f.D.B.'.T.'.[.].[.[.oX.X*.- A.#XoX].-XoXoXR.7XOX-X>XF./.XXoXR.J..XoX*X.XoXoXJ.R..XJ.R.D.oX.X].R.R.J.g.D.T.R.E.OXoXE.E.E.^..XoXoXoXOX.XR.J.H.'.@X@X}.XXR..XOX@XoXA..XoXoXOXOXoXOX#XoX]..X.X].oXoXE.Y.J.'.].R.H.H.H.H.].T.T.].].'.].+X-X8X2XoX].R.R.oXoX.XOX@X[.R.H.T.T.H.T.[.@X[.[.@XOXF..X-XOXOXOXOXOXE.E.D.Y.*X*X*XoX.XOXoXA.f.OXoX#X2X+X}.oXoX@X'..X.X#X@X@X;XgX2X;XuX;X;X3XtX8XqX}.H.gX].} e..Xr.",
"U.Q w.^.q.f.e.O.f.q.s.f.f.g.$.Y.H.H.J.D.A.Y.R.OXd.g..X].A.f.N.D.J.H.A.A.Y.Y.R.A.R.H.B.].E.A.D.J.H.H.-X].T.R.'.'./.F.F.R.E.oXH.[.XXR.F.J.OX.XF.F.oXoXE.Y.Y.Y.D.D.R.OX.X*X*XY.oXOX2X#X@X@X'.H.+X<XoXoX.XoX@X].H.'.[.].R.H.A.J.XX.XF.L.F.F.J.R.oX[.@XoXoXoX.X.XoX.X.X.X.X.XF.oX.X.X].R.].R.R.@XoXOXD.E.OXoXE.^..X.XE.*XR.*XoXR.oX@XoXoXoX-X*X@XR.@X<X<X3X@XoX*XOX&X*XR.R.*X*XoXoX@XoXoX-X-XoXoXJ.D.oX^.OXoXR.oXJ.J.]..X].].R..X^.oXR.OX.XoXA.D.B.>XOXD.].oX].oXoXoX=X[.[.2X2X=X2XoXoX-XoX*X2XoX=XyX7XD.oX7X7XqXtXyX1X|.2XR.D.Q j A.g.oX7XoXOXoXR.k.Y.d.E.#XR.k./.F.;.d.k.D.A.F..XD.XXOXXXoX@XoXoX@X@X@XD.J.oXoX#X~.#X].H.J.J.R.R.D.B.A.J.J.J.T.A.Y.R.J.Y.R.Y..XJ.E.H.'.H.'.oXoX@X+X@X#X&.q.D.D.N.V.J.A.D.*XeX8XlXoXoX!.oXOXA.A.oX.XoXR.E.R.D.J.].J.R.Y.R.E.A.J.D.D.@X[.Y.oXE.E.D.D.E.R.J.J.R.oXOXOX@XoXR.J.'.].'.T.oXR.oXOX-X.XR.@X^..X#X*XOXOX@X].]..X.X].].].R.Y.'.'.].].'.T.H.D.'.'.'.]..X]..X@X2X-X].R.oX@X+X+XoXOXOXR.R.oX[.'.D.D.H.'.@X[.[.oXOXR.oXOXoXOX*XOXoXE.OXOXE.A.g.R.OXR..X.XJ.F.OX.X+X1X@XN.-XT.[.oX.X#XoX-X3X-X-X8XuX;XE.&X3XqX8XgXqX}.3XyXy.R.n ~ ",
"e.t ~ ^.E.@XoXA.j  .y.f.q.&.:.d.g.d.F.D.A.g.A.D.D.R..XA.H.f.g.'.H.R.D.D.D.D.D.D.H.'.).].E.Y.Y.D.B.D.E.R.R.H.].#XD.F.oXY.T.Y.R.@X].J.H.R..XJ.g.A.A.oXOXoXg.g.D.[.F.F.A.~.OXoXOXoX=X+X#X2X3X{.@X{.A.oXR.oX-X'.'.'.[.oXoX].J.J.J.J.J.~.J.R.].[.@XoX@XoX.X]..XoXoX#X.XD.R..XA..X#XoX#X[.oX].oX*X*XOXD.oX*X*XoXoXoX^.oX#X.XOXoXoXOX&XA.J.E..XoX@XR.].@X.X-X#X;X@XB.&X.XoX*XOXOX*X*XoX@X@X@X@X.X#X^.R.F.D.oX.XoX].OXOXJ.@X@XR.B.R..XJ.OX.X^.OX*.s.g.oXoX-XoXR.R.oX*XoX@XT.3X2X[.qXoX@X*X7X.XOX2X8XyX=X7X*X-X*X8XyX;XqXqX@XT.[.H.Y.*..XA.R.-X-XR.D.OXr.D.D.OX^.oX!.!.k.e.D.E.R.D.R.@XR..XoXoX]..X.X].oX[.[.D.D.]..XoXJ.].'.].].].R.H.A.g.D.R.F.J.Y.D.Y.J.J.J.J.A.J.D.H.H.T.B.H.]..X+X.X].+X4.'.J.J.+X@XE.oXyXyXeXyX-XoX^.oXoXOXoXR.].].J.J.Y.D.D.R..XR.R.R.E.R.D.R.J.J.R.R.D.R.J.J.J.R.E..XoX.X.XoXoX&X@XoX].R.J.J.H.D.oX.X.XoXoX]..X.XOXOX*X#XoXoXoXR.].].{.].].].].R.'.R.'.[.[.'.R.R.R.'.].[..XoXoXoX@X#X@X].T.H.H.].oXoXoXoXoX[.].R.H.R.].].].R.R.oXXX.X#XoX.XOX*XOXoXY.oXOXR.f.f.R.#XE.oX.XOXOXOXoX2X6X@X].'.R.'.T.].#X.XoX@XtXyX7X;X;X&X&X3XtXqXqX3X=XB.].Y.u.Y.d.",
"r.L y oXoXoXu.A.e.D.y.s.&.] g.h.r.e.d.g.D.A.A.e.f.D.R.D.oXR.].].R.J.B.D.R.E.D.y.J.+X+X].Y.R.].J.Y.J.J.J.].H.].oXA.D.oXY.E.oX[.R.].R.].oX[.D.D.R.D.D.g.B.D.R.D.g.D.D.D.oX*XOXOXoXoXoX].R.].].#X|.B.oXR.oX=X'.].R.R.R.R.D.A.A.A.F.J.F.F.oXoXR.].]..XoXR.J.oXoXoXOX.XD.R.].D.R..XR.@X[.[..XoX#XoXE.oXOXOXOX.XOX.XR..XE.E.~.R.oXoX@XY.oX@X[.oX;X&X&X+X].@X-X3X[.B.&XoX].E.oXoXE.oXOX+X#X@X].D.OX#XOX^.J....X.X#XoXS..XoX@X#XY.E.oXoXR..XOXOX*XOXR.E.D.].R.oX#XE.g.8X2X[.=Xf.B.2XD.oX^.*XoXoXoX2XyX@XR.-X7XoX-XtX3X3XT.R.H.@XT.%.Q D.g.D.R.^.D.d.OX^.A.oXoXd.~..XF.XXF.J.^.oXR.].oX].].oX@XoXR.J.Y.oXoX-XoX.X.XoX@XoXJ.]..X].J.D.J..XY.^.^.Y.T.D.D.D.A.D.J.R.J..XR.].U.T.B.D.R.].+X].#X+X@XoXqX+X].'.R.R.>X*X-XyX*XOX@X3X*XOX*XR.D.H.R.oXoXR.R.]..XR.D.D.E.J.R.J.R..X].oX].R.D.R.R..XE.Y.H.J.R.].].]..X.X].R.J.J.H.H.J.].A.#XJ.oXOXoXoXoX#X@X].oX@X].).].].{.+X}.].].'.H.D.H.R.H.H.T.R.].[.oXoXoX.XR.].@X@X@X[.'.].oXoXoX.XoXoXR.R.R.].oX].R.R.R.Y.R..X.XOXoX.XOX@XoXoX].].oXOXoXoXoX.XR.@X].oXoX.XoX<X2X].1XH.@X[.'.oX@X@X2XoX#X8XyX@X2X;X&X&X3X8X2X@XH.T.&XE.q.f.q.",
"L ;.e g R.H.oXe.s.y.6.q.A.A.q.6.;.r.k.r.u.f.D.D.D.f.D.R.B.5.].f.g.H.Y.E.D.D.H.H..X+X].].Y.A.Y.R.oXR.D.H.@XoX@X.XoXD.Y.H.H.D.].@X[.T.T.[.[.Y.Y.R.D.A.D.D.H.B.D.D.D.D.R.&X*X@X@XU.].oXR.T.B.H.].].oXoXoXoX].R.T.B.J.R.R.J.J.J.R..XD.D.H..X.XT.R.'..XoXoX].E.E.E.oX@XoXoXoX@X@X[.oX[.[.[.[.oXoXoXY.oXoXR.E.R.OX.XR.E.R.#XOX.XoXoXoX[.R.Y.R.oXR.E.@X@X&X@X@X@X&X*X&X&X[.R.oXOXoXoX*X].@X@XoXH.Y..XoX^..Xr.OX.X.XoXJ.A.].R.D.D.oXoX[.*XD.OXE.E..X*XR.oXoX@X#XOXOXO.OX2X2XoXR.8XqX2X#XoX#X#X-X7X;X-XzX*X*X7X9X@X2XgX@XT.3X2XB.=X' l y.5.t.J.R.k.A.oXJ.e.q.D.#XOX.Xk.L.oXR..X].E.oX+X].+XJ.oX@XJ.D.Y.E.R.@XoX].R.R..X.X].].].].R.Y.Y.E.E..X~.R.R.D.A.D..X^.J.].]..XJ.A.R.[.T.R..X+X@X@XJ.y.#XOXyX.X]..XD.Y.E.#XD.D.uXOX@X&X;X*XE.R.oX].oX@XoX].J.F.D.A.A.g.J.D.J.D.R.#XE..XR.R.J.oXoXoXoXA.e.y.H.oXoX'.J.R.].R.J.J.J.~.R.oXA.#XJ.oXoXR.D.R.#X-X+X@X@X].J.]..X+X+X+X.X'.oXR.D.J.R.J.D.D.T.E.E.^.oXoX^.J.H.R..XoX'.T.'.].oX-XoX].J.R..XJ.R.R.D.D.R.E.J.D.L.J..X.X.XoXE.oXoXoXoX#X2X2X#X.X[.[.-X[.+XoX].@X#X3X+XH.oX'.[.'.].#XoXoXwX-X-XwX8X2X2X2X2X3XtXhXH.&XyX&XD.&X=.W ",
";...T } O.R..X .e.E.h.e.B.f.o.y.g.A.u.r.A.g.r.&.g.&.y.T.g.o.R.R.B.D.A.D.J.J.H.A.H.).)..X.XY.Y.D.D.D.R.J.].].+X+XoX.XoX].D.D.].oXT.B.A.T.T.T.T.T.].A.D.J.'.B.B.H.T.D.'.&X&X@X[.U.Y.E.R.=X].].].].#X].@X[.R.[.R.T.D.J.R.J.H.J.J.R.D.R.R.].].].@XoXoXoXoXoXoX.XR.R.'.].'.H.oX'.H.'.[.@XoXoX[.oX@XR.Y.E.R.oXR..XR.R.^.J.oX^.^.^.oXE.'.[.E.[.&XoX@X@X@X&XOX@XR.oX*XR.[.-X2X@X@XOX#X*X].'.].@X].A.E.OXOXR.oX~.>XOX#X].R.OXR.D.R.*XOX@X@X@X&XOX-XoXD.Y.[.;XR.oXA.oXOX#XqX'.].].oXE.-X-X#X.XoXoXOX-X-X3XR.E.Y.*X-X=XtX@XoX@XOXT.@X] g F.u.5..XXXd.y.A.f.].u.u..XA.A.k.F.OX@X&XoX'.@X@X].@XD.].[.R.R.Y.Y.].oXoX.XoX+XXX@XJ.R.].].R.Y.D.D.A.F.F.Y.R.D.A.A.D.D.B.J.R.].].'.R.OX].R.oXoX@X.X.Xf.D.OX.XJ.oXR.-XoXY.E.oX^.-XY.OX&XOX*X-X8XyX8X-X-X-X@X^.R.R.J.J.J.J.R.J.R.R.-X-XoXR.oXoX.XD.k.OXR.D.D.R.oX@X@XD.J.R.R.D.D.F.R..X@XR.oXoXR..XD.J..X-X2X+X#X=X].].].].+X+X+X].J.^.J.J.~..X~.J.J.H.Y.E.E.oXoX^.J.@X@X#X@X].R.].[..X#XoX.XR.D.R.D.T.E.E.E.].E.Y.Y..XJ.R.R.R.R.R.oXoX#X-X2X2XoX@X@X=X=X2X@X-X=X#X=X#X#X2X].@XR.[.D.Y.oX.XR.-X7XwX8X-XoX@X@X-X2X3X-X-X&X&XT.h.D.e.W ",
"k ~ ;...e.].u.g.e.U.g.A.q.Q  .D. .g.A.D.g.&.$.r.f.e.B.R.].g.e.g.g.D.Y.J.D.B.H.H.b.).].+XoX^.E.D.A.k.oX].R.H.H.J.N.B.H.R.H.R.A.o.T.U.R.E.D.D.U.R.].H.A.H.T.H.D.H.+XoX;X-XE.Y.R.Y.Y.D.D.[.oX@X@X].[.R.].].oX[.R.]..XR.].J.D.J.oX].D.T.H.R.R.].@X@X@X.XE..XoXoXE.D.'.oX@XR.@X].R.oX[.[.[.[.[.[.oXH.J.E.E.*X.X.XJ.~.Y.k.D.F.D.D.^.Y.T.oX[.R.OX@X;XoXOX@X&XOXE.E.Y.U.[.[.@X-X@XT.D.*XoX'.].oX@XY.OXoX~..XXXOXA..XD.].-XD.g.*X&XR.T.OXoXY.E.E.E.oXoXoXoX-XD.*XY.u.*X.X#XH.-X#XR.R.F.oX#X#X7X-XY.*XyXOXoX9XOXoX8X3X=X@X*XOXT.[.@Xg.' } y.J.].D.~.e.&.R.oXoXD.F.k.A.k.S.@X].@XoX].oX.X].@XT.'.R.].[.D.E.T.R.R.R..X].]..X].R.].R.D.A.Y.R.g.D.D.Y.R.T.D.B.R.R.H..XH.D.H.].J..XR.J.R.]..XR.oX^.F.-X.X@X-XJ.Y.E.OXE.oX*XE.*X-X-XoX-XuX8X7X2X@X].].R.A.A.J.J.]..X].].^.OX.X*XoXE.J.oX#X*XoXE.E.oXoXoXE.R.R.[.J.J.J.J.D.A.D.F.H.].]..X#X^.oX^.@X#X2X-X+X#X2X{.R.].R.]..X.X].H.A.D.J.J.J.J.J.J.J.Y.E.^..X.X.X.X#XR.H.].+X=X@XR.].oXR.@XoXD.R.J.Y.[.oXoX[.E.E.oXoXR.R.R.~.~.J..X2X3X-X2X#X.X#X2X@X@X@X[.=X@X=X@X].].#XqX'.@X=XT.oXE.#X7X~.F.7XyX#X*X7X&X2X3X3X'.oXE.=X=XI.=XB.%.",
"E h e ;.w.%.%.} g.e.h.f.! e.%.%.6.f.&.y.A.r.e.x.B.6.g.B.R.E.*. .A.D.D.D.R.H.J.V.).).).+XR.A.Y.oXF.r.E.oX@X+XJ.H.J.A.N.J.A.H.H.g.].R.oX[.D.D.Y.T.H.'.H.D.B.].R.D.oXH.R.E.Y.oX^.F.D.J.E.R.].].@XT.].oX].[.@XD.f.g.D.D.R.R.H.R..XH.H.H.D.].oX].@X&XoX.XoXoXY.Y.R.T.D.R.@XR..X].].oX[.&X[.@X[.[.[.D.R.E.Y.#X~..XF.~.F.F..XoXR.g.^.oXoX[.R.R.OXR.@XOX&X;X9XoXE.*XoXoX@X&X[.oX-XOXE.Y.2X-X-XoX2XOX*XA.J./.k.J.k.#X.XJ.OXD.F.-X@XOX@XR.@X;X;XD..XoXoXoX=X@X&X^.oXR.oX#X@X2X@X#X-XeX#X>X#XoX.X2XOXoX9X7XOX8X7X-X8XqX2X3X-X7XR.Y.@Xl ' } d y..X~.7XD.*.g.R.-XoX~.F.F./.!.[.D.R.+XoX.X]..X+X@X@XT.oXOXD.OXY.Y.]..X.X].R.oX].H.]..XR.R..XY.D.^.R.Y.W.W.R.B.R.Y.A.].R.H.H.J.H.].J.H.R.].].J..X#X@X.X.X].].+XE.OXOX-XF.oXR.D.#XR..X>X.XJ.OXoX2X.X.X].A.A.R.E.H.J.].D.oXoX^.Y.J.R.Y.E.E.OXOXoXoXoX^.^.^.E.R.T..XR.J.J.J.D.D.D.'.@X.X#X@X.XR..X.X.X#X=X#X2X2X].Y.J.J.J.]..XR.H.D.E..XY.A.N.D.H.R.R..X.X.X.X.XoX@X].].@X@X#X#X[..X#X.X.XoX.X*X^.[.T.B.D.[.oXE.E.oX[..X~..X.XJ.R.-X2XoX@X#X@X<X].}.+X+X+X=X@X6X@X.X3X+X#XH.[.[.@XoX*XOX:X#X#X7X8X7X*X8X8X3X2X4X@XOXOX=X&X[.I.*.D.",
"A.e.H } H.u.y.+XO.e.r.&.} k...} F.q.j q.&.*.e.R.D.&.A.A.J.F.F.J.@XD.D.OXB.D.H.N.A.J.R..XR.'.T.'.J.F.OXD..XoXR.H.D.B.D.D.R.@XR.R..X.X].].R.J.R.E.'.'.'.T.H.R.A.&.Y.D.D.D.R.[.y.B.J.R.R..X@X.XR.@X@X@X].H.oXY.E.F.E.R.T.[.D.y.g.B.B.].H.J.H..X].R.&X@X[.].R.oXR.oXoXE.oXR.U.[.W.[..X#XOXoX#X@XoXoXD.E.R.oXoX.X^.R.F.F.oX.X.XJ..X@XoXoXJ..X^..X^.E.@X;X[.@X@X].&X@XoXE.@X&X[.=X2X].OX*XOXE.D.#XoXu..XE.A.R.[.-X&XB.].H.N..X-XoX#XoX[.B.B.-X&XoXOXoX@X@XR..XJ..X#X@XOXE.OXOXR.-X*X:X].@XOX-X>X*X>X9XR.-X>X;XqXfX'.@XuXF.U F.Q f } k.~ O...J.].[.R.oXoX*XE.D.oX.XoXR.H.J.R.R.R.J.J.R.T.T.[.[.Y.Y.R.Y.T.&XoXH.].].].].R.J.J.R.].R.T.T.].+X].R..X.XY.Y.A.H.D.R.R.J.R.R.@X@XR.J.XXJ.~.J.#X@X@X@X'.H.+X+XR.].R.R.R.H.D.@XE.oXoX*X7X9X7X#XoXOX].D.H.T.].[.].'.].].].@X@X].R.@X*XoXoX#X#XoX^.^.oXs.F.:.Y.E.D.x.Y.F.D.J.H.Y.U.[.[.].].oXoX].[.H.[.+X+X2XoXoX].T.C.H.'.+X].J.J.J.S.A.A.D.F.F.D.H.R.].R.E.oX^.oX#XOX].]..XR.@XoXOXOX#XOXoX^.^.R.H.D.R.[.#X-X@X].+X{.{.+XZ.H.).].#X#X-X2X=X+XH.,X1X'.].}.].+X[.@X@X6X].T.E.E.OXoXE.-X-X7X7X@XyX2X[.@XqX3X5X2X'.7X7Xq.q.3XQ 6.e.",
"Q U u.g.R.oXH.H.g.oXk.F.A.lX..} j ~ Q A.*Xq.;.g.&.q.g.A.D.].H.].g.D.g.E.R.B.B.H.J.R.J.].H.T.T.[.u.r.].H.R.R.R.@XA.j B.D.].B.[.].].+XoX].R..XR.A.T.T.T.D.D.E.@XR.E.Y.Y.R.R.oXD.D.J.].R.R.R.R..X7X2XR.2X7XoXoXg.oXR.E.[.oX].R.R.D.H.H.D.J.R.R.H.J.&X[.R.].R..XJ.J.D.E.oXY.R.&X@X[.@XoX#X].-XE.oXoXR.^.F.R.Y.J.R.F.F.F.!..XR..XoX].@XoX@XoXoX*XoXoX@X;X@X].oX-X&X[.-X[.@X@XT.N.D.6XoX@X&X#X2X8X7X#XR.*X*XOXoX[.oXB.].@XoXoX.XoX#XOX;XB.g.-X&XR..X*X#XoXR.D.#X#XoX2X;XoX-X8X-X>X#X>X#XE.>X*X^.oX9XeXoXOX9X9X#X@X6XoX' ; } d.y h.g. .L O.~ J.@X].#XOXoX*XD.D.oX@XR.J..XoXR.J.J.J.J..X[.[.[.oXoXOXOXR.T.&X-X@X@X.XH.J.J.J.J.R.].R.T.T.J..X.XR.oXoXR.A.e.A.D.D.R..X.XJ.oX@X].].].J..XOXS.A.J.oX#X#X).H..XJ.].D.].R.R.&XE.E..X*X8X8X>XOX7XoX].@X[.R.H.f.T.[.@X@XoX2X].A.].@X&XOXoXoXoX.X^.E.Y.g.F.u.D.R.F.D.Y.D.D.J.J.E.R.[..X].].oX.X].oXH.oX+X+X#X.X.X].'.H.T.].+X].J.H.D.A.H.R.].R.H.g.H.].oX].R.E.E.oXoXoX.X.X].].#XoXoXoXoX.XE.R.R.R.R.R.R.[.+X+X[.@X+X+X+X].C.N..XoX#X#X-X-X=X#X].H.2X[.'.2X#X].@X}.@X=XoXR.oX^.oX2XE.*X*X*X*X-XuX&X&XtXqXqX@X1X}.R.K L T.y.K 8X5.",
"B.Q } oX7X.XR.D.#X#X;.k.w.oX} D.Y.H F.D. .F.d.&.8X3X3X9XR.g.].R.5.-X@X[.H.g.B.B.J.J.H.J.R.].T.H.'.].+XH.J.oXR.D.D.Y.8XB.oX-XR.H.].'.J.J.R.R.R.J.B.H.R.H.B.D.T.D.Y.D.D.Y.D.'.R.D.H.J.A.R..XoXJ.D.2XN.g.#XoX.XF.Y.Y.T.[.@XoXOXoXU.N.'.#XJ.J.].R.oXR.R.[.oXH.J.J..Xg.J.oXY.Y.oX[.R..X~.oX.X-XE.E.E.J.R.Y.R.^.R.R.F.F.R.R..XE.#X.XR..X.X-X]..X*XoXOXOX&X;X@X@X@X@X=X@X@X@XR.oX[.R.[.E.@X&XoX2X-X-X2X*X#X#XOX;X[.OXOX2X].].OX-XoXoX-X;X&X].oXoX#X*XoX.XoX8XoXR.].2XA.oX@X2XoXoX#X@X#X#X.XeXOX*X-XeX7X8XoX7X-X3X1XqXtXW Q L } 7X7X} 0 &.e.&.D.@X#X.XA.oXE.D.R.H.R.J.R.oX#X].D.J.J.J.oX@X*X[.[.@X@X@X].].&X@X[..X].J.R.R.R.R.R.R.R.R.Y..X.XR.D.D.oXoXD.A.D.A.H.R.J.R.R.#XoXR..X].].XXXXS.} F.#XoXOX#X+XoX.X].R.*XoX-XoX^.E.OX-X-XOXoXoX.X^.D.J.oX'.H.'.@X@X'.'.H.-X].@X].].oXOXOXoXoXoX.X.XD.Y.R.J.R..XR.Y.Y.F.J.R.J.E.R.oX.X].]..X.X].R.D.]..XoX#XoX.X].].'.].+X+X].J.A.H.R.R.H.A.B.A.A.D.]..XR.Y.E.[..XJ.E.oX.X]..X-XoXoXE.^.^.R.R.R.J..X].R.].].].].].+X+X'.H.@X)..X.X#X-X@X].R.#X3XH.=X2X#X#X@X@XoX@X1X=X@X@XOXOXoX-XoX-X9X-XOX7X9XtX3XR.qX3X2X'.fXT.W &.T.U.3XtXI ",
"u..XA.].-X8X-X8X@Xu.D.#X7Xk.#XoXA.y.q.Y.Y.A.D.y.-X[.*XE.oXR.oXoX].B.g.oX[.R.].B.D.J.J.J.H.].J.H.oXH.'.R.H.D.D.oXD.D.B.].H.].'.]..XJ.H.J.R.J.R.].B.H.'.R.T.D.D.D.D.J.D.E.J.Y.].H.J.R.R.].R..XR.R.OXD.e.R.*XE.*XA.Y.D.[.@X.X^.R.OX].A.].].@XR.H.#X&X[.R.].J..XF.A.D.Y.E.E.Y.D.T.R..X.XoX*X*X*X@XOXD.J.R.^.OXE.oX~.k./.R.R.OX@XR.oXoX.X2X.XoX@XoX#X@XOX&X=X-X@X@X2X@X'.R.[.2X@X[.].OX@XoX].@XoX+XoX*XE.D.R.*XoX.XOXT.T.@XJ.J.R.R.oX].[.R.oXoX#X#X#X7XoX.XqXJ.-X7XR.@X2XtX[.oX7X7X2XoX#X8X7X7X*X7X9XR.OX*XT.#X4X6X}.tXuXJ.U *XB.j  .&.r.F.J.'.oX.X.XY.Y.R.J.J.@XJ.D.T.#X.XH.R.].J.].OX-XoX[.oXR.oX@X@X@X].H.R.oX.XoXR.R.R.R.R.R.R.R.J.J.R.].E.OXoXA..XR.D.R.].H.H.R.oXR.H.@XoX#X#X@X2Xr.@X-XJ.J.#X@X#X8X#X#X#XR.3X].oXoX*X-X&X[.[.[.>XoXE.D.g.D.].H.].T.T.].@X8XoX2X].R.R.OX*XoX.X].].].H.R.Y.F.J.^.oX^.^.R.R.].J.R.E..X.X].]..X.X].R.J..X.XoX#X+XoX].].[.}.+X+X].'.H.D.A.D.J.J.D.B.A.D.R.].R.R.E.oX^.D.^.OX.X]..X#XoXoX.X.X.X.XR.E.J..XJ.D.'..X].[.].+X.X'.H.@X].J.oX#X=X@X'.H.].=X#X=X2X=X+X@X2X@X=X2X@X@X@X[.*XOX&X@XOX9X7X*X7X9X&XR.@X[.=X=X3X'.uX;X3XR.[.7X6.Q ",
"g.@XI g.zXoXoXoXJ.zXD.E.-Xe.u.D. .q.y.*.*X7X8XoXk.j F.^.F..XXX#X[.o.5.g.B.R.].B.H.].].].A.D.H..XD.T.T.B.B.].].].J.D.A.J.g.H.=XD.]..X.X].].].R.D.R.R.T.H.H.H.T.U.D.R.D.R.oXD.J.J.R.R.D.J.R.#X.XH.~..X~.oXOXR.R.Y.E.D.[.oXE.R.R.*X3X.X<X+X2X-XoX2X+X].].].Y.R.A.k.T.E.oX.XY.D.U.oXOXOX.XoXoX;X*X&XR.E.E.R.^.R.OXoXF.J.R.E.*XoX.XoXR.R.oX].].D.R.R.R.&XR.].&X;X2X[.@X[.[.[.D.6.[.&X&XD.D.@XoX].[.@X.XOXoXR.E.oXY.Y.[.].2X].].oX].oX].@XoXOXoXoX~.OX.XH.#X-Xn #X#XoX].[.3X#X2X2X@X-XeXoXR.8X*X-XyX-XcXOXE.;X'.C.5X3X=X@XOXu.q.e.n &.&.e.k.oX8X2X#XF.A.R.oXJ.oX-XR.B.D.@XoXR..X.XJ.].OX-XoX@X@XR.].@XoX@XoXR..X#X#X.X.XE.E.].].R.'.].J.H.R.oXoXoXoXR.J.^.Y.R..XoX@X].].'.].#X].@XoX@X{.#X[.].'.].D.T.E.#X#X-XY.D.@X3XOXOXOXOX;X-X;X@XE.oXJ.A..X#XoXOXH.D.R.R.2X8X@X@X[.R.R.OX*X.XJ.H.oX[.].R.J.A.J.~.oX.XR.R.R.R.].R.R.].].]..XoXoX].oXoXoX.XoX@X[.[..X+X+X}.}.[.].].].J.J.R.].].R.R.A.g.E.oX@XOX].].^.Y.oX#XoXoXoXoXoX.X.XoXoX.X^.R.T.'.H.B.R..X]..X).J.'.+X@XH.].].=X@X+X=X-X[.'.H.#X2X+X[.-X=XoX2X[.-X@X@X].R.@X&X-X&XB.@X7X9X-X9XyXtX;XoX[.H.T.2X[.&X&X[.f.D.y...",
"B.B.' ' -XoXoX-XR.pXR.g.8XH.oXu.] R.A.e.Y.oXoXD.oXe.k.OXXX~.A.p.].].8XT.e.H.oXoX].H.H.oX].R.R.@X*XY.D.R.oXJ.H.H.J.].].H..X#XoX@XR.].].].).J.J.J.J.R.H.H.J.D.B.h.J.R.D.R.oXD.D.J.A.J.oX.XD.D.J.R.J.XXu.OXE.F.T.R.Y.Y.[.].R.~.^.oX].#X3X).].2X#X+XJ.oX@X].D.D.d.S.B.E.oX.XR.E.@X@XoXoXOXoXOX&X*X[.OXOXoXE.E.J..XoXOXJ.oXOX#XoX*XoX.XoXoX@X@X].+X+XoX=XR.[.@X@X-X[.[.@X@X[.B.y.@X@X[.B.B.@X'.@X@X[.oX#XOXoXR.OXE..X=XH.].R.@X[.R.oX#X>X*X#XOXoXF.OX#X7X.X-XOXoX-X*X@X@X8X2X8XqX2X2X7XOXf.*X-X-X7X*XhX[.&X@X@X'.7.H.@X-Xr.J.uXe.H q.e.~ F..X+X2Xy.F..X;.k..XoXoX@XJ.H.+X+X].oXoX].].@XoXoX@X@X[.'.[.].@X#XoX.XoXoX~.^.^..X.X].].'.]..XR.Y.R.R.R.oXOXR..XF.J.].oX@XoX'.R.'.'.'.+X[.].N.}.H.@X[.=XN.@X*XR.*X-XJ.Y.6.[.oXOXoXoX*X-X-X*XoX^.OX*XOXOX*XoXR..X.XD.oX@X-X].[.R.R.oXoX.XJ.J.oX[.oXR.J.D.oXXX.X^.Y.F.H.H.].^.R.].]..X+X@XoX].oX#XoXoX@X@X[.].+X+X+X+X[.].].'.J.].@X@XR.H.Y.oXH.g.R.oXOX-X].].F.J.oXoX.X@XoXoXoX.XoXoXoXoX.XE.'.'.H.H.].].].].b.A.'..X.XA.oXXX-X#X[.#X2X=X@X[.1X+X+X@X-X=X[.oX].@X-X&X[.].@X2X2X2XB.R.-X7X*X7X3X&X@X[.;XH.B.T.&XE.T.E.oX7Xk. .",
"[.2Xy.g.#XJ.9X-Xu.9XuX.XH.[.@X8X-XOXe.Y.E.7XF.A.u.OXXXXXr.q.XXk.].].3X[.B.D.R.].S.N.N.].oX+X].[.F.Y.^.H.J.N.H.G.D.R.].R.H.'.J.A.R.H.H.].].J.F.].u.A.H.J.].R.D.D.E.R.Y.R..XJ.~..XoXR..XJ.J.J.oXR././.;.oXR.E.oXR.Y.Y.Y.R.J.J.^.E.@X.XJ.].#X2X@XoX#X2X[.R.].R.r.r.D..X.X.XE.[.&X[.oXoX*X-X#XOXOX[.@XOXoXOXoX.X^.R..X.XOX#XOXoXoXoX]..XoXoXoX@X[.[.&X=XoX@X@X].@X=X=XT.'.'.@X'.@X@X@X[.@X@X[.@X@X].E.D.E.oX.XoX.XOX].].2XR.oX[.@X-XoXE.J.OX*X^.A.eXJ.g.wXD.#X*X^.oX6X#X6X2X=XqX3X6XoX>XR.-X7XoXOX9X2X .oX=X@X5X2X[.y.O.O.J.yX&.*.oXz.A.w.@X2X2X-XS..X..&..XOXoX#XD.H.].].'.]..X]..X@X.X#X[.].@XR.R..X.X.XoX~.R.^.^.^.^..XoX.X].].+XR.E.^..X.X~.R.~.oXoXJ.R..X]..X.XH.D.H.H.+X6X#X+X+X}.].}.@X@XN.+XY.g.Y.E.oX7XA.*XoXoXOXoXoXoXOX#XE.*XOX.XoXOXoXoXY.oX.XR.].R.#X'.].].].R.R.]..X.X'.R.R.D.D.R.*XXX.XoXY.F.H.G.R.R.J.R.]..X+X@XoX].^.oX^.E.@X@X[.]..X+X+X+X}.[.].'.H.G.H.R..XE.R.R.].A.E.^.oX&X[.[.D.J..X]..X@XoX@X@X.XoXoXoX.X]..X].].].].].R.R.].G.).+X].H.J.XX~.=X=XoX@X@X@X2X2X=X'.-X2XoX@X@X].oXOX-X&XoX+X+X-X-X2X[.[.>X-X*X*XtXe.e.hX].3X2X}.Y.u. .y.*XoXy.Y.",
"l y.] @X#XD.eX7Xf.Y.7XJ.e.tXD.y.e.D.*XD.y.*XA.F.f.u.d.d..Xk.F.OX'.R.@XT.T.[.&Xy.r.A.S.H.A.J.R.].x.d.k.k.R.N.H.H.D..X].]..Xg.].N.H.J.R.]..X.XJ.A.N.D.B.g.A.A.D.U.J.A.D.D.F.J.XX~.J.A.R.R.oXR.oXJ./.F.OXOXD.E.Y.E.E.Y.D.].J.k.R.oX].+X].+X.XoX]..X@X-X].R.@XOXA.F.oXoXR.oX[.R.[.[.oXoXE.#XD.R.E.@XE.oXE.OXoXOXoXE.q.OXOXoX*XoXD.*XoXoX#X.XR.=XT.T.oX@X@XR.oX2X-X=X|.[.&X5.B.@X@X|.@X@X@X[.}.H.'.@XD.D.-XOXoXoXoX.X2X'.oX].@XR.].@XE.*XoX^.OX#XF.OX7XoXR.oXoX*XoX#XqX].+X3X1X3X1X3X>X*X.X@X7X7X7X7X[.cXhX@XqX1X5X8.OX..;.F.q.*.E.q.Q e.A.#X@X2XA.L } .X~.~.oX.XD.J.D.H.'.R.R.].]..X@X[.2X'.H.oXR.T.].D.J..X.X~.^.oXR.E.^.oX.X].].+XoX&XoXR.^.^.!.^.F.oX.X.X@X-X@XH.].+X2X'.#X#X].|.+X+X#XX.@X@Xy.e.F..XE.D.E.#XOX*XOX.X^.oXOXOXoXOX^.OXoXD.J.*X#XD.R.R.D.oX].D.#X#X[.@X@XR.D.R.oX#XoXoXR.Y.D.oX>XXX@XOXE.R.H.A.F.F.J.].]..X+X+X[.].J..XY.Y.oX@X'.'.].].+X+X+X+X[.].).F.H.J.R.F.D.D.].D.^.oXOX&X'.'..XoXoX.XoXoX].@XoX.X.XR.R.R.R.E.+X[.+X+X].J.].@XOXJ.].+X].#XoX#X2X=XoX[.oX[.@X[.].+X-XoX+X-X@X;XOXoX@X[.].[.'.+X;XoX@XR.3X>X8X-X&X@X9X&X;X2X3XZ.u.J.&.y.R.g.*X*X",
"r @XQ f.3XH.#X@XE.@X2XB.q.>XY.Q w.F.:XF.OXE.7Xr.oXJ.#XoX-XA.e.A..XoXR.@X[.H.N.'.].].].R.R.R.@XR.D.t.e.B.N.B.A.D.D.D.'.[.T.'.'.N.J.J.A.A..XD.y.u.D.D.B.g.D.R.R.J.Y.D.D.R..XA.^.oXF.d.A.k.J.D.H.oXoXoX.X.X~.J.^.^..XR.Y.E.g.Y.E.oX]..X].].+X=X.X2X*XE..XR.#X.XR..XoXoXOXR.oXR..XR.R.=X[.R.e.@X*XOX@X@X&X@XR.OX^.oX^.J.F.OX@XoX@X#X=X@X[.@X@X@X[.Y.&XT.&XoXOXF.*XD.@XoX'.T..XN.B.#XoXoX@X].@X].-X].2X].D.oXoXoXR.oX].-X].@XH.@X2X'.@XoXoX-X.X#X2X@X8XoXoX@XoX@X#X-X-X-X&X2X@X3X2X].@X}.@X=X@X2X#X7X2X2X8XqX#XB.hXB. .*XA.O.-Xy.y.U H D.q.D.-XOX&.$.;.A.F.^.R.y. ..XJ.J.B.H.R.R.[.].@X2X'.=XH.@X@XE.'.@XoXT.R.oX.XJ..X.X].OXoX*XD.#X-X].].[.].].].'.'.].oXOX#X@X.XJ.oX#XOX.X[.@XoX[.1X[.].A.[.[.].v..XoXR.H.D.oX@X@XoXg.-XoXoX-X.XOXE.Y.Y.R.oX.X#X].D.E.oX]..X@X#X.XN.R.H.].B.[.T.[.oXR.[.+X].@X3X#X*X#XoXJ.H.H.).|.R.R.]..X.XoX.XJ.XX@XoX].@X[.'.'.T.R.].oX+X[.].R.R.'.].'.R.R.R.'.F.oX~.R.-X#XJ.J.].[.@X@X[.[.}.[.oXoXOX.X.XD.R.oX.X^.^.oX.XJ..X@XoX.X.XoX.XOX#XJ.A.J.oX-XoXoX=X[.@X[.=X6X#X2XH.T.&XOXE.R.R.oX=X].@X@X'.@X.X*XoX*X=X1X5X5XqX@XH.gX} oXyXg..X].R.u.",
"Q f.[.] B.T.qX8XA.2XzX].R.x.F.7X*XA.:X7X#X7X~.k.R.].R.D.g..XS.A.2X.X].].D.H.H.N.J.R.R.J.R.H.R.D. .' e.].y.u.N.].F.H.H.T.B.'.T.N.k.J.R.J..Xg.N.#XR.D.A.D.F.J.F..XJ.Y.E.D.R..XoX^.x.k.D.d.J..XoX@X;X].J.oXOX~.J.k.OX.XE.oXY.E.E.E.].@XoXoX+X2X@X2X@X@XoXR..XoXR.R.oX^.oXF.R.J..X^.].@X@X-X@X@XoX-X@XoXoX@XoX*XoXE.F.~.R..X-XoX@X2X=X2X@XR.].*X&XR.@X&X@X;XOX*.OX*X].@X[.'.].].R.@X].[.&X].R.e.D.].R.J.R.#XOXoXD.D.@XoX@X;XT.T.2X-Xu.].oXR.#X.XD.7X].-XoXoX#XoX@X-X*X8X-X;X].R.-X-X#X5X#X@X.XoX7XoX2X2XqXR.H.3XN.].&.u.>Xz &.N.y.U } D.g.D.D.F.R.Y.^.R.^.*XR.E..XR.H.R.H.R.R.H.+X+X[.+XT.[.T.oXOXT.T.'.'.R..XoXoX.XoX.X.X.XoX*XR.-X2X#XoX].].+X].H.[.[.oXOX@X@X#X#XoX*X*XOXOX@XoX[.8.'.2XoXR.T.}.@XoX.X.XoX].R.R.[..XA..X^.R.oXOX*XoX7X.X.X-XoXR..X[.Y.Y.oX.XR.J.R.D.D.R.D.T.H.T.H.[.].].].].@X2X2XOXE.H.H.H.H.J.].].]..X+X+XoX.XJ.J.].].'.@X@X[.[.E.].].].}.[.].].].].'.R.T.T.R.'.J..XR.Y.oX.XJ.J.oX].'.[.[.[.[.[.E.R.E.R.oX].oX#X^.oXg.u.R.].R..X.XoX.XR.J.].oXJ.O.A.oX@X.X#X8X#X=X].1X].#X@X[.[.;X[.R.oXoX.X=X2Xy.oXoX@XOXoX*X*X6X3X3X2XH.].@XN.k.O.wXu.6.R.R.e.",
"OXe.y.y.].-XN.8XA.].2XoX;.9XF.e.7XF.;.K E #Xk.u.-XR.u.R.A.-Xg.A.H.oX@X].R.'.'.H.R.].].].R.].R.]. .} B.].t.N.B.J.J.].H.T.B.H.y.y.k.J.J.D.D.y.y.R.D.g.A.A.D.D.D..XoXg.A.A.^.oXF.F.F.F.J.D.R.].].oX=XR.D.]..XJ.~.^.oXE.R.oX.X^.Y.R.R.oX@X@X[.=X#X#X.X.XoX#X@XoXD.J..XE.oX^.R.R..XR.'.=X2XoX-X@X@X-X@X@X@X#XoXoXE.J.oXoXF.D.-XoX].J.H.&X;X].R.oXOXE.OX;X@XY.*X*X-XOX=X2X=X#X].@X].].oX[.R.H.oXH.].oXN.].*X-XoX[.oX=X-XoXoXoX2X@X-XoXg.R.8XoX-X-XR.R.8X7X#X@X@X@X-XwX2XI 8X-XqXqX2X2X2X2X@X].-X7X.XoXH.-X].@X].2X'.H.r.&.OX-XU y.u.e. .e.*.J.R.F.oXF.F.#XR.R.^.R.R.^..XB.R.H.H.+XR.[.].'.'.'.[.].oXY.[.].'.].oX.XE.oX@X.XoXR.].oXY.oX@XR..XoXT.].+XH.[.oXXXOX@X@X@X#XoX#XOX.X[.[.[.[.'.-X.X.XH.'.H.).oX].@X@X-XR.R.].oX.X.X#XE.oX-X-XE.oXE.oXoX.X].J.E.Y.Y.Y.R.H.D.H.D.H.R.R.R.T.H.H..X@XoX.X@X#X#X2XOXY.A.D.H.H.H.H.R.J.]..X+XoX].H.H.H.'.'.[.[.@X[.oX].R.'.].].[.].'.'.'.'.'.H.H.B.J.Y.Y.E.oX.XJ.J.E.].].[.@X@X[.T..XoX#X.X.XJ.].oXA.E.*.} D.R.D.].R.oXoXR.J.].@X.XD.oX*X#XoX@XoXN.@X=X2XB.T.2X6X@X@X'.R.oXoX@X2X2Xy.2Xg.OXOX-X*X-X@X2XoX'.].R.2XD..Xr.g.7X-Xy.8Xy.",
"Q #XB.oXD.@Xu..Xg.8X2X@XF.:.:.q.>XF.;.L j OXoXj &.J.D.oXg.*Xe.e.g.oX;X].&X@X+X{.].H.H.R.].[.e.&.D.O.B.A.H.J.D.J..XH.A.oXR.6.o.A.k.J.D.g.J.D.B.A.J.Y.Y.J.D.F.R.~.D.Y.oXJ.D.D.D.F.^.~.^.oXoXJ.J.oX*X@XR.].J.D..X@X.XoXoXoXoXoXE.E.R.oXoX#X[.@X@XoX.X.XoX-X#XoXD.R.oXE.oX#X.XoX@X].].2X2XR.@X-X2XoXoX@XoX@X@X[.OXE.R.oX.X^.oXR..X@XD.].-X&X[.R.[.@XE.oX*XOX*X-XOX#X;X@X@X2X@X@XoX+X@X&X@X'.@XR.oX@X@X&X@X[.[.&X&X@XJ.@X2XR.R.R.oX#X-XA.-XwX7X-XoXJ.8Xg.oX7X-X8X2XyX7XQ -X-X2XH.7X#X3X[.3XoX#X-XJ.oXoX].R.].H.].@XB.*XA.k.:X-XzXy.Q q.q.L A.*XR.F.R.^.D.A..X^.E..XA.A.].J..Xg.e.oX[.'.'.@X=X@XR.].[.oXoX[.oXoXE.R..X].].@XJ.].R.R.R.R.#X2XoXR.oX@X].R.]..XoX#X@X].D.oX*XOXE.E.OXoXoX@X].u.A.H.'.H.].'.].@XoX=X@X@X[.oXoXR.-X.XoXOXOX#X.XoXoXoXR.R.D.T.Y.Y.D.H.R.J.D.D.R.R.oXH.T.T.T.R.oX@X@X#X#X@X#X-XoXY.R.R.J.H.J.H.H.'.].].[.].T.R.H.[.[.[.'.@X'.[.R.R.'.].[.].R.J.R.].].R.R.H.D.D.A.D..XoX.XR.R.R..XOX@X@X[.'.T.oXoXR.R.oX#XoX.XA..Xg.e.J.R.R.].J.oXE.R.R.R.oX@XoX#XoXOX#X-X@XJ.oX.X+X1X@X=X].+X;X&XoX@X@X.X@X.XoX8Xu.A.-X*XOXoX=XT.R.-XH.H.2XA.g.f.f.hX8X2XbX5.",
"f.q.y.;X]. .oX@X8XhX3Xg.r.~ r.9X>XA.XXzXr.XXXXk u.R.g.q.q.F.q.k..XR.OX[.].oX@XH.@X.X].T.H.'.B.R.R.H.J.o.%.N.A.J.g.oXoXg.A.D.D.D.d.J.F.A.D.D.A.D.D.R.D.Y.A.u.F.A.J.J.D.R.R.J.F.A.Y.J.F.E..XY.R.oXoXoXR.].].].oX]..XoXoXY.E..XE.J.oXoX].-X=X@X=X@X.X@X@X.XR.oXJ.E.#X.XoX@X.X@X-X@XoX'.oX@X#X&X-X[.;X&X[.OX-X@X@XH.oXR.F.oXR.E.oX.X[.].oX&X-X&X@X@XR.oXE.-XOXE.OXR.#XR..X@X@X.X#X@X[.[.R.oXOXB.D.@X'.[.@X[.@X;X&XR.]..X-X@XH.#X-XD.@X-X@X#X-X2X-X-X7Xg.oX7X-X8X-X8X8X8X#X2XR.B.@XoXwXH.J.#XoXE.E.oXoXY.@X].-X@XN.D.R.J.O.u.;X8XB.I &.f.Q g..XF.k.oX.Xg.D.R.E.].J.H.D.].R.oXg.q.oXoX'.@X@X-X+X].R.oX].oXoX.X].E..XoXJ.R.@X].oXoX@X[.oXoXR.oX#Xg.e.@XD.R.XXoX@X&X].A.R.#X@XR.E.oXoXR.@X.XA.g.H.H.y.y.H.].'.'.oX2X@XR.]..XR.-X.X-XoXoX#XOXR..X#XR.N.R.R.H.H.R.R.Y.J.Y.D.R.].J.T.H.'.H.D.H.oX-XoX@X#XoX*XoXE.R.R.R.R.R.H.J.].+X[.+X+X].oX].&X@X@X[.+X].[.E.R.].}.+X].T.J.J.J.J.R.R.oXoXD.A.D.]..XE.E.Y..XoXoX].R.].'.R.R.].R.R.oX*X#XoXE.E.E.E.F.J.oX].^..XR..X.XR.].@XE.OXoXoXOX#X-X-X#XoX[.2X=X@X'.#X=X'.T.#X#XR.]..XoX-XJ.u.OXY.T.[.@X].R.-XD.oXoXD.oXoXE.[.E.yXtXf.",
"N E e.7X].4.y.u.;X-Xf.oXE L /.9XeX.XOX^.k r.XX!.R.d.q.g.oXD.&.A..XE.[.E.].].].H.u.H.+X#X'.H.B.'.oX].H.5.u.#XR.D.B.R.R.g.R.R.R.J.A.F.D.D.g.r.y.D.R.F.D.oXR.d.Y.Y.D.D.A.OX^.g.D.oXR.R.A.F.R..X].R.D.Y.T.R.'.].+X'.R.J.J.D.E.oXoXD.#X#XR.-X=X@X=X@X@X@X@X.XR.R.T.R.oXE.oXoXoXoX&X@X+XH.'.=X@X@X&X[.&XOX&XOX@X[.].B.oXE..X*Xg.g.Y.E.H.R.].oX@X&X@XR.oXoX@X-XoX@X2X3XoXR.oX]..X].#X[.oXY.A.E.*XoXE.oXB.R.&X&X;X-X-X@X.X2XH.R.OX-XD.J.&X2XR.-X8XoXJ.8X7X7X:X-X-X-X-X2XqX#X8X@XR.7XJ.oX-X-X#XR.oXOXu.oXoXoXJ.Y.oXR.B.].J.R...S.y.g.g. .&.J.u.E.J.F.A.J.Y.g.R.D.g.A.J.J.@XD.oXJ.D.oXY.oX'.@X[.[.'.#X].].Y.oXoXR.R.].oXOX.XoX#X+XoXoX=XoXoXoXOX.XR.E.E.D.D..X#XoX[.@XoXH.R.@XoXD.H..XoX^.'.].J.g.R.[.H.7.'.'.H.].[.#X].H.].].].@XoX2X.XoXE.E.D.-XOXOXf.D.D.H.J.J.J.R.R.Y.R..XJ.R.R.T.[.T.D.D.oX#X.XoX*XoXoXoXE.Y.J.J.J.J.J.'..X+X+X+X@X[.oX[.[.@XoX[.[..XoXE.R.].}.+X[.'.H.J.H.J.R.R.E.E.H.D.H.R.R.E.E.R..XE.Y.T.Y.E.R.D.D.oXoXoXR.E..X*XoXD.J.E.k.D.OXE.^.Y.F.oXoXR.].oXE.*XoXE.oX#XOXE.OX-X;XR.|.@X2X+X+X].'.#X2X#X7X#XD.OXoXf.Y.[.E.*X*XoXoXY.*X-XR.oX.XQ g.@Xf.R.R.f.",
": N k.u.B.f.@X[ D.8XtX2XR.OXoXF.8Xd.oX#XL ~ r.OXr.r.k.A.g.r.q.J.D.oX[.[.@X+X(.{.+XH.H.'.].T.T.B.e.o.B.@XR.B.A..XA.R..XA.J.J.J.g.A.A.g.D.D.A.g.Y.J.u.A.~.J.A.D.R.~.oXJ.J.F.oX^.Y.^.oXF..XoX@X.XR.Y.E.R.T.H.C.'.(.R.D.J.J.].oX*XoXoX#XJ.@X=X&X#X@X@X.X@X@X=X'.T.[.].].#XoX@X].@X@X@X+X@X@X=X=X=X=XY.T.@XoXoX[.[.R.oXE.Y.oXE.E.OXoXB.R..X.X].@X[.Y.*Xu.f.D.&X&XH.#XE..X@XoX[.#X2X,XOX*XOXOXOXOXOXoX].R..X.X-X@X@XR..X].oX-XO.e.oX*X[.&XoX].#X#XR..XJ.7X7X7X7X-X-X-XqXR.@XoXJ..X.XoXoXR.oXoX.Xq.t oX^.J.R..XJ.A.y.g.].7X7XJ.H.g.' ' y.OX^..XJ..XF.J.R.oXD.e..XJ.g.R.R.].T.E.E.F.oXoX].[.R.'.].#XJ.]..XoX.XR.R.].oXOX<X#X2X#X+X].@X]..XJ..XoXY.E.oXD.J..XoX.X[.[.].J.+X#X.XJ.J..XoXOX[.@X@XD.H.T.'.C.[.].'.].oXoX].J.]..X]..X.X@XR..XOXE.OX7X#XOXD.A.H.]..XR.Y.oXoXR.^.oXF.oXR.H.'.'.J.R.oX#XoXoXOXoXoXoXoX.XR.J.R.].].].].+X+X@X+X'.'.[.T.[.[.+X]..X[.E.R.'.].[.].'.J.H.J.R.R.Y.D.k.D.H.J.R.E..XE.R.Y.Y.D.D.Y.^.J.A.R..XR.oXoX#XoX#XoXE.F.J.J.R.oXoXF.A.A.E.R.H.R.J.D..XR..X-X-X-XoXoXoX-X;X2X[.+X.X+X@X].R.R..XXXA.E.E.*Xu.@X@X;X&X-Xk.OXoX-XE.E.Y.d.j E.oX[.[. .&.",
"; eXe.d.8X[.'.qXT.hXhX-X.X>.;..XoXOX9XOXOXk.r./.r.k.R.D. .O. .e.^.E.E.OX'.@X{.(.+XH.H.'.'.H.@X[.[.%.y.B.D.A..XA.J.].R.D.A.g.g.A.k.D.g.D.D.Y.D.D.J.u.R.R.F.R.D.J.^.R.R.D.r.g.f.Y.k.F.D.OXOX].R.R.Y.R.R.].T.H.].].].D.R.R.D.A.oX-X.X-XJ.[.&X&X=X#X@X+X2X[.@X@X@X&X.X.X#X].+XR.@X2X.X@X#X@X2X[.[.@XOXR.@XR.[.[.R.D..XoX.XY.oXE.oXR.#X@XoX.XoX@X@XE.R.-XOXR.&X[.[.@X*X7X2X3X@X=X#X#X*XoXE.OXOXoXOX*XoX.XoXoX-XoX@X@XR.#XR.*XF.Y.OXOX[.@X-XR.;X2XoX8XOXXX7X-XoX@X-X-X-X2X.XoXoX-XoX.XoX.X.XoX^.#Xe.^.R.oXR.^.^.g..XR.J..XJ.#X2XN.! d  .R.^.R..X~.u.A.[.[.Y.R..XA.J.J.H.H.g.D.oXE.^.R.[.T.Y.oX@X].A.oXoXoXR.R..X.XoXOX+X+X#X1X+X+X-X+XoX-XoXoX7X.XA.oXJ.F.J.].&X[.R.D.R.'.].R.R.J.J.J.}.].].R.T.T.'.'.'.].oXR.].].oX]..X#XoX#X#X#XoXoXOXXX-XD.-XoXoXOX2X&X#X-XOXE.^.OXR.J.E.R.].4.H.'.H..X@XoXoX.XR.E.Y.J.Y.E.Y.D.H..X.X].].}.@X#X@X'.'.[.T.}.].@XR.oXU.U.R.].].].'.'.].J.D.H.R.R.D.k.g.D.J.J.^..XR.F.D.T.D.B.A.J.~.J.oX#XoX#XoXOX.XOXY.OXR.F.oXE.Y..X^.F.J.oXR.J.R.H.E.oXoX-X7XoXoX#X@X;X&X&X[.@X@X+X2X=X[..X.XoXoXF.OXoXoXE.@XOX[.T.F.J.^.7X#X*XY.*Xd.y g.f.E.E.6.f.",
"9 U y.2X+X-X6.cXf.' xXxXH.H.J.eX4.f.N.@XA.&.r.A.../.D.k.F.R.;.D.R.J.H.H.'.'.'.D.|.|.(.'.].R.H.g.oXoXA.J.J..X.XH.D.E.E.D.R.[.'.R.A.B.B.R.D.g.T.T.H.H.T.oXJ.A.D.N.J.J.oX.XD.D.B.g.H.[.6.%..X.X.X.XT.B.H.].{.(.C.H.R.].J.D.R.oXoX.X'.2X'.'.1X1X1X}..XoXoXoXoXOXD.R.T.-XoX@XOX.X#XoXOXOX-X*XR.[.@XR.oX&XoXoXR.J..XJ.R.oXE.T.R.'.[.@X=X2X#X=X+X2X,X@X].-XoX#X-XoX@X].R.*XoXoXE.@X#X@X-X[.'.=X#X@X[.@XE.oXOX^.*X>X*X*X@X-XoXR.R.@X&X@X~.oX8X&X=X=X&X^.-X-X;X9X*X;X&X2X*X*X=X&XOXOXOXOXoX*X.X#XE.R.oXE.E.oX^.oXOX@X#XoXR.oXA.R.J.H D n j <X2XZ..XY.D.F..XD.~.J.R.H.R.oX@X}.{.H.+XH.H.].'.].3X[.oXE.oXR.'.H.'.].}.@X2X2XT.'.oXoXoX.XoXoX-X7XR.H.'.[.@XoXD.E.H.D.@X@XH.N.A.R.D.J.].].#X#X|.].+X].].#X+X(.'.R.].R..XR..XXX}.[.+X@X#X@X@X=X-XoXR.^.g.D..X-XoXE.-XE.B.oX-X.XF.D.R.H.T.H.'.H.(.T.'.oXoX[.[.@X@X].H.D.J.R.'.{.].'.'.+X-X2X@XR.oX@XE.oX#XoX@X+X].R.'.{.@X[.R.Y.R.R.A.J.R.g.R.H.A.D.D.E.oX].R.H.J.H.J.].oXE.T.E.}.[.[.[.[.oX^.^.R.R.k.D..XR.T.T.#X@X#X.X^.OXoXOX.XoX@X@X@X[.}.}.@X@X=X=XoX.XoX.X@XR.R.R.T.R.oXR.Y..XD.OXOXOXOXoXT.[.U.-X2X-X.X.XD.q.D.E.Y.f.f.A.",
"0 H g.B.@XxXOXOXxX=X@X#Xy.g.H.7X2XoXH.-Xu.f.e..Xe.u.F.F.k.u.r.A.@X.X].+X].N.B.H.(.M.V.H.R.R.D.Y.A.k.F.oXA.J.+XH.D.A.D.Y.].oXoX'.R.D.D.H.D.D.R.T.H.H.H.H.A.A.].@XR.R.R..XH.g.H.].@XR.D.B.A.F.:X~.T.].H.H.@X}.'.H.H.R..X.XoX#X@XR.].3X#X@X@X[.@X=X.XoXoX.X#X-XoXoXR.#XoXoX#XOXoXoXOXoXoXoXoX*X&XR.[.].oX.XR.].R.R.J.E.E.R.R.T.T.'.'.@X1X1X[.#X@X,X-X@X-XoX.X@X].-XoXR.A.E.*X-X-X-X@X-X=X-X+X#X[.[.OXOX*XoXoX.X.X-XoX@X;X@X].R.[.@X:XOXOXoX;X=XU.Y.8X*X7X-X*X3X3X1XoX-XOX*XoX*XD.J.@XoX*XoXE.R.Y.oXoX^.E.oX*X#X].J.D.J..X5.q.} e.o. .2X,X2XR.OXY.oXY.F.~.^.oXoXR.J.].}.].H.'.H.J.@X=X].T.H.oXoXU.oXH.@X=X'.'.2X2XH.1X=X@X@X@X@X@X.X.X@XR.T.@X@X@XR.R.E.R.R.@XoX].oXJ.Y.D.J..XoX@X#X|.@X].oX@XH.H.2X[.].+XoX@XoX#X#X@X@X@X=X#X@X+X+X.XoXOXOXF.R.E.].OXoX.XY.R.oXR.R.x.k.Y.R.'.H.H.H.N.H.H.R.[.[.[.#X<X@X.XY.J.R.].+X[.'.'.[.=X-X+X'.H..XE.oXOXoX@X].[.'.'.{.+X].R.U.J.].R.R.oXR.[.D.D.Y.Y.E..XE.R.A.D.R.R.D.J..XoXoX[.[.oX].'.R.R.R.R..XR.R.R.J.R.oXoXR..XR.R.~..X#XoX@X@X@XoX@X@X}.=X@X=X@X+XoXoXoX@XR.].].R.].@X.XOXoXJ..XoXY.E.Y.D.R.R.@X#X2X@XJ.E.E.oXD.D.R.E.A.",
"H g.@XN.+Xe.@XOX@X2XoX-XU e.5..XN.T.D.D.&..XA.R.A.O.k.A.d.D.q.O.H..X'.T.].].H.f.H.].H.A.D.J.oXD.g.R..X.X].].J.+XR.D.A.oX@X].oXH.R.H.H.D.D.H.H.R.'.B.B.T..XR.y.' .X].g.A.R.J..XH.D.R.oX[.OXoXoXE.'.T.T.].H.B.|.|.H.J.].].].#X#XR.+X2X=X1X=X@X1X=XE.J..XY.#X*XOXoXoX#XoXR.oX#X.X*XR.oXoXoX[.@XOX@X[.H.oXoXoX#XR.R.R.R.].oX@X'.T.'.[.@X@X#X+X=X=X2X.XoX.X#X2X-X2X+X-X*XOXOX-X@X-X@X@X2X=XoX'.+X@X@X[.[.OX*XOXOXOXqX8XqX&XT.;X@X@X8X.XR..X@X&X;X&X;X#X9XoX*X-XoXT.T.e.D.oX*XY.oXk.g.oXR.#XR.@XR.T.D.R.*XOXf.f..XoX#X.XR.R.O.e.u.Q q.Q B.#X2X@XoXJ.oXJ.J..X.X.XoXR.D.H.+X@X+X+X].].@X].'.'.oXY.@XE.oX+X].+X2X2X+X[.].#X2X2X-X@X@X@X@XoXoX'.'.[.[.R.B.H.J.R.].].T.T.]..XY.Y.].@X#X.X.X{.].].].+X#X@X+XT.H.'.R..X].@XoX=X@X=X-X2X2X2X2X*X>X*X.XF.^.E.H.E.OXoXoX@XR.].#X^.J.R.H.H.B.J..XH.'.R.R.[.].R.[.@X@XoXY.D.J.].+X+X].].oX#X-X+X'.H.oXoXoX@X@X@X[.[.].].[.[.].R.R.D.Y..XJ.R.R.].H.D.Y.J.Y.E.E.E.D.].].R.H.D.F.Y..X[.@X@XoX.X.X.X.XE..XoXR.R.].[.@XoX.X.XR.R..X.XoX#X#XoXR.R.[.@X[.@X=X@X+X@XoXoXoXoX'.].[.R.].oXoXOXoXR..XOXD.oXE.Y.[.E.#X#X2X#X].oXY.Y.Y.E.J.Y.A.",
"g.g.u.7X-XH *XcX@X3X@XgX.Xy.e.#Xg.].8X@XD.R.D..Xk.;.oXk.F.d.;.A.H.R.H.H.H.H.R.'.+X'..XH.H.R.D.R.F.D.R..XD.R..XR.R.J.A..XoXH.R.B.H.J.R.D.D.D.B.D.R.H.T.].XXJ.e. .R.R.g.D.R.D.J.T.T.@XR.y.R.Y.k..X'.'.H.[.'.C.].C.R.D.Y.R.R.oX#XoX@X@X@X=X@X@X2X@X].R.].[.@X@X@X].@XoX.XR.R..XoXoXoXoX].R.oX@XoX].[.T.].@X@X#X@X.X].oXoX@X=X@X[.=X-X=X@X+X@X2X2X#X.X-X.X-X@X].-XoXoX#X-X@XoX].@X@X-X@X[.@XoX+X#X2X2X;X-X-X-X8X-X8XB.g.oX].].@XyX#X9XOX-X;Xs.T.>X&X>X9X#XoXyXD.].T.q.D.>X*XY.oX8XoX@X#XD.].T.'.Y.Y.A.^.R.&.y.#XR.A.R..XoXD.D.A.K R.OXH.<XH.oXR.E.J.~.~..X.XD.R.H.J.H.'.[.oX@X].J.'.'.H.[.@Xe.H.@XE.].].#X2X2X2X2X#X[.#X2X#X@X@X@X-XoX.X'.'.'.[.[.E.R.R.].oXR.H.R.'.E.T.Y.H.]..XJ.J.#XH.H.].J.H.H.).@X+X@X]..X]..X].].'.'.[.@X#X2X2XOXOXF.k.J.*X*X.XE.oXOX*XJ.g.R..XR.R.].].R.A.J.J.N.H.D.D.].[.R.[..X.X].R.Y.R.].oX+X].'.[.@X=X+X].R.@X@X[.[.oXoXoX[.E.].]..XE.Y.Y.D.A.R.D.D.B.D.R.A.A.A.J.E.E.^.E.T.H.D.D.D.D.D.^.T.'.R.].].oXoX^.R.J..XR.R.@X[.[.g.J.R.H.J.oXOX.X@XoXR.D.H.].@X@X@X@XoX].oXoX.X.X@XoX@XoXE..XOXoXoXoXoXOX@XE.oXoXE.oXE.@X#X.X.XoXY..XoXY.A.f.Y.Y.",
"n H.5.B.2X-X-X;XqX2XqXQ ].D.*.7XD.2X8XD.g.R.*XR.F.e.E e.&..XQ u.D.].].].].].].H.).+XH.].J.A.R.D.A.g.D.R.H.R.oXH.D.R.D.R.oXJ.].].J.J..XJ.J.R.A.A.D.H.].J.D.F.H.].R.J.D.J.R.D.D.oXe.f.T.Y.OXoXE.D.A.8X.XA.J.H.T.[.'.D.R.@XoX@X@X@X#X@X=X=X[.'.&X@X@X].R.@X[.].].].oX.XoX*X.X].-XR.#X#XoX].oX@XoX[.[.].T.]..X.X#X@X].@X@X[.@X@X@X=X#X#X@X+X[.[.@X@X#XXX#X#X@X#X#X#XOXY.oXoX@X'.+X#X2X#X1X3X5X#X#X3X2X-XoX@XoX-X@X@XH.B.oX[.].OX7XA.D.*X#X#X&X*XoX;X9XoXeXwX*XT.6.G X.R.*X*XoX@X7XR.R.#X].@XR.H.R.R.D.E.OXA.A..XD.A.H.g.J.R.R.e.l n .Xt.2X3XD.Y..XJ.^.!.~..XH.R.T.].@X]..X].#X].'.'.=XB.[.2XH.H.oXR.H.[.#X@X@X3X3X+X2X=X@X.X@X#X-X#X@XoXoX[.'.[.oX@XoX'.R.R.H.'.@X].[.E.E.A.H..XR.]..X].A.N.H.H.G.{.].].].'.[.]..X].oXoXoX@X-X-X2X2XoXR.A.k.~.#X#XoX.X.XR.R.D.D..XJ.D.R.'.[.R.H.R.F.A.D.A.B.R.oXoX@X@X].R.R.R.R.R.].[.'.R.].@X=X#X+X].[.].'.R.T.T.[.oX[.].]..XE.Y.J.J.A.J.A.D.H.D.R.D.A.g.J.^.E.oXoXH.R.Y.D.J.R.R.R.R.T.J.R.]..XE.Y.D.J.oX].R.[.[.}.y.H.].R.H..XOXoXoX.XR.D.J.oX@X@X#X-X@XoX@XoXR.R.@XoX[.].R.]..X.XOX-X*X*XE.R.R.E..X-XoXoX-X].R.#XoXoXOXoXR.A.Y.A.",
"5.B.%.H.7Xq.R.7XqXqXtXB.8XA. .g.R.*X-X8X.Xu.D.d..XJ.J.e.e.D.u.&.B.R.].].@X2X#XN.H.'.@XH.A.'.H.N.A.R.D.D.R.D.R.R.D.R.H.J.R.J.]..X.XR.J.J.R..XR.D.H.H.].H.F.J.D.R.].R.J.B.N.H.T.].E.J.@XoXE.R.oXD..X#Xg.e.R..X].].[.R.].&X@X@X@X@X#X@X#X@X[.oX&XoX&X@XT.oXR.'.R.oXD.J.Y.OXR.F.#XJ.@X-X2X#XoXoX@X@X[.@X].oXoXoX2X@X'.oXoX].].[.].R.#X@X@X.X@XoXoX].@X.X#X2X@X.X@X@X-X].@X#X+X@X#X#X#X1X3X6X3X=X3XqXoXT.].@XoX.XR..X@X@XH.N.2X-X*X7X-XoXoX-XoXoX3X3X9XeXOXoX7XH.3X4.o.2X-X-X&X@X'.R.'.'.=XoXH.'.H.D.oXoX@XJ.H.OX.XJ.D.oXoX-X].5.D l ~ ...XqXoXR.u.oXR.S.F.^..X@X].].oXR.J.J.].T.R.H.[.R.&X-X2X=X+X].].'.[.6X2X@X+X#X#X#XOX#X#X#X@X@X@XoX#X+X[.'.H.R.oXR.R.T.T.[.}.H.Y.oXoXR.].@XoX.XJ..XJ.A.'.#X@X{.V.N.H.(.{.].+X{.oX.XoX@X#X@X@X+X&X^.E.R..X.XoX.X.X#XR.D..XoXoXR.R..XR.].T.R..XY.E.R.J.D.H.].oX[.@XoXR.R.Y.Y.Y.R.].'.R.].@X#X#X+XE.R.].'.'.R.T.[.oX].].E.oX.XR.F.J.D.J.D..XoXE.D.D.g.g.Y.oXoX^.^.Y.Y.D.Y.E.R.F.R..X.X].]..X.XR.H.J.R.].].].+X[.[.[.[.'.]..X.XoX.XoXE.Y.R.].oXoX.X2X2X-X@X#XOX^.E.oXoXoX].]..X.XoXOX-X#X#XY.Y.Y.^.R.8X7XoX-X.X].oXoXA.Y.Y.J.Y.D.y.",
"l oXJ.D.eXg.R.R.qX2XtX-X*X9X*X>X-XoXg.D.Y.oX-Xq.D.-X8XJ.r.A.J.&.D.N.H.@X'.H.+X1X.X].J..X].B.H.H.F.D.H.R.B.y.oXB.D.g.A.D.B.A.H.A..XJ.F.J.J.R..XJ.).'..XH.F.J.F.oXH.R.H.B.g.D.R.H.R.E.D.D.Y.U.@XoXJ.g.A.oX].J.R.R.@X[.[.@XoX@X@X@X.X.X@XoXoX;X*X[.@X-X[.oX@X@X@X@XOXOXOX#XoXOX7X7X2X@X@X#X#X2X-X.X[.@X@X@XoX#X-XoX].oXoX.XoXoXE.E.<XoXoX.X-X=X&XoX.X2X#X#XA.5..XoX].].-X+X'.1X2X,X+X@X2X@X=X#X3X3X@X].-X2X-XoXR.J.].[.[.R.J.Y.OX*X#XOX*X7X-XoX3X8XwX7XwXOX-X8XD.T.H.2X&X&X'.[.T.#X+X@XH.[.4.#XT.'.D..X-XoXD.J.XX.XR.@Xu.B.[.].T.y.!.X.].<XA.J..XF.F.k.F.J..X@X[.].R.XX.X.XH.'.'.].T.[.oXH.oX#X+X+X].].+X#X@X@X@X}..X#X2X2X#X@X@X#X].].+X[.@X].D.R.[.'.'.].[.+X].H.A.E.E.R.].].].'.].J..X@XJ.H.].+X@X|.{.{.@X|.{.+XoXoX@X-X-X-X#X#X*XE..X.X.X~.#X#XoX#XoXJ.R.oXR.D.J..XR.2X@X].].D.D.D.J.H.N.T.oXE.R.oXoXR.H.Y.R.R.].'.'.].+X#X@X+XR.].@X[.[.@XR.oX].].].].^.R.J.F.R.F.J.J..X.XE.Y.D.A.g.Y.oXoXE.D.e.;.e.D.E.A.A.E.J.R.].R.R.J.H.H.]..XH.J..X@X[.].@X[.H.'.oXoX#XoX[.R.Y.]..XoX.X.X7X-X-X-X#XOXoX.X@X=X-X-X=X#X#X2X*XoXoX#XoXE.E.*X].#X-XoXoXR.oX.XA.D.OXy. .Y.OXD.",
"t o.o.J.A..XB.2XqXqX8XwX-Xg.=XzX>X-X7X*XR.J.*Xy.q..XF.Y.g.g.D.g.H.g.H.,X].'.+X]..X.X+X].R.'.T.H.A..XJ..X.Xg.].g.H.O.u.H.g.D.R.A.J.J.J.J.A.B.].J..X].].A.F..XD.E.-XA.5.H.oXH.D.y.R.Y.B.A.R.T.OXU.^.A.J.[.[.[.[.&X].@X@X[.oX@X@X[.J.XX#XoXoX@XOXoXE.*XoXE.-X*X*X.XOX#X#XoX#X#XOX7X@X+X2X3X#X#X2X+X@X[.[.H.H.@X@XoXoXoXoX@X*XOXoXOX#X@X#X@X#X@X-X;X2X.X#X2XoXoX#X@X-X[.#X-X].#X,X2X@X}.#X@X6X#X#X+XOX.X#XE.E.oX.XF.T.@X@XR.R.*X>X>XoX-XOXoX7X-X3X3XqX8X8XeX7XD.U.T.6XH.2X3X@X#X'.'.H.].#X[.H.T.2XH.-XJ.J.oX.XR.OXXXR.R.R.e.].].hX&.^ | J.XXF..XF.J.F.A.J.A.D.'.].H.J.#X.X].e.R.].#XoXR.[.oX@X#X].J.'.J.].+X}.}.@X@X2X-X#XoX.X@X-X2X2X#X@X].#X[.A.R.R.H.D.T.'.].'.T.J.oXR.].].R.oX+X.XoXH.N.).].|.{.,X|.(.(.|.H.].}.oXoXoXoX@X@X@X#X=XE..X.X.XJ.oX^..XD.oXoXR.7X-XD.~.^.D.#X+X].[.R.k.A.oX.XD.T.@XR.g.].=X].J..XoX^.[.].'.].+X@X+X+XH.'.@X].[.@XR.E.R.'.].R.R.J.J.F.].H.F.J.J.g.D.oXD.Y.D.D.E.^.Y.:.O.q.g.Y.E.D.B.D.g.D.R.R.H.D.T.R.J..XH.F.].R.[.@X[.=XoX[.].].#XoXoXR.Y.E..X.XoXOX-X#X#X-XOXOX#XoX].@X=X#X#X+X+X#X-XE.oX#X-XE.E.OX7XoX#X-X@X.X7X-XoXA.-XY.A.-X*XJ.",
"..} J r.F.F.D.&X'.Z.1XgX2X@X@X[.H.;XqXD.D.r.Y.[.zXs.F.k.r.^.!.r.y.H.J.B.+X}.+XH.H.{.2X'.}.}.@XH.H.@X+X'.+XD.g.B.Y.D.J.k.J.u.S.F.J.k.A.F.A.D.H.A.].H.H.g.D.f.Y.^.k.D. .D.].R.N.D.A.A.g.E..XD.R.].+X].].@X[.[.&X|.u.D.R.oX@X2X@X'.+X+X@X@X@X+X+X}.#X2XoXJ.oX>X*X#X;XoXD.R..X-X#X#X.X@X2X-XOXOX*X#XoX.XR.B.J.R..X.X*X-XR.@X1X@X+X@X}.2X,X+Xt.t.R.oX@X3X2X#X2X+XR.#X1X&X=X=X=X#X2X-X#X#X'.@X@XR.@X@X@X.X-X@X-X#X#X].#XR.Y.R.oX*X@X].2X8X8X2XtX5X1X5X2XqX3X-X3X3X&XR.*XoXyX=X@X].e.d.E.D.oXY.Y.^.r.R./.J.oX#X@X~.F.XXD. .]..XJ.J.].J.e.u.S.N.J.F.~.l.J.A.J.D.R.F.^.F.z.oXoXg. ..X+X}.@XT.oXoX].}.'.H.].(.'.@X@X}.}.[.#X#X@X+X+X+X[.].@XH.3Xy.T.+X+XT.Y.R.D.T.T.oXR.U.Y.E.A.J..X].]..XJ.OXJ.A.J..X].H.'.].'.H.H.'.|.].].].A.H.oX].].@X2X@X.XR..X-XJ.G.H.T.'.].2X.X).].T.E.].R.T.'.T.H.D.A.D.Y.Y.E.@X[.H.|.+XH..X.XoXR.[.[.R.].].oX@X'.D.^.OX^.R.^.oX.XE.R.E.oX].].].H.J.J.R.J.T.T.D.Y.H.g.g.H.D.F.J.D.~.D.D.D.].Y.R.Y.R.D.Y.d.J.oXR.Y.T.'.'.].]..X.X].#XR.R.E.OXY.OXA.R..XR.R.].A.g.R.+X2X2XoXoXoXoXoX}.].'.[.@XoX.XR.F.J.OXoX.XoXoXJ.2X3X2X&X-X*X .*X*XOXOXF.E.E.zX[.",
"r.O.~ ;.k.*X.XD.y.C.].6X@X[.3XT.n R.8XD.y.J.A.[.k.U lXA.;.F.&.w.y.2XJ.g.@X].#XH.H.H.H.].1X#X].'.].H.H.#X+Xo.B.B.A.D.J.R.oXF.F.F.e.w.p.A.g.B.H.H.].].D.D.D.oXE.Y.D.A.Y.A.D.A.oXT.A.R.g.e.A.A.D..X.X.X[.H.-XD.T.T.D.Y.R.'.+X2X@X'.+X+X@X@X@X@X@X+XoXoXoX@X-X*XE.E.Y.R.[.oXoXoX#X-X2X#X+X.X].oXoXE..XR.R.Y.oXR.oX*XJ..XH.].+X+X@X<X@X,X@X+XN.A.oX#XqX#X#X2X].#X@X@X|.=X=X=X2X=X-X@X2X=X].@X#X+X=X@X@X].@X@X#X.XoXoX^.OX#X-X-X@X].-X.X-X8X3XH.C.6X=X3X2X3X3X'.H.@X@X;.e.&.=X[.oXu.r.E.D.R.OXoXD.y e.F.J.OX-XoXR.F.!.R.A..XD.].R.R.R.A.e.S.#XJ.A./.F.J.J.A.F.D.A.oX~.oXE..XoXA.@X'.+X[.OX@XoX-X2X].}.].H.'.+X@X@X@X@X].@X@X].].#X=X[.N.H.3X[.[.'.@X+XY.E.E.[.R.[.R.Y.R.D.E.oXR.H.'.H.XXXXS.H..X].J.J.].].'.H.H.'.'.'.@X.XH.H..XoXoX@X#X#XoX.X.XoXJ.J.'.=X[.[.H.'.H.].B.D.R.R.R.T.T.'.Y.R.[.E.T.T.[.@X}.@X@X'.[.R.].R.R.E.R.].].].+XR.R.oXoXE.J.^.oXoX^.E..XoXoX.X].J..XF.J.J.D.g.g.J.R.A.H..XR.D.F.J.H.D.J.J.R.D.Y.R.F.A.D.D.D.^.g.D.H.H.H.H.]..X.X.X@XoXoX@XJ.oXoXE.R..X.XoXoXR.D.].'.@X@X+X#X@XoX#X+X].'.[.+X@X@X.Xq.F.@X#XOX.XoXE.@X-X8X&XoXOXf.-XK F.>XD.y.oXuXq.",
"..N O.d.q.D.R.D.].6X'.'.tX@X2X@XD.3XqXqXJ.OX-X@XD.2 d.D.r.k.e.k.T.'.].H.'.'.'.'.H.{.@Xv.'.H.).N.H.oX+X@X].P 5.].A.R.D.J.R.R.D.u.u.k.A.A.A.T.]..XR..XD.Y.g.E.R..XE.oXoXA.B.R.].R.J.#X.Xk.D..X.X@X@X@XN.V.].y.5.H.OXoX].R.+X2X-X].+X@X#X#X#X#X@X@X.XE..XOX*XoXR.Y.&X&X-X#X#X.X-X2X3X#X@X#X*X*XOXoX*X*XoXF.J.R.oX#X].@XoX@X].].@X<X,X1X2X2X.X@X.X@X'.6X2X3X'.#X@X#X}.@X[.=X2XB.T.].'.6X3XoX+X2X-XH.]..X@X@X@XoX-X-X^.7X*X*XR.#X.X@XR.-XqXqX1X+X=XT.@X@X@X=X@XR.@X-X#X*X@X-X=X@Xg.f.E.7XoX^..X.XD.R.!.^.oX@X@XoXR.F..X].J.B..XD.gXJ.oXu.u.eXJ.k.J.F.F.e.H F.OXR.^.k.R.Y.R.D.A.oX].@XoX@XoXT.[.=X}.#X+X'.].+X+X@X#X#X@X+X}.}.}.}.}.@XC.H.B.[.[.T.].R.E.E.Y.[.R.[.R.R.A.A.].R.H..XoXJ.S.J.N.N.J.H.H.J.H.H.H.T.].].].].H..XoX@X.X].oX@X].@XoX@XoX@X.X].[.oX'.H.].+X[.H.H.H.R.].R.B.D.'.E.E.R.T.H.T.R.oX}.}.}.'.[.'.].'.].].R.].].].oXR.J..XoX.X.XoXoXR.R.Y.E.oXoXoX].H.A.g.D.F.A.k.k.J.J.A.A..X.XR.F.F.H.H.R.R.R.A.D.F.D.A.D.J.J.^.D.R.J.H.B.H.].].].].@X.XR.H.q.E.E.OXD.R.oXoXoX].R.'.=X2X=XoX@X.X].#X@X].].oX[.oX@XoX#X#XoXoXR..XoX.XoXoX3X3X*X-XOXOX*X#Xg.oX} q.yXoX",
"u.y ~ B.' t.7XoXhXhX].y.gX=X3XN.R.2X8XD.*X*X^.*XA.k.J.g.g.D.D.R.#XN.J.].'.@X'.'.H.'.{.v.H.y.H.+X3X].@XH.N.N.oX2XD.J.D.R.E.R.R..Xg.A.A.g.A.H.R.].OXR.D.D.R.Y.Y.Y.oXE.oXB..XR.].H.].].-XoXJ.#X-XoX].@Xy.N.].A.5.B.g.B.B.B.T.@X#X+X=X#X1X1X1X#X#X@X-X#X*X*X#X*X*X#X;X#XOXoXoXoX-X7X#X+X=X-X*XOXOX*X^.#X#X.XoXoXoXoX2X@X.X+X+X@X#X+X@X=X3X=X@X-X].@X2X1X7.3X2X].+X@X=X=X[.2X&X6.D.T.H.'.#X=X@X].J.J.'.[.[.@X#X.X@X*X-X-X-X@XtX@XE.Y.hXqXqX2X5XqX[.1X5XqX3X8XtX8X&XY.OXOX-XH.+X].oX@X*XOXOXOXE..X.XoXoXoXoXoX@X*XoX^..XR.@XR.j e.yXJ.N.J.u.R.J..X!.a.w.F.w.R.J.J.~.d.e.Y.oXA.D.oX@X.X#X]..XR.H.'.+X].+X].].@X@X+X@X@X2XoXoX@X@X[.[.@X2X}.Z.'.[.'.oX'.oXE.D.T.T.oX].].R..X.XD.'.].R.]..X.XA.N.J.'.].@X].'.H.H.H.H.).].N.].#X-X.X].@XoX@X@X'.@X+X#X#X.XoXoX-X].@XoX+XH.].E.].].H.B.A.J.E.E.D.A.T.R.R.].|.}.}.'.'.@X[.'.oXoXR.R.J.'.+X].H.]..XoXoX@XoXY.D.D.J..X.X.XR.D.D.D.H.A.g.A.A.D.F.A.A.R.E.R.F.D.J.D.J.J.E.D.A.A.A.A.D.f.D.J.J.J.J.A.A.J.].[.].].#XoX#X.XE.oXoXE.Y.R.oXoX].].'.H.@X2X@X].@X@X@X2X=X[.+X+X'.[.oX].oXJ..X#XD.#XR.D.E.R.&X*X*X#X*XR.-X*X*X-Xe.e.zXR.",
"O... .u.B.D.#X-X#X{ fX=X=X3X}.jXJ.-XoXD.>Xw.oX*XF.g.g.g.^.R.d.k.N.J.H.J.].'.].'.N.|.H.].]..XH.@X].H.'.'.'.@X].H.R.R.].@XY.&.q.J.D.J.J.J.].[.oX@XoXY..XY.oXD.Y.J.Y.D.]..XR.R.-XR.@XR.+X].D.].oX+X2X#XH.y.[.@X@X'.D.H.R.R.].#X-X-X#X=X1X1X1X#X#X#X@XoXoXoXoXoXoXoXoXOXoXoXoX#X#X-X1X#X#X&XoX.XOX*X@X@X@X-X-XoXoX-X-X@X#XoXH.N.H.+X2X6X3X@X].#X].2XqX].qXqXH.8X].8X=X2X=X2X@XH.=XT.@X].#X2X#X.X.X#X@XoX].-X-X].R..X+XqX#X@X3X3X-XuXH.H.qX5X3XqX+X3XqX2X8X8X-X-X*Xs.OX:XJ.oXoXH.OXOXOXD.q.7XOXR.B..XE.oXOX@X.X.XOX:X.X#XoX-XJ. .].].D.A.5.A..XF.k.l.D.R.k.k.F.~..XA.k.Y.oXY.J.R.R.].oXR..X@X].'.[.'.'.'.[.#X#X+X.X].XX@XXX.X@X#X@X.X@X@X@X#XoX'.oX[.oXoXJ.D.D.oX[.].R.R.].J.oX'.[.3X7XXXu.N.'.H.H.+XH.'.'.H.H.J.J.H.'.+X@X@X@X@X-XoX2X-X].+X+X#X2XoXoX].R.oXR..X].].R.R.R.J.H.D.D.J.D.Y.J.H.R.R.'.oX[.oX[.].[.oXR.R..X.XJ.H.D.H..X].H.R.].]..XoXoX].D.D.J..X.X.XR.D.D.D.D.g.B.D.D.D.A.J.~.Y.H.H.H.H.D.B.A.D.R.D.D.D.T.T.T.g.D.D.D.A.H.D.D.R.].[.oX+XoX.XoX].oXD.R.A.oXoXoX.XJ.R.].R.].-X#XoX#X#X@X@X@X.X@XoX].oX[.[.7Xr. .-XoXD.e.-XoXOXOXoXoXD.oXoXY.-X-XB.O.#XxXt.",
"g } B.8X@XH..XA.#XN.+XfX#XqX5X2X9XoX[.oX7Xk.D.OXoXA.oXD.R.Y.E.;.N.u.u.H.}.}.].C.V.@X+X+X+X2X.X].}.2X'.+X.XH.H.2XR.'.].].[.A.U.E.g.A.J.].R.T.'..XY.oXoXD.g.A.R.].T.oXJ.@XD..X].R.}.}.R.H.R.].R.=X6X'.y.Z.T.|.}.|.R.].oX].'.].].].+X@X@X#X=X#X#X#X=X[.'.]..XR.R.oXOX*XOX*XoX#X#X-X3X2X2X;X&X#XOXOX2X-X+X+XoX@X@X2X#X2X8X.XB.y.N.}.2XqXtX3X#X@XA.J.qXT.g.R.].oXJ.D.3X=X'.@X@X@X3X@X2XqX4X2X2X8X2X@X@X-X2X-X2X8XoXoXtX=X@XtX2X*X&XB.1XqXtX#X6XqX#X3XqX2X2X8X2X8X9XE..X:XoX-X.X].OXOX@Xg.} OXoXR.7X-XE.@XoX#XoX].OX#XD.7X.XO.u.].H.q.D. .&.oXOXr.r.F.A.k.k.k.D.k.F.OXOXE.T.D.D.D.J.R.R.oX]..X@X'.R.+X[.[.oX@X].].].]..X.X.X.XXXOX.X~.].].@X].[..X].D..XoXE.].T.].].].oX]..XR.'.R.[.f.].@X].].+X'.|.@Xy.H.].].].[.].H.].#X#X#X#X@X#X@X@X@X@X3X#X2X2XoX@XR.J.oX@X.XJ.XXT.'.].R.J.R.R.J.J.J.H.J.R.].].].[.R.J.oXoXR.D.J.R.R.H.H.A.H..X.XH.J.].]..X@XoX].H.H.J.R.R.R.Y.D.g.f.B.T.R.H.A.A.k.R.~.F.D.J.J.H.H.B.D.H.R.J.Y.Y.R.R.T.oX.XR.g.A.J.J.D.D.H.J.R.'.+X@XR.].R.D..XoXoXE.E.R.H.R.+X[.#X3X2X#X@X#X+X].@X.X@X].].@X[.@XR.7Xu.F.Y.Y.D.oXOXoXE.].*XY..X#X[.-X-X3X5.%.lX5.",
"x o.y.2X=XH.A.A.qX2X'.gXqX=X=XqX7XY.[.7XOX:XeXf.J.#XJ.u.*XY.oXD.y.u.#X@XH.B.].-XG.H.+X+X#X].+X#X'.H.H.@X].H..X#X[.@XD.D.T.[.Y.g.B.g.D.].T.T.R.J.E.oXF.k.u.J.R.R.].oX].A.oX].D.J.|.@XH.D..X.X'.+X#X'.N.5X=X@X'.'.T.'.'.T.'.].].].[.+X@X#X1X#X@X@X@X[.H.H.R.J.F.^.^.oXoXoXoX#X-X7X1X=X2X;X*X*XOXE.].@X+X@X#X8X2X<X2X@X@XH.]..X].[.#X1X2X=X+X+XN.N.3XoX5.o.].@X].D.2X=XH.[.@X@X[.2X4X2X@X3X8X+X+XXX}.-X8X-X2XyX#X>X5XM.qXqX3X=.3X7X5XqX1XH.1XqX].#XqX8X-X2X7X7X-XoX#X@XyXOXoXOX*X.X&Xe.f.oX].H..X.XOXoX.XoXoXXXoX.XR.R.-XA.&.q.qXU K K D.#XoX^.!.j.j.F.F.r.A.D.F.J.oXD.h.R.[.oXR.A.].@XR.]..XT.'.oX=X@X@X].J.H.'.{.XX.X.XoXXX.XR.].}.}.].H.'.@X@XD.oXE.Y.].].].R.'.H.R.R.H.].'.-Xf.y.oXoX'.'.|.|.|.+X+X}.'.H.'.}.}.H.,X2X2X<X+X@X#X[.].1X5X,X2X=X+XR.Y.oX.XJ...O.A.'.[.[.].R.].R.J.].J.J.R.R.].E.Y.R.R.D.R.R.R.D.F.J.J.J.J.H.H.].].A.J..X+XoXoX.X].H.H.J.R.J.J.Y.D.B.g.D.Y.R.H.g.g.k.F.F.A.J..XR.J.R.H.T.T.].R.].E.H.H.D.[.].Y.A.D.J.J.J.D.A.D.H.H.J..X]..XR.R.R.E.R.J.Y.Y.H.R.+X#X-X@X#X-X@X@X=X#X@X@XOXR.].@XR.&X .R.-XoXoXY.g.H.Y.D.A.oX7X.XR..X-X@X=X2X@XD cXt.",
"X.N.D.@X@X].D.@XgXfXtXgXqX2X5XtX7X7X*XJ.J.OXd.D.oX2X].D.oXg.e.g.y.J.A.g.[.T.#XH.V.].@X].'..X].'.'.'.'.N.].].H.@XoXoXB.[.R.[.D.D.].g.A.J.'.[.+X].E.oXoX~.J.H.R.].R.N.H.J.J.oXD.oX{.1X'.H.R..X@XH.].].'.].[.].oX].@X}.'.H.H.'.].'.}.+X#X=X2X=X@X@X+X2X@X'.OXOXE.R.OXOX#XoX-X-X-X#X1X1X2X&X@XOXOX.X2X#X.X#X#X2X@X2X#X2X2XD.].@XoXoX2X}.H.H.H.#X#X2X[.H.[.oX-XD.R.R.T.2X'.@X-X=XH.@X,X2X+X<X#X+X7X2X2XoX2X8X2X*XA.7X1XfXqX@X3XR.-X3X5X].qX@X}.qX'.[.8X2XyXgX-X-X9XE.2XoXOX*X*XoX@Xg.y.&XD.-XoX.XoX@XoX#X.X.X.X.XXXJ.oX#X@X#XH.u.-XR.L U A.oXR.oX!.x.l.k.r.k.!.R.J.R.^.y.&.D.Y.R.R.J..X.XoX@X].R.oXH.[.[.+X+XJ.H.|.{.E.oX#X.XR..XoXR.(.1X@X'.D.].7X-XoXD.f.R.[.].H.T.J.@X].oX2XN.[.@X&X2XR.H.'.].|.|.+X+X+X[.[.}.}.}.'.,X+X@X<X@X@X2X2X}.@X#X|.,X#X@X[.oX^.OXA.O.| S.[.@X[.R.J.J.Y.J.].].+X.XJ.D.R.Y.H.[.T.D.D.oXR.A.F.J.R..XJ.H.J.H.H.J.].].].].oXoXH.H.J.R.J.Y.R.Y.D.D.J.A.D.R..X.Xk.J.R.F.J.R.R.].'.H.H.D..X]..X.XH.'.R.H.R.D.Y.Y.D.J.J.D.H.R.J.D..X+X@XJ.J.].D.Y.^.^.oXoX].].+X2X#X].@X8X#XoX+XoXOX#X@XH.].@XT.@XR. .^.D.E.oXB.R.Y.Y.R.*X-X.XJ.].'.yX2X'.].4.+X+X",
"N.A.O.qX].OXg.y.2X0X3XH.6XaXaX5X8X8X2XJ.g..XoXA.#XOX&XA.J.F.J.D.'.N.y.5.J.H..XA.V.).+X+X].J.'.'.].J.J.].J.@X+X{.].H.].'.-X@XJ.D.H.H.'.A.G.J.#X.X[.'.'.H.B.U.oXoX#Xu.R.A.A.].J.J.g.R.D.'.N.[.].[.+X.X.X+X@X@XoXoX+X].].].}.[.'.[.oX-X.X@X.X.XoX].D.OXoXoX.X.XR.2X@X#X+X2X1X2X=X6X=X=X'.@X2X#X2X@X7XOXoXoX@X3XR.*X=X@X&X[.[.3XoX@X@XT.D.].oX@X2X}.'.[.+X].@X@X'.6X}.|.{.+X#X].@X2X#X@X#XH.2X2X2X5X@X;XoXJ.7XeXu.-X@X7X@X@XwXqXOX2X5X1X#X}.[.{.].2XeXwX].@X2X=X@X2X*X*XOX*X*X*X*XF.D.eX-X-X-XR.-XR.J.oXoX.XA.@XJ.@X&XqX@X=XqX5.H.8XT ~ w.-X7XF.E.D.z.^.^.J.F.F.J..XD.T.E.E.D.D.R..XE.E.Y.oXR.oXg.g.oXoXE.@XoX+X(.H.@X@XoX+XR.@XoX].H.,X{.C.6XoXD.F.}.#X,X2X+XH.'.@X.X#X@X@Xg.R.@X#X#X.X+X|.|.C.H.M.'.H.'.].[.].+X#X].=X].@X-X@X#XoX=X2X2X-X@X].R.].].+X].#X'.o.N.[.J.#X.XJ.R.J.D.R.'.].]..XR.oXY.g.oXoXR.R.H.[.].H.'.H.'.].T.H.'.].J.J.H.].+XoX@XoXH.J.J.].].'.T.D.N.T.'.o.5.].oXA.g.OXoXT.g.D.Y.A.g.k.A.D.J.].].]..XR.#X.XR.H.R.R.u.d.A.D.D.].H.H.+X+X].].@X@X[.[.E.Y.Y.].oX@X1X6X2X@X}.@X@X#X,X,XoX.XoXoX^.oX#XoXoXJ..X.X@X].H.B.A.k.w.F.R.^.oX^.OX9X.XR.tX3Xy.@X",
"D.@XB.oX].oXu.f.#XxXqXsXjXqX4X|.[.T.-XR..Xu.u.D.k.OXT.OXJ.F.F.F.H.H.H.H.T.H.'.C.G.(.].@XoX[.'.'.(.].].'.'.@X@X<X].#XoX+Xo.D.E.D.N.N.H.H.@X].G.H.@X[.[.oXD.f.D.Y.g.H.oXR..XoXH.J.B.R.D.[.H.T.H.1X+X@X+X#XJ.].R.].N.#XH.@XT.].#X+XJ.oX-XoXoX@X@X-X-XE.E.OXoX@X-X@X#X#X#X2X1X6X@X|.=X=X@X-X-X@X2X#XoX8XOX@X-XR.&X;X;X=X&X[.[.;X@X-XoX[.[.&X@X#X3X@X}.H.+X2X].+X6X@X#X2X,X+X2X'.'.=X2X].2X2XR.@X1X].2X].-X@XR..X-X8X#X#X@XwXqXeXwXqXqXqX2X].2XqX3X'.gXwXwXqXqX3X@XJ.=XE.-XF.&.-XOX*XOX-X.XE.-XoX@XH.R.R.J.-X#XA.H.J.'.tX3X5XqX7.N.+Xw.F.&.eX>XE.OXoXg.^.D.u.R.OX~.~.T.F.Y.Y.D.F.F.F.J.Y.E.Y.E.oXJ.Y..XoX@XoX].'.].}..X#X@X@X].].oX#X@X[.H.Z.@X2X+X].@X#X,X<X@X'.].'.].-X#X@XA.oX#X@X@X#X@X|.{.].'.6.N.'.].J.'.@X2X#X#X2X].=X@X@XoXoX3X=X3X2XH.J.@X@X#X2X2X+X+X].3X2X@X@XoX].J.H.J.R.'.R.R.].D.D.Y.^.oXE.E.'.'.+X@X].'.H.'.].R.J.J.H.J.].].+X[.'.oXOXR.J.J.R.].].T.D.B.T.B.J.R.J..XF.r.A.T.T.T.T.T.D.k.D.J.Y.J.H.H.H.F.S.].#X].H.A.R.e.Y.R.oXR.A.'.J.J.].].].].].[.@XoX.XE.R.[.1X6X6X-X=X@X}.|.+X@X@XoXY.R.*XoXR.D.D.@X.X#X#XoXD.N.H.OXF.k.!.^.oX^.#XOXoX9X8X3X=Xf.H.",
"5.H.D.].H.-XoXu.'.2X2XfX,XfXqX) 8X8XwXD.D.J..XO.g.OXR.OXk y ~ D.'.'.H.'.H.].].'.G.G.G.].R.].'.].}.1X6X].].+XXXOXH.].+X].5.H.2XD.D.@XR.H.R.N.].@X'.[.T.T.H.U.OXg.D..XJ.J.oX@XR.R.[.B.D.&X'.'.].H.+X.X]..X].oX].].'.H.].].].H.T.].5.u..XH.oX#X-XqXoXE.oXoX#X.X.X].+X#X2X=X].#X1X@X#X=X=X2X#X@X-X-X7Xe.7XR.E.=XR.3X3X@XR.B.@X3XoX[.#X2X&X@X@X#X#X'.'.H.H.(.'.'.[.+X2XqX4X+X2X].].-X.X2X@XR.@X=X'.+X#X2X-X2X8X-X2X-X8X8X].#XH.].8XeX2X@X1X3X2X2XqXN.].wXeXyX@XtX2X#XE.oX*X-XoX*X*XY.D.E.*XY.oXOXoX.XR.E.A..X#XH.oX.Xf.@XqXqX[.7.@XH.e.A.Y.-XD.oX[.E.k.^.F.g.F.R.J.R..XR.R.Y.F.F.F.F.Y.E.OXE.E.Y.J.R.^.oX-XoXoX'.+X@X+X#X].oX#X].oX#X^.OX;X[.].@X4X4X@X,X#X+X@X].}.'.J.].].#X.XXX).J.#X2X#X'.'.|.'.7.N.].@X].'.@X-X@X=X@X#X2X#X-XoX@X+X2X2X#XoX].oX-X#X@X3X+X+X2XqX8X3X+XoX@X'.J.]..X'.H.H.oXoXoXE.E.R.A.D.N.H.H.].]..X].].].R.R.J.A.H.R.].[.].'.oX@X].R.J.].].].R.H.T.H.H.].R.E.J.R.R.A.Y.Y.R.D.g.D.Y.J.F.Y.J.H.N.u.A.J.oX-X].T.g.D.J.g.J.D.R.@XR.].]..X.X].].].R.].Y.E.E..X@X2X6X1X-X-X=X].J.].+X.XJ.oXoXoX^.*XOXY.oXR.R.J..XD.g.D.k.k.oX>XOXoXR.:XeX-X7XyX3X@X&XC.",
"5.-X%.A.oXoXD.oXjX,X1XhXqXfX3XqX-XgX2XoX].D.R.e.A.OXOXOX;.N h w.'.J.Z.C.C.'.[.|.H.).)..XT.].].+X}.=X,X].'..XJ.J.H.R.+X'.-XoX=XB.oXoXoXD.H.].H.].].T.H.].H.B.R.D.*X.XR.oX]..XA.u.T.D.R.].g.D.#X].+XsX@X%.].@X.X].b.y.+XH.].D.H.#XD..X-X].@X@X.X@X[.OX@XR.]..X@X#X+X@X2X#X'.+X3X6X@X=X2X2X@XoX#X-X9Xq.oXR.oX;X&X=X2X2X=X'.2X-XoX@X@X#X'.'.+X#X2X@XH.@XM.v.[.T.H.#X2X#X2X@X[.+X2XoX-XH.@X.X].-XyXR.+X3X@X8X#X2X-X#XoX2X@X#X@X2XqXqXqXfXqX'.3X3XqXgXwXqXO.oX2X3X@X2X-X-XOXoX-XOXOX*X-X@XH.OX-XR.].J.^.oXR.R.R.oXR.R.2X3XtXqX@X5.qXH.q.8X-XY.@XoXoX&XoXA.A.F.J.R.R.F.^.R.R.J.A.F.R.R.R.R.D.R.J.R.A.D.E..XoX[.oX].[.[.+X+X].oX-X].oX.XoXOX*XoX'.+X1X}.#X2X@X@X].].+X@X2X-X.X2X2X2X.X].]..X[.}.{.|.+X|.].[.@X+XoX[.@X@X[.H.2X+X-X@X@XoX'.1X+XoX2X-X[.-X3X2XqXqX2X3XqX3X2X#X+X+X].].].+XH.'.R.R.D.E.^.^.OXR.T.H.H.H.oX@X@X.X.X].R.R.R.D.J.'.R.].+X[.@XoX.X].]..X+XoX].Y.R.T..XR.D..XD.Y.oXD.E.E.R.T.f.T.R.D.D.J.R.J.A.N.F.XX#X#XoX].B.D.R.R.J.J..XR.#X#X@X@XoX.X.X].R.R.Y.E.E.oX&X2X1X@X=X@X@X+X].+X+X).oXoXoXoXoXoXOXOXA..XOXR.R.E.E.*XR..X#X#XoXoX^..X.X8X2X3X[.C.[.[.",
"u.A.@X.XA.8XY.g.aXqXaX+X@X8X#XyXOX&.*.*XD.g.R.u.E.Y.U.#XOX!.w.w.'.].'.'.H.H.].'.H.].+X@X].[.'.'.'.'.[.#X'.@X[.'.N.H.T.H.+X#XT.'.oX[.H.oX].B.T.H.[.D.H.].T.D.D.J.oXJ.D.D.A.].R.oXA.T.6. .y.H.].+X.XA.].]..XH.+X}.|.@X].'.H.H.B.4.N..XoXoX]..X@X#XoXD.D.R.D..X#X].=X[.=X=X@X=X2XoX=X=X2X2X#X#X@X-XOX-XoXR.2X-X8X-X2X#X'.H.2X-XR.H..X#X}.}.}..X#X2X@X@XC.(.}.].+X@X4X,X2X@X+X2X3XoX@X.X#XoX8X2X2X'.oX-X].@X-X2X-X=X8X-X3X#X2X8X8X8XqX2XqXH.2XlX#X8XoXwX#X8XgX&X=X@XR.-XE.oXoXOXR.OX+X@X-X*XoX.Xg.A.oXoX.XoXoXOXE.oX}.5XqX].H.o.B.A.q.D.q.g.D.-XH.-XoXg.D.R.E.E.E.oXJ.H.J.D.D.J..X.X.XD.u.J..X.XR..X]..X].].R.[.[.[.+X+X@X@X+X'.-XoX1X1X[.T.R.&X&X[.-X2X.X2X].[.].#XoX7X-X@X.X#X].C.H.H.'.@X].'.].{.@X].'.].].'.oX-X+XH.6X+X-X#X#X=X2X+X+X@X@X-X2X@X2X2X2X8X2XqXtX2X-X2X@X].oX].H.'.R.].R.R.D.E.R.Y.[.R.H.R.D.H.H.R..X.X].].R.R.E.Y.].@XoX+X+XoX@XoX.X]..X@X+X[.R.Y.H.R.J.oXoXA.R.Y.R.D.OX@XD.R.e.B.D.D.J.R.R.J.R.].J.J.]..X@XR.D.].A.J..X].J.B.].@X].@X#XoXR.R.R.E.OXoXE.oX@X=X1X1X=X@X@X#X@X@X.X]..XE.oXR.*XoXOXoXY.R.D.A.R.^.A.k.A.oX#XoXF.D.#X7XJ.oX2X-X[.@Xy.B.",
"%.[.-Xu.g..X-Xk.@XqXy.y.bXzXJ.zX9XD.oXoXY.R.Y.A.g.*Xg.g.^..XJ.~..X].[.'.[.'.oXT.).'.{.].[.[.}.+XJ.].#X2X[.=X=X=X].oX#X}.'.6X#X1X@X'.@X[.H.T.H.'.H.D.H.H.R.OXE.D.Y..XoXJ.E..Xr.r.g.R.D.g.D.J.].+Xy.]..X].@X,X'.'.+X).].'.@X=XH.y.N.].].oXD.D.].oX=XR.T.-X@X@XE.E.=X@X=X=X=X=X2X@X=X=X-X-X7X2X@X*XOX#X#X.XOX2X.X#X@X=X+X'.@XoX[.@X@X#X@X1X@X+X+X].}.'.'.}.}.+X@X.X].+X].H.[.+X+X].#X-X-X2X#X#X2XoX}.@X#X[.2XH.<X2X+Xy.=X2X3X3X8X2X4XqX2XqX].u.lX7X;X].#X7X;X@X=X3X3XOXD.oXY.E.oXoX2X@X@XD.D.-XJ.XXA.R.oXoX>X^.OXR.2X'.3XgX3Xf.o.A.OX .B.oX8X#X].].R.E.E.D.E.Y.g.@XR.H.H.H.J.~.~.F.R.J.J.J..XA..X-XR.@X@X-X[.@X].E.1X+X@X+XoX+X@X@X X1X@X].[.&X&X;X@X@X].2X@X#X+X+X].-X8X-X+X#X#X+X#X2X@X#X].|.+X].+X[.].].].[.].].2X+X2X#X+X3X#X2X=X#X@X@X#X=X1X2X2X-X@X8X-X2X8X3X#X3X@X].@XoXJ.].oXR.T.@XOXoXY.D.&X[.R..XD.Y.Y.E.D.D.J.R.Y.Y.R.Y.'.@X@X#X}.].@X@X].]..X@XoX'.T.T.H.H.R.].oXJ.^.^.~.E.OX&XD.[.y.A.R.J.J.R.].'.]..X~.F.R.D.R.H.D.J.].J.oX]..X-X@X2X.XoXoX.X.X^.E.^.oXE.E.oXoX@X@X1X=X@X=X=X@X.XoX@XR.E.E.D.OXOX*X~.B.F.E.E.^.^.F.~.R.^.R.^..XD..XR.oX].@X2X8XtXg.! ",
" .gXu.D.7XO..Xq.(.2XH.].qXy.r.yX#XA.D.OXD.OX-XY.u.H.H..XoX.X#XJ.R.H.H.D.].].@XT.{.'.{.].@X'.@X3XJ.@X#XH.].[.+X#X2X@X2X].].].}.Z.T.&X[.[.[.&X[.N.'.'.J.].].D.D.E.R..XR.D.R.R.D.g.B.g.B.H.H.].].5.@X#X]..X'.].H.].(.N.2X#X=X[.D.&X].].@X#X'.].1X1X+X@XR.R.[.J.D.OX[.@X2X@X@X@X2X2X#X=X=X@X8X7X.XOX*XoXoX-X@X].@X.X#X.XH.H.].+X[.].+X{.}.@X,X<X2X|.(.(.'.{.@X}.'.].@X,X2X].#X#X1X=X#X#X@X-XoX@X7X2X=X|.3X2XH.' 0X#X3XT.1X2X=X1XqX8XqX+X=X-X8X#XR.-X3X-XyX8XoXtX3X;XyXR.OXoXOX*X.XoX[.3X@XwX7Xe..XoXoXOXY...q.A.OXoX[.+X@X1X2X'.f.f =.f.D oXgX2X.X#X*XE.D.z.oXE.y.U.|.'.'.R.R..XJ.S.J.R..XJ.R.g.R.oX[.&X2X;X&XOXoXE.2X+X].].#X#XD.'.{.{.].[.oX*XOXOX.X.X+X#X-X+X@X].#XoX@X@X].[.6XqX{.@X].'.N.H.].+X[.oXoXoXoXoX].H.+X+X.X+X].2X}.=X}.,X@X@X6X2X=X6XqX3X8XqX8X8X#X8X2X2XoXoX#X@XoXOXoX].R.oXD.D.R.OX@X[.T.D.D.J.E.oXD.B.D.R.Y.J.Y.E.T.[.oX+X].].@X@X].].]..XoX'.T.T.T.D.].A.D.oXR.^.^.F.Y.OXR.@XB.E.oXR.H.J.].].R.J.J.J.R.D.D.T.H.A.J.+XH.J.'.].#X].oX#XoX.XoXOXoXE.R.E.^..XoX@X@X=X=X@X=X#XoX@X@X@X.XR.D.R.R.x.k.!.&XOXoXoXR./.D.D.D.J.^.R.^.R.OX*X.X2X@X=X3X[.T.] ",
"g.@XoXu.D.R.A.q.(.@X@XyXgXoX^./.oXuXD.oX . .D.#X.XN.].].OXJ.].R.B.D.H.'..X].@X].(.H.#X#X#XN.H.#XD.#X@X5.oX@X#X<X2X2X#X@X2X].].M.N.[.[.[.[.[.B.T.'.2XJ.H.R.R.[.D.R.F.R.oXF.g.oXF.D.Y.B.g.N.oX.Xu..XR.oX#X].H.].#X].|.|.2X[.[.B.D.+XC.].].+X#X2X=X'.'.}.H.R.E.oX^.|.=X2XoX-X2X-X.X@X=X@XoX7X-XH..X&X;X3X-X2X+X@X#X2X#X'.'.'.].].].@X,X1X@X{.@X3X+X'.H.{.}.}.@X'..X#X+X4X=X'.'.2X[.].+X+X.X8XoX7X2X1X1X|.5XqX5.<XJ.'.=X2X=X3X3X2X-XqX3X#X#X2X-X-X7X@X#XwX7X;X[.=X2XE.9XR.#XoXoX#XR.2X+X#Xe.N.A.R..XE.E.OXq.q.OX~./.+XqX}.5XgXW B.' g.].o.O.gX+X8X@X*Xg.A.R.oXY.g.[.T.'.'.R.J.]..XJ.].oXJ..X#X#X@X].2X=X=X'.[.[.@XoX+X+X].].-X[.&.T.1X}.|.=X[.=X#X#X~.@X3X@X#X'.+X'..X].#X2X@X@X#X'.}.1X1X=XH.H.{.<X@X[.].].[.[.].].'.+X+X].#X6X=X=X1X].+X=X+X1X3X=X#X-X8X#X2XgX.XH.qX@XoX#X@XoXoXOX@X@XoXoXE.oXoX.XT.T.H.A.D.D.E.R.T.B.D.Y.Y.D.Y.E.R.[.].].}.+X@X.X].'.'..XoX].R.R.R.].A.D.D.E.^.D.oXD.Y.&X@XR.f.B.R.H.H.R.].].].].F.A.H..XT.].R..X@X@X.X].H.].N.5.].@X#XoXoXOXOXOX.XoXoXR.E.oX=X1X@X@X@X@X@X2X2XoXD.oXE.oXD.F.k./.U.oXOXR.k..XoXoXY.Y.oXD.E.OXE.D.#XqX3XT.8X[.R.f.",
"A.R.@XwXF.k.A.#X2XV.N.].qXgXjXfX*XyXJ.F.oXD.D.oXF.k.XX:X^.D.^.Y.-X5.%.H.#X].].+X|.H.@X,X@Xy.G.OX@X].@X@X].@X2X@X@X}.=X@X[.].oXD.T.&X@X[.T.T.@XT.oX[.oX'.].'.H.2X#X-XE.R.A.OX.XD.J..XJ.D.A.A.R.E.2X].].-X+XD.T.&X(.{.@X@X}.2X,X2X1X+X=X@X'.}.H.2X].@X=XoX2X1X1X}.[.-X@X@X6X4X1X4X2X<X#X#X=X=X=X@X3X2X1X+X#X@X2X<XOX.XoX*X].oXoX-X].#X8X@X@X#X#X.X@X@X}.#X2X@X'.T.@X.X-X-X=X@X2X2X@X2X+X2X3X#X2X#X6X1X6X=X@X'.-XD.+X0X<XwX3X2X8X;X2X4X4X+X#X3X8X2X1X}.6XqX#X2X+X#X#XF..X-X@X-X#X.X[.@X.Xe.k.D.A.E.B.=X3X-XoXoXOX*X2X=X[.2X2XN.g.#XR.U D.u.#X@X<Xy.2X@X2XD.g..XOXOX.XR.].H.J.D..X].OXY.oXOXOXoXR.#X@X'.B.W 7X[.*XY.oX].'.].+X#X#X@X@X+X#X[.oX-X3X@X.X#X2X#XoX.X+X@XR.@X#X+X+X1X1X}.o.}.[.@X}.].+X+X#XoX.X[.].'.'.].U.E.R.oX@X+X@X{.@XqX5X@X,X2X2X0X@X#X#X+X4X6X2X@X2X].+X#XH.].3X].oX].R.@XoX[.[.[.oXJ.F.F.F.!.F.r.A.A.F.R.Y.D.H.T.'.'.'.'.+X+X[.[..XR.J.].oX@X.X].H.T.T.N.H.A.D.u.^.@X@XE.R.H.b.N.}.+X+X].R.T.T.Y.H.D.D.N.H.@X'.'.oX-XoX@X.Xo.v.H.].oXOX[.[.@X@X'.#X.XR.R..XoXoXoX@X#X@X+X=X=X=X=XR.Y..XR.].].#XoXA.Y.oXR.>.d.!.F.x.k.R.F.D.A.A.-X2XqX=XoX2X7XoXB.",
"g.#X#XwXg.A.e.&.3X+X2X'.5X5X5XfXlXF.g.J.Y.R.>Xd.k.F.F.R.oXoXD.h..XN.H.[.'.'.].'.].{.@X].@X}.'.N.G.<X].J..X@X].@X@X[.T.T.T.B.f.D.R.].R.oXoX].oXR.].[.R.B.].].].H.E.q.D..XoXA.e.g.J.g.R.J.R.oXoXD.+X].H.y.].;XB.g.v.}.|.H.}.6X}.@X].2X}.2X].H.+X#X#X@XoX=X@X1X=X1X&X2X=X@X6X6X1X4X@X<X2X2X#X#X=X=X#X@X@X+X@X@X#X2X&XoX@X@X].oXR.[.2X@X.X@X@X.X.X@X[.2X1X].[.@X[.T.@X+X@XoXoXT.[.#X#X2X2X3X5X8X3XqX1X1X1X=X@X].@X@XqX).V.2X4X3X2X@XqX4X2X2X2X2X#X2X1XqX@X@X2XN.#X.X#X#X#X#X@X=X].#X@X[.@X9XOXA.Y.OX].@X'.@X;XR.#XeX[.;X3X@XqXN.R.e.k k.q.D.A.A.sXH.oXH.].@XE.D.q.D.-X.X].J.J.A.R..X*XoXE.oXoXoXOX*XN.=X@X[.*X[.Y.OX@X].R.'.].[.@X#X@X+X[.+X@XoX+XR.@X@X#X2X2XoX].].R.#X2X=X@X1X2X1XH.#X'.[.].].+X#X]..X+X+X].H.(.|.&X@XR.'.[.+X2X2X@X5X2X1X@X,X#X2XqX3X#X2XqX3X,X2X2X}.+X@XD.D.#X@XoX].].oXE.R.T.T.Y.R.D.J.!.F.F.g.B.A.F.Y.D.A.D.T.'.'.'.'.].].'.'.R.R.R.].].J.'.].R.H.D.H.+XR.J.A.F.E.B.D.R.H.A.Z.].].'.R.R.Y.F.D.A.D.D.u.B.].'.'.J..XR.].#XH.+X].oXoXoXR.R.@X@X'..X].R.]..XoXoXoX@X1X2X=X@X=X@X+XY.J..X].R.].-X-X*XOXoXD.k.;.r.F.Y.F.F.oXoXD.oX2X].=X2X[..XR.@Xf.",
"A.oXR.wXwXOXO.A.yX3XqX5XqX5X5XfX-Xe.e.D.*..XY.r.~.~.OXF.;.D.T.D.N.o.R.R.].+X].].].{.+X{.+X@X[.H.A.#X@X7X@X#XoX].H.=X[.'.].D.y.B.J.R.]..X.X].].J.R.oX].T.[.oX2X].R.u.oXoXoXD.oX8X].J.u.e.XXOXJ.H.].J.+X#X-X-XoX].{.,X,X1X,X6X}.V.].2X+X6X].'.2X2X-X[.].=X[.@X#X2X@X2X2X=X6X6X,X,X#X3X3X2X#X@X@X@X1X=X#X2X1X1X#X#XoX[.[.[.].oXT.T..XJ.J.#X+X].T.@X#X@X+X@X2XqX3X[..X@XoXoX@XH.[.2X#X@X3X2X2X2X@X0X6X1X6XqX;X=X=X3X3X].].8X<X-X8X8XqX4X3X2X5X@X<X8X3X'.8X3X-XT.8X@XJ..X8X-X=X2X2X].[.[.R.qXoXT.OXE.y.].[.=X8XR.@XoXR.N.@X2XqXD.oXH.N ~ J.J.8X2X+X#XH.H.OX&XY.Y.y.f.#XR.R.R.R.A.D.].R.Y.J.-X7XoXOXoX[.=X].oX-XoX.XOXoXoXoX+X@X+X].].oX#X[.-X=X].[.].2XoX+X2X2XoX].[.].@X2X#X+X@X1X6X@X#X].}.+X+X].@XR..X@X@X+X].{.@X&X&XoX@X@X#X2X2X2X1X#X@X,X2X2X,X=XqX#X+X@X3X@X#X=X}.@X=XR.D.[.[.oX.X].@X].@X[.'.J..XA.F.~.A.D.D.A.A.D.D.A.g.A.H.J.'.].].oX[.'.'.].R.]..X].H.J..XH.H.H.T.H.y.N.'.k.B. .q.oX.XJ.y.'.T.T.T.J.J.D.g.H.H.H.B.N.H.H.'.R.R.D.D.].+X#X[.].@X@XR.H.R.[.oXR.R..X.XoX@X@XoX@X2X1X1XR.@X+X].oXJ.R.R.D.J.R.R.*XoX~.F.^.F.D.k.F./.^.oX.XD.-X@X.X2X3X2X@X2X7XB.",
"B.-XA.g.;.J.wXO.N.qX=XT.qX5X1X6XoX*.D.*.f.oXu.e.A.R.~.A.A.[.B.H.g.[.B.].H.y.@XH.].].].+X}.].].@X@X-XB.H.oX].R.oXT.=X[.'.R.R.D.Y.H.].#X].J.].'.[.oX].R.].R.H.[.R.@X-XR..XD.A.E.e.A.J.g.J.A.k..XB.'.+X].#XH.D.-X[.6X}.{.@X].+X6X@X@X].+X[.J.@X.X@X=X'.+X@X@X[.2X2X@X2X1X1X6X6X,X<X3X3X2X#X@X@X+XoX}.}.}.1X#X#X].].*X&X@XoX@X-XoX]..XOX#X2X@XoX'.].{.{.#X#X'.'.[.oX].#X+X&X@X].=X2X#X=X2X#X#X#X{.,X2X'.2X3X[.@X@X@X2X.X#X2X#X2X2X-X3X5X6X3X3X3XqXwX3X'.tX2X#X2XR.2XqX].2X=X2X[.@X'.@XoXf.B.[.3X=Xe.g.2X&X@X@X@X#XoXR.+X'.R.qXy.A.2X^ ~ F.D.7X'.H.V.8Xe.k.A.f.E.-XF.R..XR.H.J.J.R.R.E.OXoXE.oXOX*X].#X[.@X[.3XoXOXoX-X*XoXoX].].[.@X.X@X].@X-X@X#X#X2X+X].1X2X@X}.=X+X@X@X@X}.[.@X1X@X+X#X#X#X+X).@X2X#X@X[.[.+X+X{.oX@X@X-X-X#X#X+X+X+X3X#X#X].2X4X'.3X2X@X@X#X@X#X+X].'.@X@X].@X[.oX@XoX@X[.=X@X[.E.R.D.J..XJ.F.D.D.H.H.J.D.A.A.D.J.]..XoX@XoX'.'.].H.H.R.R.H.D.J.N.A.D.'.oXR.'.[.H.[.B.A.oXR.H.N.T.D.A.D.H.H.D.A..XJ.J.].].H.H.oX#X.XR..X.XoX].@X].@X#X.XH.T.E.oXR.^..XoXoXoXoXoX@X2X#X@XB.].oX].oXD.g.R.R.@XoXR.R.^..XR.r.F.oXoXF.R.oXF.D.Y.8X-X8X3X[.T.].@X].H.",
"A.:Xx J.2X&.-XR.5.@X@X#X'.3X'.3XyXg.#XD.J.R.u.O.#XoX.XA.].'.g.H.'.[.H.T.'.: 4.'.+X+X+X+X@X@X[.'..X#X.X.XoXD.].oX[.'.T.@X[.R.D.H.].].'.'.@X2X}.|.2XH.].].oXR.].T.@X@XD.#XR.]..Xg.R.].B.@XS.R.7XJ.#X-XH.].@X].-X@X}.1X1X1X@X'.{.{.2X+X#XR.H.@XH.R.2X+X=X@X+XoX2X#X-X1X=X@X1X6X4XqX2X@X+X@X#X@X@X@X+X[.].=X=X2X@X#X@X@X[.T.].+X].].#X2X3X+X+X@X#X].2X,X@X+X}.#X2X}.].+X+X=X+X@X2X+X=X3X1X2X1X@X,X,X3X+X2X@X#X2X-X2XqX2X@X#XwXqX2X8X8XqX+XqX3XqX3XqXqX2X3X2X].].[.2X2X-X-X[.qX3X@X@X'.T.].oX@X].[.W.R.oXR.oXoX-X].@X#X#X2X2XqX5.].G.L 7Xr.B..X2XwX+XE.#XOXy.A.oX^.E.J.oX].A.A..XoX.X*XOXOXoX[.oX].@X].+X@X2X@X@X*XOX*XOXoXoX[.].[.+XoXoXH.].2X2X2X@X+X}.@X1X6X1X@X@X-X=X@X=X#X#X@X@X@X].@X.XoX@X].#X2X#X].'.].{.+X{.oX@X@X#X#X+X@X.X].].@X@X@X+X#X#X=X=X=X@X#X].].#X[.'.T.'.@X&X2X#X@X#X@X@X'.[.'.T.^.D.Y.E.R.E.D.D.D.D.H.].R.Y.D.D.R..X.X].].].'.'.].H.D.R..XR.J.R.@X@XJ.H.'.'.T.B.D.].R.T.Y.D.u.B.U.D.B.A.D.J.J.R.oXR.J.oXoXJ.J.@XoX].].2X@X@XR.@X@XoXR.R.R.[.].Y.^..X.X.X.XoX@X@X+X#X@X+XN.].oX[..XR.R.oXJ.R.R.R.F.R..XoXk.k.A.D.k.e.D.].R.D.J.y.2X=X2X2X8X<XJ.H.",
"J.7XeX#X&..XR.7X@XoX@X2X#XH.D qX@XB.B.oXR.R.J.g.D.e.D.H.H.B.B.N.B.N.%.B.].H.H.+X@X@X#X+X+XoX[.'.R.R.-XR.e.e.-XoX'.H.[.-XT.D.A.u.'.[.}.@X@X'.T.&XY.f.oXD.[.T.[.T.].D.J.].J.J.J.#X;XoXA.A.g.oX#X-X+XH.'.'.D.D.].2X+X+X@X}.].}.6X'.[.3X#XoX'.[.oX[.2X2X@X+XJ.@X#X@X1X@X@X=X1X6XqXqX@X@X-X2X-X@X@X#X}.'.H.].[.+X+X@X@X@X[.T.oX@XoX=X@X+X+X'.#X#X2X}.|.{.,X2X+X].+X#X+X[.+X@X[.-X2X#X#X8X#X#X#X].#X@X].1X#X].3X3X@X2X@X-X].J.-X2X2XqX3X3X2X3XqX].2X4X8X3XqX3X'.H.2X2X#X3X3X2X2X3X].T.@X5.H.@X&X@X@XR.#XoXoX-XoX].y.u.-XoX7XOXR.J.'.'.H u.u.u.N.2X4X2XoXe.r.oXoX#XY.g.J.J.D.R.R.D.A..XD.g.oX*X-XoXH.'.].+X].+XR.@X-X*XR.~.oX#X@X.X'.'.oXE.oX.X-X#X-X@X+X#X=X=X#X1X1X1X2X=X=X2X2X-X@X[.#X].+X].@X#X@X@X+X+X.X{.{.+X@X,X.X@X@X#X@X.X+X.X].+X).<X.X=X'.'.2X[.].R.oXR.].].[.@X[.@X@X@X1X+X#X#X@X#X'.}.].'.E.g.R.D.g.D.B.D.B.B.H.].oX.XR.J.R.].R.H.R.'.].[.'.T.R.].oXE.R.^.R..XD.B.D.R.D.u.H.T.R.T.[.oXF.D.U.J.D.A.D.Y.R.R.oXoXY.R..XJ.R.J.'.R.R..XR.oXoXoX@X].J.H.R..X.XR.R.^.^.R.]..X@XoX+X#X@XoXD.oXoX[..XH.A.R.oX#X.XD.^.oXD.q.A.A.g.g..X].A.J.D.J.2XH.2X3X=X2XG.0XqXH.",
"A.A.S.8X5.7X7Xg.D.@XhXN.3XfX2X8XB.@X8X].g.o.g.J.oX.XB.g.'.H.N.H.Z.H.y.'.].'.'.H.+X.X@X+X+XT.].oXR.[.+XH.].].+X'.].].=X].N.u.D.N.[.].B.T.=X[.T.T.R.D.@XR.E.T.oXR.H.N.H.D..X].D.E.R.D..XD.5.u.J.].oX'.3XH.o.y.].#X-X].#X1X'.{.6X4.B.qX[.@X[.'.&X[.@X=X].].H..X.X@X@X+X#X1X6X6X6X1X=X;X-X-X#X#XoX].2X@X}.}.@X[.+X#X[.oX@XT.[.[.].#X<X@X#X#X2X#X+X].#X{.}.2X3X+XH.H.{.+X+X+X@X=X'.2X+X<X,X+X[.].[.@X@X3X2X2X#X1X=X#X-XqX@X'.2XqXyX2X3X-XqX=XgXH.2X#X-XqX8X].=XT.H.@X3XT.'.oX+X].@X6X[.y.H.T.H.@X@XT.^.R.@X#X@X@X+XoX#XOXOXF.z J.].(.u.U u.7XA.H.qX@XoX^.oXOXR.*XoXD.J.A.g..X.XB.e.].r.D.E.D.R.@X@XT.H.].+XoX.X.X#XOX.X~.~..X].].]..XE.A.OXE.-X@X#X-X#X=X@X+X+X+X#X2X=X@X@X=X-X=X@XoX#X].@XoX#XOX@X.X2X<X#X#X+X{.|.].].+X+X@X@X.XoX.X).#X@X@X].].'.#X#X@XoXR..XOX*X.X@X@X=X6X=X+X#X].+X+X+X@X].@X+X+XE.D.J.k.g.D.B.T.B.A.H..X@XoXoXE.J.Y.J.D.R.].[.+XT.H.R.R.R.D.D.F..X.XD.[.@X].y. .A.R.[.R.D.A.S.A.^.R.J.D.D.D.D.D.E.oXR.R..XR.R.H.[.[.].].H..XOXoX].].R.R.R.R.E.oXJ.E..X.XoX@X@X.X+X@X@XoX.XoXoXR.J.#X-XoXR.D.D.E.k.oX^.u.A.g.A.D.B.R.A.A.N.#XqXR.[ @X1X].I ( @XH.",
"J.A.O.8XJ..X-X.X@XyXoX@XqX3XH.3X&X&XoXD.e.7XJ.g.u.J.'.].N.N.C.C.T.B.'.T.T.H.].'.).).@X].@XR.J.A.R.H.[.].H.R.oX[.6X}.#X@X@XJ.H.A.N.oXR.R.R.D.E.@XR.Y.f.R.D.E.[.R..X#X].R.R.A.g.F.R.OX].g.R.B.H.J.@XR.].2X2X+X@X#XoX[.+X@X[.].5X{.C.qX@X@X&X[.&X[.].].].H..X].OX#X@X+X@X=X@X1X1X@X&X-X@X].+X-X.XG.2X@X1X#X=X].+X#X;X2X2X[.=X[.'.@X].+X+X2X+X+X.X@X@X2X@X{.@X#X+X].].+X+X].=X[.y.+X|.+X2X@X+X#X@X3X5X1X#X3Xy.H.2X].2X8X3X8XqX-XqX2X3X8X=X3XgXqXqX].-X2X@XoX;X;X2X@X=X=X=Xe.+X].@X'..X@X.XH.D.@XT.D.#XJ..XoX7X@XqX+Xk.7XF.eXq.5.'.(.u.A.2 u.J.2XM.#XN y.oXR.oX*X*X^.D..XD.A.A.J.D.R.oXE.D.oXoXH.R.'.}.[.H..X.X#XoX.X.X.X^..X.X.X]..XoXq.D.A.#X@X@X@X#X#X#X#X+X].]..X@X@X@X@XoXoX@X&X2X+X@X@XOX].oX.X#X].'.{.@X@X].]..X.X].].].R.oX@X,X+X|.V.@X+X#X+X@X.XXX#XR.oX#XOX&X[.[.1X@X}.1X@X#X@X+X@X'.].'.'.^.oXJ.D.].].T.T.J.R.].@X#X@XoXoXR.^.E.R.].oX].].].].'.]..XR.F.D..X.XT.oXT.B.g.F.J.].T.W.T.D..Xk.~.Y.D.D.D.D.D.A.Y.E.Y.oX#X.X.X~.H.'.].oXR.Y.oX^.'.J.R.].oXoX^.E.F.^.oX#X-X#X#X.XXXoX.X.XoX^.R.R.J..XR.D.oXR.Y.D.^.~.Y.R.g.B.H.oXJ.H.H.H.A.8XJ.t.f.y.[ { ).P wXH.",
"y.U oX*Xe.R.].[.-XyXoXyXqX2X#X].7XeXF.;.!.OX%XF.u.J.H.N.].(.H.].+Xy.A.+XH.{.G.v.R.H.].].].oXR.R.@X].'.].+X+X@X+X@X@XR..XoX@X.Xy.J.]..X[.].'.].].].'.'.H.@X].].oX^.Y.R.Y.D.D.R.R..Xg.R.].@XB.A.].|.#X#X].+X#X@X[.#X+X+X,X,X,X,X@XoX@X@XoX@X#X<X@X6X=X@X].R.'.}. X;X@X@X=X#X=X1X@X6X1X@X}.Z.@X,X6X*X&XOXE.*XOXoX#X#X@X@X#XH..X#X-XoXR.oXR.].#XXX#X@X@X].3X.X+X+X#X@XH.+X+X].#XoX.XJ.K.A.+X].#X2XqX=X1X3X[.@X@X=X}.-X2X2X@X;X*X;X;XqXqX8X8X8X3XqX6XuX9XtX2XoX;X8X3X-XoX-XJ.qX3X'.2X;XD.H..X.XoX].H.]..X].e.2XJ.o.'.@X#X8X].5.4.].<Xr.~..Xy.g.R.u.8X0X0X.X@XD.OX-XD.].R.XXR.J.J.k.D.D.J.R.].T.'.E.E.A.G.H..X.XoX.XOXoX[.[.[.].].oX&XR.R.E.[.@X-X+X#X#X+X@X#X[.'.[.@X@X+X@X@X].#X2X.X.X2X@X+X@X].{.@X@X}.,X@X]..X.X].T.[.@X+X].#X,X@X].@X#X1X=X@X=X@X=X[.'.].[.}.@X=X2X#X@X@X@X#X@X].@X@X+X+X+X].].@XoX.X.X].J.'.].R..X.X].#X].'.].[.f.R.oXE.R.].R.N.T.}.&X].].C.T.'.J.]..X].].'.H.+XH.H.H.oX@XE.E.R.oXR.oXE.Y.Y.A.g.A.H.R.].].[.oX@X#X.X.XR.oXR..X.X.X.XJ.J.Y.E..XY.[.oXoXoX@X.X]..XoX[.@XoX].@X'.7.H..X#X.XR.R..XoX.X^.J.J.A.F.R.^..XoXE.R.D.[.+X}.F.J.R.8X5.y.J.[.",
"U t OXq. .g.y.;XtX-X@XH.-X3XqXfX>XD.r.F.9XOXL.q.A.A.].T.}.|.}.(.H.y.H.].G.H.@X+XJ.H.H.oX@X@X@X[.T.].+X}.[.+X}.}.oXoX]..X].J.].R.H.J.].'.].].+X@X'.].'.'.[.'.H.R.oXoX.XD.E..Xg.D.].A..XR.A.N.R.].|.].H.H.].#XoX'.+X@X#X#X#X,X@X|.-X3X@X@X@X.X#X].@X}.+XoX'.'.{.}.-X@X@X=X#X#X2X3X@X+X#X5X@X].H.@X[.@X;XoX*XoXoX*X+X#X@X@X].+X].D.R.#X#X].2X7X@X@X#X#X+X#XH.].+X=X'.H.+X].].-X-XoX#XrX#XeX2X2X8X2X6X1X@X[.3X2X=X=X@X@X@X@X-X;X-X@XqX3X@X#XqXqXqX@X9X*XyX#X-XH.[.'.oXE.2X2XT.2XqX=XoX@X=XoXJ.].#X#XA.e.8X2X2X2X].-X#X#X@Xg.@X].G.@XXXk.y.u.R.gXzX#X+XqX@XoX-X*XY.*XJ.R.J.J.J.A.d.y.D.R.R.T.].].].oX+X+X+X.X].J.Y.^.@X[.[.[.].oX@X@X.X^.oX@X-X-X[.+X@X@X@X@X].'.[.[.,X+X@X+X].#X2X@X+X#X.X+X#X@X{.{.].|.}.@X]..X.X].].].[.}.@X2X2X+X+X1X@X6X#X=X@X[.[.'.'.|.[.}.@X#X2X#X+X[.].+X@XoX@X@X@X+X+X].|.{.@X.X.X.X].]..XoX.X].].@X1X+X}.'.d.J.E.Y.H.R.'.H.|.}.[.'.[.T.].'.].H.H.H.].].'.].[.@XH..XoXE.oXD.Y.E.oX.X.XE.H.D.J.J.R.oXoX].R.R..X.X.X.X.XR.R.R..XoXR.R.R.E.oXE.'.@X=X#X@X].J.R.E.OX*X@X@X].'.'.#X-X#X.XJ.R.oX@XOX^.F.R.J.J.D.J.D.E.Y.D.oX].@X@Xw.*.;XR.y.qX.X].",
"U U OXy..Xe.@XqXyX].R.8X3XqX].2X-X} H :XF.7X#Xr.A.].[.B.T.|.{.'.y.N.N.H.5.t.{.{..X.XR.@X@X'.].R.T.'.[.].'.'.].|.].].oX.X].J.H.].].].].].].]..X.X+X@X'.[.'.[.R.oXu.g.f.J.R.oXR.g.J.R.R.B.D.].].].].'.H.H.[.@X].R.].@X2X#X@X2X2X{.@X3X].@X@X].#XJ.}.}.+XoXR.'.@X6X2X@X].+X2X<X@X#X+X+X1X2X1X@X'.+X[.*X;XOX#XoXE.E.@X3X=X].].oX]..X].oX+X3XoX.X@X@X].].#X2X+XqX+XH.'.T.].H.[.@X3X-X0X<X8X#X#X2X].2X].1X2X@X2X@X@X;X@X&X;X;X&XoX3X-XtXtX2X-X8X3X3X1XuX2X@XR.H.].@X2XuX].E.-X2X'.6X1XOX-X-X].J.].+X+X7X].8XA.g.-XR.T.-XoX-XN.H.@X].2XE ~ oX].g.H.-X#X@X.X#X@XE.OXE.R.J.R.g.g.A.A.E..Xd.D.R.H.@X@X-X2X#X@X@X]..XJ.E.^.R.T.R.].]..XoX[.oX^.oXoX@X#XoX+X@X,X,X{.'.].}.[.@X}.@X#X+X<X2X.X#X#X.X@X,X@X+X+X].{.}.@X]..X+X}.'.'.].@X1X6X2X[.].1X[.=X'.@XoX@X'.'.[.[.].}.@X@X#X=X=X@X@X@X#X@X-X-X@X+X].'.'.]..X.X].].].J.'.=X@X@X#X@X=X].#X].D.R.E.J.H.]..X].[.[.@X@X@XT.].'..XJ.].R.].H.'.'.[.[.@X]..XE.A.D.Y.oXE.R.E.Y.Y.R.R.D.D.J.R.T.R.].oXoXoX@XoX.X.XoX.XoXR.R.Y.Y.^.E.H.[.@XoXoXoXoXoX.X#X.X].#XoXR.#XoX.XR.J.J.R..XoXOX.XJ.^.E.E.J.R.oX.XY.J.@XN.N.=XH %.qXD.I @XwX'.",
"q.g.#X@XR.g.8XJ.D.oX7XoXzX+X3X6X8X&.R.7XD.;.#Xr.q.Y.R.'.'.@X'.T.'.].H.+Xt.H.|.{.@X#X@X@X@X].oXoX@X'.T.[.+X].].@XR.R.R.R..X].A.H.J.J.]..X.X.X.X.X}.}.'.].R.].].oXD.e.D.B.u.R.J.oX].@XR.A.B.oX].R.'.].].[.@X@X].].R.@X2X#X+X1X2X+X[.@X'.}.#X+X#X'.}.}.@X@X].].@X1X2X+X].+X3X<X.X+X2X+X+X].@X2X=X@XoX@X].].-X-XoX].oX2X-X@X#X@X].@X@X.X3X8XqX@X2X#X1X}.#X].C.#X@X@X].'.'.H.2X+X2X2X#X<X+X8X7X@XoX-X@X2X=X'.[.=X;X&X;X;X;X&XT.g.OX&X@X3X8X7X8X2X2X5X2X@X-XA.-X8XqX8X2XqX3XoX8X'.=X@X&X@XR.].+X'.].].y.].-XB.D.-XH.oX*X@XqX#XO.u.#X2Xz U .XoXD.y.3X2X8XR..XoXoXOXoXR.].~.F.J..XR.F.A.A.D..XoX#X+X@X@X[.].'.R.@XoX.XR.J.T.].@XoX.X.XE.R.R..X@X@X-X@X@X@X,X,X}.'.'.}.oX}.}.,X#X#X#X#X].<X<X@X,X@X|.{.@X+X,X X}.}.].@X@XR.'.@X2X1X#X@X[.].2X@X-X'.oX#X3X[.@XoX[.].}.@X@X@X#X#X@X#X#X#X#X@X=X@X+X+X}.].[..X].J.].oXR.R.=X@X#X-X#X@X].#X+XoXoX].J.J.].oX@X;X].'.[.oXR.oXR.].J.]..X@X.X@X].oX'.oX[.#XoXg.R.D.oXY.Y.E.D.Y.R.].R.J.R.R.]..XoXoXoX]..XR..X.X@XoXoXR.R.R.Y..X^.[.oX].R.].oXoX.XoX-XR.H.oX@X].oXoXoXoXoX@XoXoXoX.XoX.X].J.R.R.oXR.D.OXJ..X@XD K q.].qXtX6.t.qXgX",
"J.K D.D.J.@X-X].D.-X8Xg.xXy.qXvXY.e.y.R.R.g.~.J.w.e.A.oX'.+X+X'.].].H.+Xy.{.(.|.@X#X#X].].oX]..X].D.D.].@X.X].+X].D.H.H.R.J.N.J.H.H.R.].].].].].1X#X=X[.R.D.A.g.g.J.J.#X@Xe.N..X].].-XoXo.f.oXY.'.].].@X=X@X[.[.].@X-X@X].].+XoX@X+X+X}.@X#X}.'.'.'.@X-X@X+X}.].].+X+X#X2X@X.X#X3X'.].+X}.@X@X|.[.-XoX@X2X#X@X@X-XoXR.].#X.X].oX-X@X#X[ 2X@X2X<X[.'.2X#X'.@X'.'.'.}.}.'.3X-X2X@X@X#X8XJ..X8X#X2X;X=X=X[.'.&X&XT.3X-X=X&X[.R.3X-X&X2X2X7XqX8X,X1X8X3XqX].qX8X#X].@X@X-X-X#XqX2XH.+XoX'.#X-X].+X=XA.@X8X8XoXoXR.@XoX-X2XqXH.t.+XG.z D 2XA.&.H.#X@X@XD.D.#XoXY.oXE.J.D.D.H..XR.q.} F.A.R.2XoX]..X].[.[.R.].oXoXY.D.J.R.oX@X.X~.R.Y.J.H.oX=X=X2X@X@X,X}.@X@X|.'.}.@X1X@X@X+X+X#X#XoX<X,X@X#X+X'.'.'.].}.|.{.+XoX@X{.].].=X2X@X}.+X}..X#X#X#XoX.X#X#X@X@X[.'.'.[.@X@X@X@X].'.oX#X<X2X].@X@X=X-X#XoXoX@X.X].@X2X+X].1X@X#XoX-X@X@X+XJ.#XoX].R.].]..X.X[.@X-X.Xg.&.A.oXH.J..X.XR.D.].'.@X@Xy.R.-XE.oXR.g.E.Y.oXOXR.Y.Y.R..XoXoX.XoX.XR.oXoXR..XR.oX.XoXoX.XJ.R.oX.XoXoXR..XR.J.E.OXoX.XoX#XoX].R.]..X@XoXoXoXoX.XJ.D.S.R.oX.XJ.A.R.R.].R.OXA.E.oX-XoXg.OXe.[.3X@X].xXoX",
"H ..H.D.-X@Xy.u.y.oXyXlXqX5.N.qXJ.R.g.f.f.y.u.q.@.r.D.r.B.H.@X.X@X'.}.}.H.[.].+X@X@X.XH.R.@XJ.R.J.J.J.J.R.]..X].R.H.R.].J.u.y.H.H.H.J.J.J.J.R.].].'.[.'.].Y.oXE.R.oX.XD.J.@X@X].g.H.@X&Xe.d.oXoX].}.].[.@X[.'.'..X.X@X@X].].oX@X,X@X#X+X}.@X'.'.'.'.[.@X@X#X+X].+X+X+X@X<X#X+X@X@X+X#X+X'.[.[.'.[.3X=X2X@XT.'.@X-XR.H.T.].'.oX@X#X2X2XZ.2X5X+X{.@X'.[.@X@X6X}.{.'.@X@XH.#X2X8X#X2X.X).].8XB.@X-X2X#X=X2X[.[.[.R.&X&X3X2XOX[.*XOX7X-X*X@X3X3X@X1X,X2X2X2X8XwXoXqX@XH.8XwX@X].@X3X#X2X@X-X-X@X1X+X#X#X].@XoX-X*X&X].-X-X2XwXH.].' f z u.N.N.y.A.2X@X@X-XqXoXY.OXE..XJ.~.J.R..XD.Y.R.A.J.2X'.]..XoX].oXR.].Y..XY.Y.J.J.[.[.R.J.R.R..X'.#X=X@X@X=X@X,X}.}.,X{.].+X@X@X@X@X+X@X#X@X+X@X@X+X#X@X].'.N.y.'.|.{.].'.}.}.#XOX@X@X+XoX+X+X]..X.X@X#X@X#X].[.].R.T.T.'.[.oXOX@X].R.@X@X+X@X#X-X#X@X@X@XoXoX#X@X@X1X2X#X+X#X@X@X].=X[.@X@XoX=X@X].]..X.X.X]..X].oXoXoXR.OXOX.XOX.X@XR.Y.@X@X[.@XN.R.@XoXOXR.D.E.^.oXOX.XE.E.].@X@X.X]..X.XJ.oXoX.XoX@X#XoXR.oXR.D.R.oXoXOXoXA.J.E.E.oXOXOXOXoX.XoX@X].R.].@X-X-X@X.XR.R.J.R.R.[.].R.D.oX@XR.#XF.-XoXR.R.R.#X.X2XT.3X].cXyX6.",
"9 R.D.R.D.2XJ.wX7X7X2X@X7XqX3X8Xg.A.g.D.R.oXJ. .~ k.k.*.B.H.H.'.}.].}.].H.H.H.H.]..X).).#X-X@X#XoX@XoX].'.oX@X@X.X]..XoXH.u.g.N.N.H.H.J.J.'.].[.+X].'.H.D.D.Y.D.oXu.Q .XR.y.B.N.7.H.R.[.oX[.^.^.+X@X[.'.[.[.R.R..X.XoX@X@XoXOXoX@X@X#X@X@X@X].].#X[.'.[.[.@X1X<X<X@X{.+X#X#X#X.X.X3X=X].T.@X'.[.].#X'.#X@X].+X2XR.T.@XoX[.@X2X].2X1X2X5X].6X@X,X'.[.[.[.@X}.@X1X|.}.1X'.'.@X#X7X].#X3X@X2X#X2XD.8X-X[.&X=X2X&X;X6.f.@X[.@X&XOX*XOXOXoXE.=X2X,XqXqX3XqX#XyX8X].2X8X@XqXoX2XoX@X7X#X2X@X=X#X#X2X'.H.#X@XoX@X-X@XE.@XOX2X,XqX{.V.I n N.3Xg.e.g.t.#X+X2XoXoX].R.D.R.H.J..XR.R.J.J..XoXoXoX+X].'.R.].R.R.R.Y.R.E.E.E.].'.[.@X].E..X.X=XoX-X=X[.[.@X#X}.{.@X@X@X@X@X+X].}.@X@X1X1X@X}.+X+X+X#X+XoX].B.5.|.{.}.].H.}.1X#XoXoXoX].oX+X]..X#X+X#X#X#X#X+X].].R.R.'.'.[.[.@X*X@XoX2X#X].].8X8X#X.X.XoXoX@X#X#X#X#X@X@X}.].@X+X].+X].].#X2X@X@X+X+X+X@X.X].].oX#XoXoXA.k.d..X].t.B.R.-X=X].[.'.@X@XoX@XE.oXoXE.oX.X.XoX.XOX#X-X#X].].@X#X@X]..X.X.XoXoX.XR.oXR.D.R.oXoXoXoXY.E.^.oXoXoXE.E.oX.X.XoXoX[.[.oX@X@XoX].R..XXXoXR.[.oXoXH.#X-X.XoXE.#XR.R.#XoXF.y.H.[.qXoX+XxXf.",
";.9 &.H.@X#XD.lXg.8XY.g.8X3X'.3XA..XE.&X&XA.y.5.d.e.} f.N.@XT.[.'.].H.}.N.N.N.y.J.+X].+X#X].].@X[.R.R.[.@X+X+X+X@X#XR.H.H.J.].u.H.]..X.X.XJ.J.R.'.'.R.].F.oXoX^.J.D.Q .XH.y.y.R.H.'.H.R.oXoX^.D.T.[.[.'.'.].'.[..X.X.X@X@X#XoXY.@X#X@X1X1X@X@X[.=X}.].[.].+X<X<X2X,X@X+X+X-X2X#X@X8X}.@X@X@XN.[.3X=XN.[.2X#X#X1XE.T.OXR.R.;XqXD.J.#X2X1X@X,X6X@XT.'.B.Z.'.].|.'.}.|.1X1X+X.XJ.rX<X2XH.8X@XoX2X@X5.].&X3X;X@XT.&XT.R.3X@X3XtX*XOX>X7X7X-XtXqX+X2X4X8X@X.X-XyX].8X#X7X7XoX.X].J.].J.].}.2X#X=XqX@X2X7X8XoXR.oXoXOX;X[.@XqX4X|.' 6.f o.B.D.y.y.u.#XtXe.e.@XD.R.R.].J.~.F.R..X^.oXE..X-X-X].=X[.].OXR.R.J.D.oXE.E.D..X].[.[.[.Y.Y.F.+X].2X3X@X[.oX.X{.}.@X@X@X,X#X+X{.@X}.}.=X1X}.@X].+X@X#X].[.@XT.C.}.'.{.}.].}.{.oXoXOXoX'.].[.].oX2X@X#XJ.).J.].oXoX@X@XoX[.[.@XoX&XoX[.2X-X+X@X<X2X@XoX@X@XoX@X@X#X2X#X].}.}.'.@X'.'.'.oX].#XoX}.+X@X+X+X@X.X].J.oX#XoX.XA.z.z..X#XN.J.H.oX@X&X}.T.H.[.].D.Y.E.E.F.^.E.E.OXoX*X2X#X@X.X.XoX.X.XoXoXoXR.oX.XoXoX@X].J..XOXoXoXoXoX^.Y.R.oXOXoXoX].@X@X].oX&X@X[.oX@XoXR.J.~..XR.[.[.@X@XB.].@X].oX#XR.OXOX*XOXF.J.[.f.3X[.gXoXF ",
"].H.T.H.R.3X].'.&.J.uX8X2XqXcX.X*Xw.H 2XJ.g.^ ^ ~ O.e.&.].,X].].[.B.H.'.A.N.H.H.).].(.<X2X].}.+XoX.X].@X#X|.|.,X@XR.H.R.R.R.Y.D.R.].].oX].].#X].[.f.B.].H.].'.D.C.R.&Xy.R.D.F.J.R.].R.D.E.^..XR.R.U.R.A.A.oXoX^.].].#X#X@X@XoX#X@X@X=X-X=X@X@XoX1X+X'.@X].H.#X@X'.T.2X+X#X1X=X@X[.@X@X2X+X@X[.oX@X2X1X}.[.+X@X#XoXoX].[.R.#XoXoX+X].2X].@X8X@X+X@X+XH.%.].{.@X{.@X@X2X#X#XoX=X@XOX#XOXoX&X-X@X@XN.].8X8X-X#X@X@X7X-X8X8X2X8X8XoX2X3XqX3X3XqXqX3X8X-X-X.X.XeXuX9X@X].#X2X8X#X-X-XoXR.@X2X#X@X+X2X2X+XJ.2XoXR.#X-X#XR.T.2X=X3XI g.j r k.D.r.S.S.F.2X;X3X&XB.OXD.E.A.D..XY.y.E.oXE.+X@X+X=X@X'.].R.'.'.].R.H.oXR.@X]..X@X@X].].'.[.+X=X2X;X&X@X}.{.H.+X2X#X@X@XoX].].'.].}.T.}.1X].@X+X@X@X@X{.].'.+X+X}.}.}.].@X1X@X[.].}.@X].'.]..X@XoX@X.X].#XoX@X@X;X.XF.oXOXOX@X[.+XH.@X=X@X;X@X}.|.2X@X.XoXoXoX#X#X.XoX.X.X.XJ.Y.oXJ.@X-X-X@X&XoX.XoX=X2X#X.X.X.X@X.XR.J.E.oX[.[.].oX].N.o..X.XR.oXoXoX[.'.[.H.'.[.'.].#X,X,X2XoXoXoXE.^..XJ.oXXXR.#XOXE.*X*XT.R.oX].@X@X[.'.oXR.^.oXE.OX*XoXR.oXOX.X~.XXoX.XoX.XJ.oXoXR.Y.OXJ.R..X8XD.R.J.#X-XoX@X8XqXyXJ.`.5X}.y.[.tX8XyXU ",
"@X].N.6.3X'.g.'.A..XR.8X].A.wX7XD.L R.].e.y.e.$.T ~ XX@X{.H.|.+XD.H.B.H.H.(.G.H.G.+X<X].].].+X@XOX.XJ.H.].+X[.[.+XR.H.R.R.R.].E.H.].].[.}.].#X@X@XR.H.R.f.R.].R.@XB.R.@XR.R.].J.T.B.].].*Xu.Q .XR.B.D.@XOXoXD.F.].].#X@X@X@XoX#X@X=X=X@X}.}.@X2X[.[.].@X].H.#X6X#X}.3X].@X+X2X1X2X].1X@X2X#X+X-X@X2X2X@X#X#X#X#X].[.@XoX@X].oX@X<X#X].].#X#X<XJ.{.].}.H.#X}.@X}.,X@X+X].].oX@XoX#X#XoXoXoX@X}.=X-XN.].#X#XqX2X2X-X2X8XqX8X8X-X8X2X3X-X=XqX[.2XfX2X8X2XoX#X#X.X-X8X+X@X2X].-X8X#X#XOXoX*X2X=X@X].@X-XR.2X-XoX.XD.@X@X'.=X2X' d U t % } D.&.J.F..XqX@XR.R.@XA.J.E.J.A.].J.H.T.[.[.+X@X+X@X[.T.T.J.H.].@XD.D..XJ.R.oXR.J.J.'.[.].}.2X2X=X&X&X@X@X].]..X@X@X@X@XoX.X'.|.@X}.T.'.+X].)..X+X@X{.{.].'.].].}.+X].[.@X1X@X[.'.T.'.T.'.].#X@X#X-X@XoXOXOX@XoXoXoXJ.*XR.D.+XoX'.oX=X@XoX-X@X1X].1X@XJ.OX^..XoXR..X]..XJ.R.E..X-XoXoX@X2X#X&XOXoXoX@X-X2X@X]..X@X#XoXE.E.Y.R.oX].D.H.#XJ..XoX.XA.E.oXR.[.H.R.].].'.].#X2X2X#X.XoXoXR.R.R.D.XXR.oXR.J.^.^.*X&X].].T.].].'.@X^.E.oXoX.X.XoXR.oXR.F.J..XXXXXoX]..XR.oXE.D.D.E.-XJ.J.oX.X-X-XR.].&X].#X8XoXF.wX}.5XN.e.tXf.I 0 ",
"g.2X@XoX]. .5.qXR..XoXoX8Xg.r.vXD.R.D.5.R.*Xe. .L ^ ;.#X@X].+X].'.H.g.H.'.].N.N.).H.@X].@X+X'.+X#X.XH.A.].@X+X[.oX'.].oX.XR.R.R.R.=X-X2X2X'.T.#X].oX].[.D.[.@XoXB.H.D.R.D.].D.e.D.E.@XD.R.R.R.oX[.'.[.R.D.Y.D.A.+X].@XoX].R.J.R.@X#X1X1X#X@X#X#X-X@X].@X2X-X#X=X}.].2X#X1X1X2X1X].'.#X#X#X2XT.].@X@X=X@X=X@X+X+XoX].].].8X-X@X.X,X,XH.'.].].<X+X@X].+X}.@X{.@X@X}.#X#X+XD.J.oX2XOXOXoX[.[.'.[. X#X].8XqX#X2X8XqX-XqX-X;X;X&X8X2X3X=X=X2X8XtX6.].qX0XwX7X#X2X-X#XR.@X2X8X].@X#X.X*X*XY.T.E.[.;X*X].8XqX2XoX.XR.].@X-XR.oX-X' f Q t 2 g.k.D.F.&.oX8X@XR.R.R.Y.E.Y.R.D.Y.Y.[.E.[.oX@X@XoX@X].T.].oX.XJ..XD.R.D.D.].oX.XoX.XoX+X[.@X,X,X#X@X@X@X+X}.@X].].oX@X.X].oX].}.@X}.}.}.].'.].].{.+X@X}.+XoX'.].+X}.].].}.@X[.@X@X[.].'.+X2X@X.X@X-X@XoX.XOXOX@XE.oXR.oXA.q.y.@XoXoXR.oX@X].{.#X#X@X#XH.E.J.H..XoXoXJ.J.J.#XoXE.@XoXoXoXoX].oX@XoX.X[.@X-X#X@X].].].J.Y.E.J.].D.A.R.+XoX[.#X].oXH..X.XH.].T.T.oX[.@X@X@X-XoX.X.XoXoX.X.XoXR..X.XJ.J.R.R.oXY.[.[.@X@X@X&X].oXF.R..XoX.XE.R.J..XoX#X#X#X#X.XR..XR.H..XJ.D.Y.R.oX.X#X-X.X#X-X.X].-X.X-XyX7X<XOX|.fXoXN.3XT.7 9 ",
"f.B.g.2Xy.I ].].oX8XoX8X].g.wXu.K H.H.2X2XD.F.s.^ L q.%.H.).H.].'.f.y.H.N.H.H.'.].H.+X#X#X'.H.#X#X+X].].+XoXoX@X@X@X@X@X.XR..X.XoX-X@X[.[.[.+X2X.X.X'.oX].R.R.J.T.oXH.oXoX.XR.R.R.A.Y.R.R.].#XJ.T.T.[.T.g.q.u.F.].].+XoX+X@X@X#X@X+X@X1X6X2X@X[.#X#X#X@X#XoX].@X2X@X].1X].}.].#X].}.4X2X1X2X'.H.&X=X=X=X=X#X@X#X'.=XoX@X@X-X.XoX3X@X|.|..X#X+X+X#X+X}.+X+X].+X@X}.}.+X#X].oXoX@X#X-X2X2X=X[.[.1XR.8X-X2X8X@X2X6X3X2X8X;X2X@X3X&X2XqX3X=XqX3X'.#XsX2XqXwX8XwXwX#X2X8X#XJ.-X#XoX.XD.oXOX-X2X@X[.[.3X-XwX@XR.R.e.y.'.'.R.B.;Xf.y.B.= Q A.Q u.g.F.#XyXg.oXoX].D.oXR.D.Y.D.Y.R.OXE.oX@X@XoX@X[.R.[.@XoXJ.]..XoXH.B.].R.R.oX@X@X@X].}.+X,X2X#X@X@X@X@X+X].].+X].T.R.].].+X}.}.@X@X|.(.@X].|.@X,X+XoX#X].].].}.].].}.@X].oX[.'.'.].+X#XoX].@X=X@XoX.X@X-X#X*X.X.XR.F.f.A.XX@X#X.X].oX&X+X.X3X.XoXoXJ..XoXR.R.R.oXJ.J..XoX]..X].oXoX]..X[.OXoX.XoXOX@XoX@XoX@X#XoX.XE.D.D.R.J.R.oX'.+X[.].R.oXoX.X.XT.R.Y.OXoX@X@X].oXJ..XXX@XoX.XoX#XoX.XoXJ.oX#XE.oXD.T.&X@XoXR.oXoXoXD..XoX].oX].J.R.J.oX@XoXoXoX#X#X.XR.H..XR.]..XR.@X#XJ..XH.@X@XoX-X8XoX-X8X7X8XOXqX'.H.[.f.tX8XB.",
" .; 5.O.} X.].@X].].H.].[.8X#XD.D.6.%.8Xe.E.oXD.;...e.q.N.H.+X@X[.B.N.'.f.H.H.].@X+XJ.].@X#X].R.oX@X@X@X@XoXoX&X&X@X@XoX]..XOX#X@X2X2X@X[.=X'.5.oX.X].].oXR.oX.X].R.R.].[.D.oX&X@Xy.E.oX.XR.D.@X].|.[.B.o.o.y.Y.}.].}.}.@X2X=X-X#X@X}.}.+X@X#X@X+X#X#X@X-X2XoX-X2X+XT.6X].'.T.@X1X#X@X@X3X[.-XoX@X&X@X@X@XoX+X1X=X#XT.].#X-XR.R.@X@X3X,X#X#X].+XT.@X#X,X,X@X.X#X{.].+X+X#XoX@X.X|.}.@X@XoX].].#X@X7XoX2XqX2X5XqXqXoXqX8X3X].e.R.2XqX3X@XqX2XwXqX8X2X2X0XgXqX@X-X2X2X].B.oX].R..X=X}.#X@X#X1X}.1X3X'.#X2X].H.y.O.H.#XH.@XH.B.+X@Xr H f.&.q.A.g.@X2XB.oX@XR.J.E.D.A.R.D.Y.Y.E.Y.E..XoXoX@XoXR.'.E.J.].oX#X@X@XH.T.oXR.].[.#X2X#X#X,X2X3X2X=X#X@X@X+X+X].].'.H.'.'.H.].}.}.@X].'.}.J.'.|.}.{.].].oX@X].'.[.[.].].#XoX.XH.H.'..X].].@XoX2X#X@X@XoXoX@X#X#XE.oX^.oX^.OXR..X].oX].].@X#X+X-X.X.X-XR.-X[.oX@X].J.A.F..XR.oXoXR..XR.J.-X&XOXoXoX@XOXoX.X#X@X=X#XoXE.R.F.D.OX.XD.oXR.oXoX].T.R.R..XoXJ.H.Y.OXR.E.J.A.E.Y.]..X@X@XXXoXoX.X.X.X#XOXOXoXY.#X@X;Xg.A.H.R.[.B.H.oXoX.X@X].J.R.oXR.R.oX@XoXoX#X.X.X].@X]..X].H.oX-XD.].#X2XoX#X-X2XR.#X8X7X].#X=X=X].5XH.B.2XJ.",
"4.l g .XO.@X+X#X@X<XgXH.@X2X.XH.2Xo.2XD.g.-XE.d. .k.E D.V.V.'.'.B.H.B.'.@X2XR.H.A..X@XoX].oXoXoXoX&X@XoX@X@X@XoX[.[.oX@X[..X@XOX=X].[.'.T.@X=X[.].@X.X.XoX.X-XOXH..XoXR.@XN.B.[.E.g..XD.g.J.oXoXH.].'.6.[ 6.B.T.}.].}.].[.@X[.[.,X1X,X@X{.{.@X2X+X@X+X@X3X8X8X2X+X'.].6X2X'.].}.2X@XM.,X,X@X#X-X[.@X@X[.].].oX#X].].+XoXoXD.J.-X}.1X2X}.+X{.1X@XN.+X,X#X,X@X+X2X{.].#X[.+XR.oX.X=X=X@X@X#X@X@X#X2X#X8X2X=X3X3XqX3XqXH.=X8X].*.D.qX;X3X3X2XqX2X2X<XqXqX2X8XqX-X-XoX*X-X7XoXoXoX-XC.M.#X1X@X,X|.,X+X'.].3XH.6.oX].[.T.=X'.'.%.H.y.t Q g.&.&.B.A.e.D.8XoX@XD.J.Y.D.Y.R.R.R.oXD.J.R.]..X].oX].Y.E.[.R..X].oX[.oXR.'.OXoX@X@X#X1X@X1X2X2X,X,X1X2X-X#X2X#X].'.'.].].'.H.'.].}.@X}.{.,XN.'.+X].H.'..X.X1X+X].[.].'.'.}.R..X]..X@X@X.X.X@X@X-X@X[.oX].R.R.oXJ.Y.R.E.E.R..XD.XXR.oXoXE.Y.J..X].oX.XoX.X.X-X@XR..X.XXXJ..X].@XoX.X.XoXR.*X*XoX.X.X@X@XoXoX=X=X+X].R.Y.R.^.R.R.F.R.*XA.D.].R.].H.R.].H..XJ.H.].R.R.Y.D.E.R.R.]..X@X@XXX.XR.OXOX.X.XoXJ.R.#XOX*XA.oXOXD.R.B.H..X].].@X.XJ.R.oXOX*X-X#X@XoXoXR.oX.XoXJ.J.].].oX8XoX.X8XoXoX-X7XOX.X7X7XwX.XXX8XgXH.@X5XT.] A.",
"%.].O.J.wX#XN.qX@X@XsX@XqXR.=X8X2XH.8X-X@XwX7X-Xg.A.R.g.].G.N.@X'.'.T.'.[.H.5...u.g.].D.@XoXoXoXoXOXoX].@X@X@XoXE.].[.@X[..X.X].=X'.}.=X[.'.R.=X].+XJ.@X.X].E.A.J.].R.oX-XN.=.T.OXE.oXoXH.H.@XJ.y.5.M.C.N.N.B.R.].].}.[.+X1X=X2X@X,X2X,X@X+X@X<X'.@X@X#X+X.X-X#X2X#X}.+X}.T.[.[.,X@XC.6X#X2X@X-X@X;X&X@X@X=X=X-X}.'.].].#X].@X#X2X}.}.M.].1X6X].H.|.@X@X+X+X#X#X@X'.).].+X+XoX].}.+X{.[.#X#X@X@X*XoX2XoXoX3X+X+X2XqXN.@XqX-XOXoX8X8XqXqXqX].qXwX2XqXqX-X#X8X2X-XOXoXoX*XoX-X#X#X5.y.#X2X].}.{.@X1X].H.[.H.y.=X@XoXB.[.T.C.o.[ I t L &.n 5.e.y.R..X8XoXR.oXf.D.E.R.oXoX.XoXD.R.R.oX.XR..X].R.[.[..X.XJ.R.R.T.R.@XR.'.#X@X}.{.|.{.,X,X#X@X,X2X2X1X2X#X}.'.].}.].'.].].'.].@X}.{.}.H.].}.].'.]..XoX}.+X+X].].'.].].F.R..X@X#X.X].oX.X.X.X+X[.R.R.H.R..XD.D.R.Y.F.A.k.q.g.R.R.f.f.D.N.H.J.#XoXR.R.R..X#XoXOX.XXX.X#X@XXXXXoXoX*X.XE.oX^.~.oXOX@X@XOX@X2X=X@X#XoXR..XY.R.R.E.oXJ.D.A.R.oXR.].R.H.+X.XD.J.]..XoX.XE.Y.'.'.].XX#XoX.X.XOX-XD.R.oXD..X.XoX*X*X*XE.g.Y.-X].].'.R..XoX]..XR.OXOXR.R.@X2X2X].oXR.R.H.H.].@X-X7XR.A..XR.#XoX8XoX-XqX.X-X7X#X@X2X2X3XC.B.K &.",
"l O.O.).A.b..X#X).0XH.+X[.=X3XqX2X3XF H.8X} u.E.R.*.R.t.b.H.].'.'.Z.T.|.f.%.g.J.u.t.oXe.R.R.E.oXoXE.E.@X&X+XoX&XOX[.'.R.R.].@XoX|.|.}.'.@X@XH.H.+X).y.-XoX@XoXE.oXoX.XoXB.@XD.H.D.F..XB.R.D.e..XH.H.].|.T.T.T.T.'.].@X}.[.@X@X=X@X@X@X+X@X@X@X+X1X4X,X,X+X.X<X].].#X].#X].}.}.'.}.{.1X'.,X].2X@X@X;X=X@X=X2X-X#X].#X@X+X].2X2X.X@X{.jXM.H.+X{.+X}.(.@X,X#X@X#XR.J.J.'.@X].].'.'..X+X.X+X2X3X1X@X@X&X[.oX2X@X].qXtX'.qX8X2XoX.XoX8X7XqX8X#XqX{.2X2X-XoX#XwXOXA.*XOX-X-X.X#X.X].oXH.D.@X=X'.oX1X].'.H.}.}.@X[.@X}.[.@XT.[.}.o.5.D n A.} O.B.u.g.R.8X7XR.A.D.oXJ.B.D.OXE.oXJ.R..XJ.R.].].@XOXR.Y.D.J.@X.XD.R.R.[.T.].R.].}.}.@X{.}.@X<X2X2X<X#X#X#X@X#X#X+X{.].|.|..X].].}.].'.'.{.2X].T.].+X.X.X#XC.'.}.].'.}.@X+X#X.XJ.R.oXoX].].].].].#X@XR.oXR..X@XoXF.#XY.^.Y..XR.A.].D.D.R.T.J.A.oXoXoX.XoX#X.X.XoXR.XXR.].].J.F..XoXD.Y.D.f..XJ.~.#X-X&X@X&X=X2X@XR.oXoXE.OXoXR.oXoXR.E.oX~.[.E.[.'.].].].+XH.H.].]..XoXR.Y.}.].R..X@XXX~.XXR.oXoXR.oXoX.X:X*X^.E.D.oX.XY.H.2X#X].J..X@XoXoXoX^.E..X@X-X=X+XR.oXR..X.X].J.].R.-XoX@X.X@X7XoX7XR..X8X8X-XoXJ.[.hX=X@X6X3XB.n ",
"K d Q q.-XD.8X-X=XB.=XqX].+X@XyXE..X&.-XOX&.A.;.w.F.e.;.k.H.).+X'.N.H.H.N.N.f.N.T.B.oX-XU.@XR.U.oX@X[.2X2X2X3X#XoX].R.R.].]..X.X@X'.%.@X@X'.H.'.'.+X+X=X'.@XD.]..X#X+X]..X].].#X'.'.f.N.+X].H.oX&X[.@X&.A.oXr.F.}.}.@X@X@X}.@X,X1X].@X@X+X'.@X}.@X@X1X4X@X].=X2X1X@X}.}.}.@X+X+X[.@X@X=X1X}.}.6X@XoX.X#X2X@XoX-X=X=X@X[.[.-X2X@X@X=X=X1X1X@X+X+X<X,X,X<XH.{.+X+X@X.X].@X@X[.[.[.].2X1X[.[.=X].'.[.}.H.].@XoX#XoXyX#X7X8X2X-XoX].3X3X[.1X5XgX1X}.#X2X2X#XoXH.=XzXyX2X-X8X@X].].].H.y.#X5X}.@X@X=X1X2X[.=X3XJ.^.oX@X#X+X].A.[ B.e.U u.u.q.D.u.d.R.2X-X].D.g.A.D.A.E.[.oXR.E.R.k.J..X].].].+X].).J.T.H.B.D.Y.R.'.@X}.'.oXoXoX+X{.2X2X#X+X#X@X2X@X1X6X1X}.}.oX@X#X}.R.@X}.}.}.Z.M.}.@X'.'.[.@X@XoX].B.H.[.'.@X+X].'.{.@X}.'.].}.{.|.H.].#XoX@X@XU.oXR.@X].D.J.R.J.].D.oX^.Y.E.R.R..XA..XR.R.F.r.k.^.E.U.T.R.E.Y.Y.oXT.R.oX@Xg.J.*X.XR.R..XF.#X2X2X2X*X.XoXE.*XoXOX.XOX#XoXoX^.D.Y.E.].].+X@X}.'.].^.R.R.R.R..X.X].R..X.X.X].^.oXoX.XT.oXR.].#XoX*X7X#X2X.XR.R.D.R.J./.^.R.k.R..X.XD.OXR.OX7X@X@X;X@X.XR.].oXH.@X2XJ.+X2X+X2XoX3X;X]..XOX#X[.+X3X#X-XJ.].8X@X2X5.N.7.",
"u.U R.-X-XA.yX].}.2XtXf.qXB.N.@XA.-X.X#XD.oXwXd.r.w.R.-XO.e.H.+X'.H.#XM.5.'.B.N.-XN.H.R.OXR.E.[.@XR.=XoX+X-X+X3X&X'.H.H.]..X.X].].@XD.].[.'.].H.'.'.'.T.[.'.H.R.J..X].H.H.].].oX|.T.].'.H.'.].=XT.f.@X[.oXD.e.^.@X@X@X@X@X@X@X@X}.@X@X}.].].].].@X,X@X}.|.].2X@X#X+X{.{.{.@X@X@X=X'.[.[.+X2X5X}.#X@X@X#X2X#X#X7X}.[.[.[.@X=X=X@X[.@X@X=X#X#X#X#X<X@X+X@X+X<X@X].].J.]..XoXoX@X&X+X2X#XoX].2X@XoX6X#X#XH.T.=X@X@X8X#X#X-X2X2XoX@X2X3X[.6XqX6XjX5X8XD.oX2X].].cXB.H.2X@X-X-XoXR.2X#XH.'.].T.@X#X+X6X@X[.'.@XE.r.R.]..XH.3XH.o.H.B.r.e.u.r.d.k.oX*XB.].oXR.D.Y.E.E.U.Y.D.D.D.J.F.A.H..X.XH.H..X@X+X'.R.D.E..X].R.].'.[.@XoX.X].H.|.#X].=X].1X@X,X,X6X2X@X+X+XoX+X].oX@X}.@X1X].'.@X=X@X@X@XoX].].].].'.].].+X'.'.+X@X#X,X@X@X}.|.H.].].+X+X@X@X[.;X.X'.].].R.]..XH.R.OX#XoX.XY.J.J.Y.Y.Y..XA.;.k.^.oXR.D.Y.E.Y.Y.oX[.=XoX].OXR.Y.].oXR.].H.oX#X2X2XoXoXOX.X.XE..XR.J.XXY.J.R.oX^.R..X].+X@X[.].].^.].R.R..XoX.X.XoX.XoX#X#X#XOX^.R.].oXR.[.#X.XoX#X7X-X-XR.J.].R.oXY.D.D.E.R.D.H..X^.J..X-X@X@X-X@X.XR.R.J.@X@XR.@X@X+X2X'.2X@X8XoXF.~.9X*X-X2X3X*XH.y.-X-X2Xo.'.C.",
"t.@X@X@X7XB.*X-X@X[.2XT.3XD.qX3X].7Xu.-XwX*X8X7Xr.~ x.D.g.g.N.).H.H.@X@Xy.N.+XN.e.B.'.=X&X[.R.[.D.@X@XoX@XoX@X+X[.'.R.].@X@X].J.[.+X+X].#X].[.].'.'.#X+X;X[.R.R.H.]..X].].]..XoXB.[.'.R.J.B.[.2X@XN.].[.R.J.F.oX].}.}.@X@X@X@X@X'.1X}.}.'.'.H.].{.@X@X@X|.{.2X=X=X@X}.].{.}.+X+X[.[.@X@X#X].+X2X-X7X#X#X#X@X#X2X=X@X@X=X=X@X@X=X@X@X=X=X=X#X#X#X@X+X@X@X@X].].).].+X.X].].].[.[.@X.X].J.H.oX].].].].@XR.].2X@X@X-X7X2X-X7X2X@X2X2X2XtXfX5X6XqX4X8XqXoX]..XoXgXA.@XqX@X-X@X@X.XoX2XH.H.+X+X[.@X2X[.'.1X[.g.R.J.#X.X#XJ.J.5.7.B.D j e.u.e.OXD.;.~.R.2X2X].Y.Y.E.oXU.R.Y.Y.g.k..XD.H..X.X].]..X[.+XR.H.g.Y.J.R.T.].[.].[.].@X@XB.y.].+X=X#X+X1X1X6X2X1X+X+X+X+X#X+X.X+X}.}.,X@X}.@X@X}.[.+X[.[.@X@XN.'.'.'.H.].].+X@X+X+X{.|.).].).).].#X#X-X&XR.R.@X'.].].'..X@X].#X-X-XOX.X^..X.XA.J.oXoXR.oXOXF.R.oXE.k.D.oXOX^.H.R.oX].oXJ..X].oX].oX.X#X-X2X#XOX;X*XOXE.oXoXoXR.].D.R.^.oX^.^.].].@X@X[.oXoX^.R.J.R..XoX].].oXoXoXoXoXoX.XE.R.H.R.D.J.oXoXOX-X#X#X8X-XoXoXR..XR.F.D.Y.D.R.]..XoXF.F.oX;X2X@XJ.J.Q A..XJ..X2X.XqXqXqX@X@X].2X@XD.oX-X>XqX8X-XoXR.-X@XH.H.4.N.o.",
"y.#X.XJ..XT.&XoXqXgX3XtXgXB.[.2X7X2X#X#XY.OXJ.A.F.q.d.D.u.J.D.).].H.#X2X+XH.6.y.g.].R.@X[.[.D.T.]..X2X].].[.f.H.@X[.[.].].].oX@X@X].@X].2X+X+X[.+X+X@X}.[.oXoX@X].R.].@X].H.J.+X[.[.H.} e.#XoX].&X'.[.[.E.oXE.D.H.'.}.}.@X,X@X@X].@X+X+X].T.C.H.(.'.'.{.|.'.@X,X2X#X@X+X+X}.[.].+X@X[.@X#X].].qX-X7X-X#X#X#X@X=X3X-X=X2X=X@X&X2X=X-X=X=X#X#X@X@X@X@X,X@X@X'.'.'.'.].].].].].oX@X#X.X].'.H.]..X+X'.@X+X2X8X-X-X].#X2X2X-X2X2X@X=XtX6X6X1X{.qX5XqX2XqX2X8XR.2XxXA.=XqXoXoX@X@XoX].].H.H.#X1X].}.+XR.H.@X-XD.J.oX-XoXJ.R.N.o.y.H.e.2 } r.e.J.R.D.oX].-XoXH.Y.Y.Y.oXoXOXOXoXJ.J.oX.X].R.J.].oX'.H.H.H.A.g.J.D.J.T.}.].+X#X+XoX].H.H.'.@X#X#X].6X#X2X1X,X+X@X@X+X#X1X].[.@X+X}.}.@X,X2X+X].oX[.@X@X[.A.#X@X].H.'.H.V.<X].].].H.).+X+X+X+X@X'.R.[.R.R.].@X@X@X#X].J.+XOXoXoX^.R.]..XoX*XoXoXOXoX^.oXE.E.Y.D.D.Y.F.F.E.B.@X@XR.oXoXOX@XoXR.oX@X@X2X2X#XOX#XOXoXoXOXoXR..XoXR.#XoX.XE.OX].].@X@XoXoXoXY.J.J.R..XoXoX.X].oXoX.X.XE.^..X.XH.].R.R.oX-X-X-X-X7X-X-XoXR.oXoXJ.oXoXD.g.J.R.D.Y..XOX-X;X@X]..XoXy.J.].R..X-X8X-XqXoX@X8X8XOXOXJ.9X7XoX2X].+XoX2X@XD.=XK -XN.5.",
"N.5.A.H.@X].oXT.@XN.@X@XT.H.qXtXR..XR.;XoXOXOXe.&.&.q.g.F.].J.'.@X(.@X].N.N.N.H..X.X].R.@XA.U.[.#X].@X].+XoXN.[.oX+X+X[.'.R.].@X].+X,X'.+X@X+X.X].].].'.'.[.[.'.@XR.H.R.D.g.A.R.B.f.B.Y.J.A.oX].[.oXoX@XoXD.A.D.H.'.].[.+X#X#X+X+X}.#X[.'.T.H.N.H.(.H.|.{.].}.@X2X#X@X@X@X@X@X}.@X@X@X-XH.+X3XqX#X-X-X#X-X-X@X@X=X=X=X=X=X-X2X2X-X-X&X#X@X@X@X@X<X@X@X+X2X+X}.}.].].].].'.'.].oX@X.X+X+XH.]..X+X].+X].-X3X;X2XoX2X#X-X2X2X3X3X=XtXfX}.@XaXxXsX+X-XgX-XoX-XyX#XH.H.N.}.2X].'.5X@X<X0X2X+X#XqX3X].f.2XqXD.A..XoXR.R.e.R.N.7.H.5.6.L X.q.&. .g.R.J.D.E.Y.H.E.R.T.].E.Y.D.D.J.R.D.R..X.XR.R..XoX].T.R.H.J..XJ.J.'.].oXoX].}.+XoXoX@X].[.1X'.].}.@X[.}.+X+X#X#X}.@X@X].+X#X1X}.].+X@X2X@X[.+X[.[.@X[.q.H.J..X].@X+X.X@X|.].].).).$X+X+X].+X].].@X[.[.@X,X@X+X+X|.'.,XoXR..X.XoXoXE.R.Y.Y.E.oXoXT.D.oXD.D.D.J.E.Y.F.E.].oX.XoXY.oXOXD.oXY.R.E.R.oX@X#X@XoX&X.XOXE..XR.R.-X#X#XoXOXOXoXoX@X&X&X@XoXR.A.E.^..X.XoXOXoXE..X.XoX@XOXoXoX.X.XoXoXoXoXoX.XE.OX-X*X>XOX^.*XoX^.R.E.R.oXoX.XR.Y.OX-X2X;X[.J.J.R.-XoXoX#X#X@XwXyX8X8X@XH.D.7X7X@X@X2Xy.M.b.H.].A.].D.H.Q qXtXW ",
"5.3XH.T.+X#X3XT.qXR.qXN.5.'.B.T.-XA.H.8X&XOXy.y.oXY.u.e..XA.].].(.2X(.H.H.y.H.#X.X.XoX.X[.R.E.oX.X-XoX.X@X+X[.T.].].+X@X@XoX].'.|.{.@X@X+X]..X2X'.+X6X#X@XH.].H.OXoXE.Y.D.A.D.Y.'.B.D.&.k.oXR.J.].@X].].R.D.D.oX}.}.}.}.+X@X#X@X@X+X-X'.R.].].y.y.'.@X+X{.{.@X@X1X#X+X+X@X1X1X2X@X-X-X3X].'.'.#XOX-X#X&X2X2X#X@X].oX@X@X@X=X#X@X-X-X&X#X@X@X@X@X@X+X+X+X+X].[.+X}.].].|.'.H.'.'..X.X@X+XH.'.H.H.].'.+X].@X8X-X&X8X2X3XqX#X@X8X3XfXfX6X].aXfXqX.X2X-XyX-X-X8X8X2XH.Z.+X+X].H.#X@X#X3X2X].].2X2X}.5.y.8X2X@X@X.X@XY..X2Xy.5.@XF d K q.q.e.u.g.J.OXE.E.E.E.].T.H.].E.J.J.J..XoXJ.@XR..XoXoXoX[.'.[.].J.]..XJ.H.].}..XJ.N.H.@X#X#XoX#X#X1X].].[.].'.H.].+X2X2X@X@X@X+X+X#X2X@X{.{.{.@X+X#X@X].[.[.@Xy.R.R.].].].+X+X{.).).).)..X#X#X{.(.{.2X2X@X[.@X1X].].+X].+X1X#X#X.XoXoX@X-X[.@XY.OX*XOX@XY.f.g.g.R.^.D.D.R.Y.g.D.#XH.Y.@XY.s.R.E.R.Y.Y.D.oXoXoX&XOX&XY.E.D.oXoX.X@XoXoX#XOX@XoXoXoXOXOXoXoXR.D.oXoX.XE.E.oXoX.X.X.XoXoXoX.X.X.XXXJ.J..X.X^.E.OXY.D.-X-X#X*XoXoX.XJ.R.R.-XoX.X.X.XoXOX-X;X@XJ.S.B.R.].@XE.OX-X>XR.-XD.g.8XOXR.*X4Xb.'.).7.n.y.@XR.H.H.qXQ qXtX7 ",
"oXqXH.yX3XN.3X@XoX.X2X@XH.qX5.6.S..X-X2Xn f.oXq.u.u.A.#XF.N.].T.,XH.{.{.]..XA.B.#XXX].].A.&XE.U..X@X8X].T.@XB.f.@X.X].].oXoX@X@X{.|.{.@X#XJ.].2X2X@X#X2X@XH.]..XoXOXoX.XoXE.Y.E.].R.A.&.F.r.y.J.R.@X].].E.[.Y.E.1X@X@X@X@X@X#X#X@X@X@X].].@X[.H.5.'.#X@X|.(.{.@X@X+X+X@X,X2X2X2X3X=X[.-XqX+XH.'.@X&X&X&X2X=X@X#X.XoX@X@X@X+XoX].-X@X@X@X@X@X@X.X+X+X+X+XT.'.[.[.(.|.'.'.|.}.+X}.@X#X#X+X].+X'.|.2X#X3X2X2X3X@X@X-X2X2X2X+XR.=X2X'.'.aX@X0XaX<X#Xg.6.-XoXR.].2X@X+X6X}.Z.3X+XN.#X#X@X3X2X+X+X@X3XlXH.@X@XN.].[.5.y.#X@X{ 4.7.I I H w.w.g.y.q.A.Y.R.Y.Y.Y.H.H.H.R.J.J.R.R.R.R.R..XF.R..XoXoXY.D.R.].H.R.D.A.D.+X}.u.H.H.].}.'.@X@X#X2X#X=X'.@XR.].D..X@X2X1X#X-X@X+X+X#X#X@X}.{.+X<X<X2X=X[.'.'.'.D.oXR.R.H.N.].].@X{.].).).+X+X+X,X|.}.@X].].}.@X].'.+X2X=X=X@XT.#X.X.XR.oX@XR.&X*XR.E.oXOXE.T.oX~.~.Y.J.D.d.y.s.H..X].oXoXD.U.oXY..XE.Y.Y.OXE..X&XOX@XD.D.D..X.XoX.X.XoX2X].oXoXoXE.E.oXoX.X.XR.oX.X^.oXE.Y.R.oXoX.X].R.R.R.R..X.XF.R..XoXOX.XoXoXD.oXoXE.oXoXoXR.#X@XR.H.g.N.].R.OX:X2X@X[.]..X].'.R.Y.R.oX*X8X&XqX].oX#XOXR.7X,XH.H.2XH.V.V.1Xo.H.8X5.! 8Xg.t ",
".XB.oXB.3XH.qXH.].N.g.qXT.T.5.F k.#X2X[.2 q.#X#X*.A.S.u.F.r.H.-X,X@X|.(.N.H.@X#XJ.g.#XoXT.T.U.R..X@X+X-X@XT.oXoX].].]..XoXoXoX@X@X@X{.].+XH.].J.#XH.y.2X@XoXR.J.Y.Y.D.Y..XJ.D.oX'.e.y.$.d.r.g.#XoXoX].].D.Y.T.oX@X@X@X1X2X1X#X#X#X@XR.@X-X#X].=X].#X].|.].'.{.,X}.}.@X,X<X<X#X@X2X.X-X@X2X@XqXqX&X&X&X&X=X+X+X1X@X@XoX@X@X+X+XoX].].]..XoX@X@XoX@X{.].#X].=X&X'.|.{.{.|.|.@X@X].@X<X@X].{.2X,X3X2X2X#XqX8XoX&X-X3X3XoX-XqX-X=X2X,X}.,X2X<XqXlXlX=XT.'.H.].@X.X.X+XH.}.].@X3X].].#X].2X#X].#X+X1X#XJ.J.#XD..X+XI e.8X2X[ }.4.7.7.L k.w.g.D.D.oXoXR.R.Y.Y.T.R.R.D.R.J.D.R.J.J..XH.J.#X#XY.Y.@X@XE.J.A..XD.H.D.+X'.5.H.].@X#X+X@X@X+X}.1X].].R.R.R..X#X2X2X@X+X#X@X+X<X,X+X].].+X,X+X+X@X#X+X+X[.'.].Y.H.].].t.H.2X].+X{.).].).G.y.+X+X,X}.'.@X@X].#X2X+X'.].'.T.].#XoX#X.X@X@XD.oX.XE.*XoXY.oXoXE..X.X~.^.oX^.^.oXoX.XoXoXoXY.oXE.R.OXE.D.D.OX^.oXoX&X&X@XoX*XoXY.R.oX@XR.-XoX-X@X@XR.R.~.R.^.oXoXoX^.oX*XOXJ.Y.OX#XoX.X.XR.R.^.oXJ.~.#XXX.X.Xf.} OXoXE.*XoXE.OXR.#X#XR..X-X@XD.]..XOX:X2X&X[.@X@XoXB.@X&X7X7X-X7XoXoX@X8XA.D..XOX,X2Xo.} 0X{.5X6.D qX2X5.B.C.C.g.",
"].G.b.'.@XR.qXg.W.3XqX].qXqX5.P B.9X-Xg.OXwXOXu. .D.q.&.D.y.@X@X+X@XH.].H..X-X-XD.T..X].T.R.R.D.].@X@X@XW.@XY.d.A.A.E..XH.R.@X].oX-X=X'.@X+X@XR.[.].'.[.[.@X].H.R.^.Y.E.R.B.D.H.y.f.A.y.B.[.R.@X@XoXD.D.J.^.Y.^.oX.X-X#X2X}.=X@X].R.R.].}.+X}.{.C.'.{.|.T.H.].OX].#X@X@X@X#X-XoX=X@X}.@X@X@X@X@X#X#X].@XoXoX@X@X@X+X{.{.+X#X@X].+X3X#X@X<X+X{.,XoX].].+XH.'.{.'.}.].}.|.H.H.).{.@X2X#XH.oX@X=X=X X@X#X#X#X8X3X2X8X3XqXqX2X}.@X<X4X1X,XqXfX5XqXqX2X.X].-XqXH.J.-X@Xt.@X].{.1X X6X2X#X2X+X@X1X{.,X{.#XA.@XJ.e.O.X.R.9X7X-X@X5.W 7.Q 7XU k.@X.X].3XOX~.F.x.Y.z.x.F.J.y.B.D.F.^.J.F.F.E.oXR.oX.X^.~.R..XR.B.].oXb.H.H.+X+XT.H.@X&X[.oXoX.XH.'.H.A.B.oX#X2X1X1X2X2X1X[.=X1X#X=X@X].oX)..X.X].@X,X+X].J.@XoXJ..XA.t.@X@X+X'.+X@X'.+X@X<X).+X#X+X@X#X.XOX&XoXR.[.D.oX2X2X@X].[.E.E.OXoX-XoX@X[.}.[.[.D.].].R.#XJ.@XoX]..XR.R.].oX].D.R.[.R.@XR.[.&XoXR.@X@XoX*XE.E.oX*X-X+XoX].oX-XD..X#X#XH.].oX.XOXoX].@X@X#X[.[.[.*X.XOX]..XoXF.F.J.R..X@X.XOXoXoXoX;X-X9XoXR.].].2XoXD.g.R.#XR.#XOXR.=X-X=X[.@XuXg.D.-X@X#X8XoX.X-XR.[.OX7XOX&XoX;X7XA.e.H.2X2Xf.j N.2X3X8X-X2XE ~ ",
"b.4.G.y.@X@X8X&X[.[.'.6.qX2X'.3X3X;X9XD.~.-Xr.+XA.A.oXR.R.g.g.T.@X{.H.#X[.H.].oX[.T.H.T.T.T.R.Y.R.R.[.@XR.R.T.D.D.A.g.D.R.J.D.R.R.oXB.g.#X#X#X2X[.[.@XoX@X].T.D.R.A.E.E.R.H.y.T.[.T.D.N.g.H.[.[.'.T.B.H.J.D.A.E.@X.X@X].@X'.#X@X@X-X-XoX+X=X,X{.].[.|.|.'.'..XoX#X#XoX@X2X2X-XoX1X1X#X+X+X@X@X@X@X2X@X2X@X.XoX+X@X@X@X@X+X+X@X@X@X2X).J.<X@X+X2X@X].R.].].}.+X].{.{.@X'.H.).+X@X1X#X+X+XoX@X2X2X@X+X2X8X2X2X.XJ.#X=X6X5X6X,X}.{.2X4XfXqX=X].3X6X]..X.XH.8XH.].@X+Xo.H.@X@X@X6X}.#XoX#X#X1X6X1X6X4XjXH.R.].&.} .XD.Y.-X#XR.{ { N.Q oXA.u.J.H.'.@X#X~.F.x.Y.Y.F.J.oXu.A.F.~.F.F.^.E.oXoX.X#XoX~.J.R.oXR.R.#X@XN.u.H.[.+XR.T.oX@X[.R.oX+X+X+X].D.D..X@X2X<X#X,X=X#X@X2X2X2X3X2XoX.XS.H.].H.+X{.2X@XH.R.J.J.#X#X).+X1X+X'.'.].].#X2X2X+X+X+X'.]..X.XoX&XOXE.R.H.oX-X2X@X[.oXE.R.OXOX].R.@X@X&X[.[.T.OX-XoXoX.X-X.XR.R.e.e..XJ.].J..XoX@X@X].[.oX-X#XoXR.T.E.Y.E.E.oX@XoX[.].].OX^.R.@X+X'.oXoXY.oXoXT.2X8X.XH.oX@XR.#X#XJ.R..XR.R.R.).]..X].XXoXoX.X2X[.[.[.@X@XH.].#X].D.g.D.J.#XOXH.-X-X;XW.[.&Xf.N.@X&X.XJ.R.-X-XT.@XY.R.R.J.*X*X:X8X2X#X3X-Xj >X=Xy.tXT.2X2Xt Q ",
"y.y.u.H.#X+X@X8X[.tXB.%.H.H.H.wX3X9Xk.L oX~..XXXJ.A.A.u.].H.R.&X'.].].@X+X].oXH.'.J.H.].&X[.].oX.X].].oXT.D.g.f.T.D.g.B.R.H.D.'.D.B.D.'.=X+X@XoX'.[.@XR.oXH.R.R.R.F.oXE.'.'.B.].D.g.A.'.H.D.'.D.H.'.].]..XoXoX*XoXoX-X-X2X+X@X].].oX+X].[.#X#X+X].].'.].]..X@XOX#X#XoX@X#X#X-X#X@X2X2X@X+X=X1X@X2X2X@X#X@X@X@XoX+X{.+X#X#X@X#X-X#X2XH.H.2X#X@X3X].].oX}.@X}.+X@X].}.@XH.V.].,X2X@X[.'.+XT.[.=X=X2X#X7X8X2X-X.XJ.6XqX6X1X1X,X@X,X(.H.2X2X#X@XhX5X@X@XH.].H.+X+X].].B.].@X2X#X6X,X-XoX#X2X2X6X6X1X5X2XH.@X2XJ.X.y.^.q.R.oXoX4.N.=XO.u.k.u.y.2X-X+X#XOX!.!.Y.R.J..X.XA.J.A.R.A.R..XD.Y.E..X*XoX.X.XJ.oXR.].@X].H.N.H.'.].R.R.oX@X@XOX@X].].T.J.H.].F..X@X#X#X<X2X2X=X=X=X#X2X#X].H.H.J..XJ.#X+X1X@XR.].R.J.J.].@X+X#X+X'.'.[.+X#X@X].+X].].'.J.oXoX[.oX[.Y.].].@X].oX[.].oXE.E.OX*X]..X=X=X&X[.oXR.OX7XOXE.^.^.J.oX.XR.J.J.J.oX.X#XD.'.[.@X&X@X7XOX*X@XE.oX[.OXoXE.@X@X@X].H.].7X*XoX].+X@X].Y.oXOX'.#X7X@XR.T.[.Y.F.oXOXOX.XF.F.J.+X@X].]..X@X.X.X].R.].R.].oXD.D.OX^.^.k.A.R..X.X].2X@X[.T.[.@X@X@X@XD.A.oXoXoX#X-X8X2XoXA.D.&.D.7X#X8X3X@X2X} E #XA.H.R.=XN.B.*X",
").3X.Xy.N.qXqXqX[.;XB.B.'.C.qX0X9Xf.d.x.pXzXe.X.A.E.A.r.D.g.D.@XH.[.].'.'.#X-XH.B.D.J.oX&X[.H.R.F.R.R.].H.Y.A.f.Y.D.H.D.A.D.].R.].H.'.@X].'..XJ.R.'.[.H.oXH.R.oXY.R.T.R.'.D.B.D.B.H.R.B.g.'.+XN.B.'.].J.H.J.J.H.oX.X@XoX@X[.@X[.'.'.'.oX+X.X.X@X'.'.'.'.'.].oX#X+X[.R.'..XoX#X-X@X=X2X#X#X1X1X@X2X-X@X@X@X@X@XoX@X].].@X2X#X@X@X#X#X|.].@X.X@X2X].}.[.H.'.'.].@X}.}.,X|.(.+X,X<X@X,X}.].'.1X2X2XqX-X2X2X2X2X#XOX#X3X3X6X2X}.|.@X,X(.2XqX#X#X5X'.H.-X+X].+X).H.@X@X+X#X].@X@X@X1X#X].].2X#X@X2X@X5X+X#X3X#X-XJ.N.g.g.oXoX#XA.oXN.h } A.N.J.@X2X-XOX#X^..XR.].R..XE.E.^.A.F.J..XoXR.E.E.E.oXR.H.R.D.R.].R.R.R.R.].'.].oXoXoX@X@X&XR.R.].@X].H.B.H.N.J.+X#X<X<X,X,X=X=X@X}.+X}.J.D.H.].J.].].+X].'.R.R.J.].oX.X].N.@X[.'.'.[.+X+X'.H.+X'.+X@X].#X#X@X].].R.[.[.@XR.@XoXoX#XoXY.E.R..X@X#X[.'.R.R.T.;X7X-X#X#X].R.oXJ.J.g. .D.oX.XD.oXoX].R.E.E.&XE.oX@X@X@XoXoX.XY.J.R.oX@X@XoX;XoX@X'.=X-XoXoX#X-X@XoX7X2X[.D.E..X].oXoX.X.X.X.XE.+X@XJ.J.J..XJ.R.'.#X2XoX.XoXE..X*XoX#X#X-X#X-X#X@X2X@X@X&X@Xe.=.D.].H.D.R.A.J.yX2X8XqXJ.D.J.Y.~ L -X-X3XqX@X7X .k.B.T.[.@X2X;XB.",
"H.@X+X)..X@XwX@X8X8X].'.H.@XlX+X8X8XoX:.^.;.D.A.D.Q O.g.].H.B.@X+X].H.'.T.oX].'.D.R.R.].oXR.H.J.J.XX@X#XR.[.[.[.T.D.J.B.B.N.H.H.'.oX'.'.].R.R.J.T.'.[.R.@XH.H.R.oXoXR.@X@XD.g.g.u.%.y.J..X].J.3X'.T.]..XR.D.D.J.R.R.oXoX@X#X=X}.@X}.+X@X[.J.H.).oX[.].]..X.X.X@X@X'.B.T.@X#X-X@X2X=X#X=X2X1X#X@X'.+X-X@XoXoXoX@X2X+X].+X#X+X+X+X2X#X+X@X].'.@X@X#X].H.7.B.'.'.|.}.}.1X,X@X,X@X@X@X6X,X].6X3X3XqXqX2X2X3X6X2X@X.X#X2X2X4X4X@X].2X,X+XwXlX=XqXqX+X@XH.N.H.'.+X+XG.#XN.'.'.].+X{.+X@X'.'.@X+XoX2X=X#X2X-XR.H.].R.oX'.@X[.oXH.o.J.A.z A.r.y.].].].2XOXoXJ.]..X@X].].E.oXE.J.J.R..X#XE.oX.XE.].J.H..XD.H.oX.XR.oXR.oX[.[.[.oX[.].].oXD.D..X@X@XH.B.B.N.H.+X#X#X+X}.}.@X@X@X+X+X+X].H.D.R.J.].J.].R.[.J.].J.oX#X.X].J.@X[.'.T.].+X[.'.].1X].[.#XoX-X-X=X@X@X@X[.T.@XoX@XoXoX*X#X.XoX.X-X2X2X@XoX@X@X&X2X@X#X#X#X+X'.N.#XA.D.g.J.].#XR.&X[.@XY.].oX@X@XR.].oX.X.XoXoXR.oXJ.D.B.].[.[.@X=X].#X-XoXOX-X-XOX#X8X*XE.Y.@XoX].XX#X#X@XoXR.D.R.oXJ.F.D.F.D.D.[.].oX@XoXR.J.oX*XoX^.#X7X@X2X@X#X@X].D.oX'.D.R.+XR.R.].oX@X-X-X8X3X2XyX#X].r.O.O.e.7X-Xy..XH.OX>XD.2X'.@X3XN.B.",
"H.A.8XH.b.8X2X.X3XzX@XD.J.#XA.#X3XoXg.D.g.q.Y.y.&.} &.y.B.A.D.@X3X[.D.[.T.[.'.@X]..X.X.X@X@X].R..XJ.H.R.D.D.B.T.T.H.A.g..XA.D.[.B.R.].].u.g.R.].'.'.].T.oXR.Y.R..XR.oXB.B.T.f.g.H.D.H.y.N.R.H.#X'.H.J.R.].J.].].R.[.-X-X-X2X#X'.[.@X@X[.'.T.H.H.oX].].oX#X#X#X#X].].T.oX-X-X-X@X1X@X@X,X2X2X2X1X].].#X]..X@X@X#X2X#X}.}.].].@X2X2X#X+X+X].].#X.X+X+X'.f.H.[.'.[.,X{.@X}.{.@X@X<X].,X@X}.fX3X#XqX6X1X3X3X6X=X@X].qX3X,X2X4X,X,X5X).+X0XwX].8X2X'.@X5X'.+X'.2X+X<X].C.+X+X+X<X+X<X2X+X@X#XoX@X#X-XoX-X2X#X#X@XH.].'.3X].2XH.H S.J.z .XS.@Xg.D..X2XOXoXE.]..X.XR.R.Y.oXE.J.D.~.OX~.E.OXoXoX.X.X].-X].H.[.R.].#XY.E.R.R.R.].R.R.T.R.].H.].].'.B.H.H.N.H.[.#X#X@X}.}.+X+X@X@X+X+X'.N.u.H.oXoX.XJ.R.oXR.oX.X.X.XD.R.-XoX].].].oX@X.X].[.@XH.T.oX@X2X2X#X+XoX+X@X'.@X@XOXoXE.OXoXE.oX#X+X#XoX+X[.+X[.@X2X,X2X,X].2X2XH.].J.].oXJ.J.R.#X[.R.*XoX[.@X@X&X&XoXoX.X@X@X#X.XoXE.R.T.@X[.T.@X#XoX+X@X@X#X*XOXoX#X7XOXY.R.@XOX2X#X-X.XD.D.F.R.R.oXR.Y.F.F.D.F.+X#X-X-X#XoXoXOX#X*XoXOX-X@X8XoXoX@X-X].@XR.'.-X.XJ.J.].oXoXE.oXqXH.qX2X2X].u.w.r.u.B.8X@X2XR.H.J.oX].].3X[ %.D.",
").V.].0X+X2X#X'..X2X.Xg.yXoXR.xX&X8X&Xf.T.Y.oXy.&.Q ~ A.oXg.e.@X=X[.'.[.'.@X[.].R.J..XoXoX[.].R.@XR.D.].R.R.T.'.T.T.D.B.#XH.H.+XT.D.'.].O.u.oXoX].].'.T.R.R.E.E.R..X@XB.h.W.U.T.D.D.R..X]..X.X#X+X'..XR.R.J..X].@X@X@XoX].}.}.'.@X&X&X@X[.].[.oX[.].[.oX#X#X#X-X'.}.@X-X=X@X-X-X,X,X,X,X1X3X2X2X2X].].H..X-X-X#X#X@X[.].'.].@X<X@X2X+X]..X+X#X@X].+X#X[.}.#X'.=X<X{.{.].'.].+X<X@X,X@X1XaX3X#X0X6X2X8X-X@X&X&X*X3X<X<X4X4X,X}.,X{.+X0XwX2XqX2X-X}.{.@X@X#X+X#XH.].1X3X1X#X<X@X2X2X,X6X#X@X-XoX-XoXoX8X8X+X'.H.A.C.5X+XJ.o.n F.A.X.u.y.u.y.D.2X7XoXOXOX].R.H.H.R.D.R.R.D.J.^.#XD.oX-X@XoX].].R.oX@X].R.H.E.oXY.~.].R.R.].].R.R.'.].J..XoXR.H.H.N.H.).].+X+X+X@X,X@XoX+X+X}.+XR.y.u.H..XoX].H.H.'..XR.R..XoXR.D.R..XR.oXoX@X@X].].[.[.T.T.].@X@X@X@X}.'.].=X@X@X[.*XoXE.E.D.A.Y..X#X#X+X#X=X=X[.=X#X,X,X#XN..X2X#XH.].J.].].@XJ.@XOXoXoXY.D.H.[.[.-XoX#XoX@XoXoXR.*XOXY.].[.[.[.}.].@X[.oXoXOX*XoXoXoXOXOXE.Y.].#X8X@X@XoXoXoXF.g.R..X.XR.^.R.R.R.R.#X2XoX]..XoXoX^.oXoX.XoX.X#XH.OX].J.].@XoX].H.J.].].R.@XOXE.-X5XD o.qXJ.J.qXA.k..XA..XJ.].@XD.N.3X=XH.=XK &.$.",
".XA.H.].<X3XgX).qXxX7XD..X-XzXN.[.8X3X&X&X[.@XR.f.&.E.g.e.J.y.T.[.'.[.[.].].'.H..X~.oX@X'.R.[..X[.].'.[.J.R.R.R.R.T.].H.].D.H.H.R.R.T.oXH.R..XJ.].[.[.].R.E.E.Y.R.R.R.@X[.h.B.R.J.A.H..XJ.J.<X2XoXB.H.].].A.].+X@X=X-X#X+X#X+X'.2X@X@X&X[.T.'.@X&X-X2X-X@X].].+X].+X[.@X@X@X-X@X4X4X6X#X@X-X;X-X<XoX+XH.+X2X2X*X-X@X].'.'..X].].'.6X@X'.oX.XoX#X@X].[.+X}.@XT.@X+X+X,X#X+X+X+X+X,X2X@X@X,X3X#X<X6X3X0X#X.XoX&X;X4X2X2X2X,X,X6X6X+X].qXlXqX@X].2X6X1X].@X+X#X=X2X2X].].1X'.H.@X+X|.|.#X+X@X2XOX7X7X-X2X2X#X@XoXA.'.1X6X2XO.q O.@.u.XXN.N.B.A.e.7XoXoXoXH.R.D.D.D.J.A.J.R.OXR.#XF.E.#XoX.XR.[.R.].oXoXR.R.oX^.E.^.[.E.R.R.R.H.D.D.J.J.R.@XT.T.H.C.].].].].].].{.@X=XoX+X+X+X#X].N.J.].J.+XJ.].J.+X.XJ..XR.H.H.J.oX@X].].].]..X].@X&X@X@XoXoXoXH.N.+X2X#X[.-X+X@XoXE.Y.J.R.A.g.R.OX#X#X].#X2X2X@X2X3X2X@X2XH.].oX-X-XoX#X@X].].].].D.D.D.D.R.T.&X[.oXoX-X*X@XR.oX.XoXE.g.oX@X&X}.y.H.#X].oXoXoX*XE.E.OXoXOXR.R.R.#X@XJ.@X@X.XE.D.A.J.R.^.J.^.R..X.X@X@XoXoX.XR.].@XoXoX-XoX.X.X+X].XX.XR.oXT.R.].].J.].-XR.D.OX*XOXC.D C.qX2X@X#X).k.R.J.OXJ.].J.H.B.'.qX=X=XD H H ",
".X].#X2X@X2X4XC.4XaX{.v.2XrX#X).#XR.e.R.E.R.R.g.k.k.O.O.D.=XD.R.[.[.].R.H.&X3XT...F.#X#X#X.XJ.Y.-XoX].2XH.N.'.].@X].].oX.XJ.J..XR.].R.].F.F.A./.*X.X#X@X].R.D.H.E.R.oXE.F.R.R.D.C.M.H.}.[.@X'.@X&X@X].R.].H.T.oX1X}.1X1X1X}.2X@X1XH.T.[.qX@X.X2X2X@X@X@X]..X.XJ.'.}.}.1X=X2X2X#X1X=X@X-X@X=X@X+X@XoX[.oX.XR.].@X#X+X'.[.'.[.[.@X'.@X@X(.'.@X+X.X+X].@XH.'.'.H.@X@X'.}.}.}.{.1X}.2X4X2X,X3XqX2X#X@X3XqX3X@X].oX8X4X2X4X,X,X X6X6X).,XfXhX#X@X@X].V.@X@X|.@X#X].[..X+XH.C.=X=XN.].R.f.e.[.'.1X2X2X4X4X,XqX,X#XA.N.N.5.N.#X).p ].7.U e.u.6.D.A.e..XoXoX.XD.H.'.D.f.J.J.J.XXOXoX.X].R.OXoXR.oXoX'.].@X[.@XoX=XY.oXoX.XR.R.R.]..XB.H.oXJ..X].J.@XT.f.].J.].].]..X].J.A..X.XoXoXJ.R.J.'.H.].].].B.H.'.J.].H.R.].H.H.+X].H.H.H.[ ].2X].@X].}.}.'.@XB.f.}.3X-X+X@XR.OXR..XOXJ.D.[.B.[.[.D.D.H.-X#X#X-X8X2X[.[.3X8X@XT.T.@X].@XOXE.R.J.H.OXoXE.[.oXoXOXR.U.U.oX3XR.T.'.=X]..XH.#X].=XT.H.oX@XoX@X'.@X[.@X&X^.OXOX^.D..X.XoXE.Y.E.oXoX#X.XoXoXY.R..XoX#XoX2X[.oX^./.XXOX-X*X#XoXoX@X].R.#XoXR.^.OXoX].].+XOX7X#XD.D.[.=X6X-XoX2X2X2X1X'.{.R.R.R.f.E.A.E.oXA.u.Q 2XhXM.F y.",
"A.A.2X2XU #X@XH.wX,XH.G.{.#X7X0X8XR.Q D.].-Xf.y.d.k...e..X-XN.R.1X#X5X[.T.g.R.D.D.J.J.^.#XOXR.R.[.H.H.+X'.T.}.}.J.H.R.oXoXE.E.oX[.].R.J.J.~.F.J..X].].'.'.@X.XJ.^.oXOXoXR..X.X.X}.H.'.'.'.'.].}.=X@XoXoXoX'.'.+XC.1X1X{.1X1X2X@X1X}.}.}.].@X.X.X@X]..X].]..X].H.}.}.'.#X#X=X2X2X=X@X@X].@X@X=X@X@XoXoXoXoX]..X@X].].[.'.[.].@X@X@X].{.{.'.+X+X+X[.@X#XH.'.].].}.@X|.{.2X,X,X1X1X2X2X,X@X2X3XqXqX3X2X3XqX+XqX2X+X,X,X2XaXaX,X{.,X@X<XfXqX.X]..X'.).<X<X|.(.].@X@X#X@XH.Z.T.@XZ.o.q.B.f.'.@X3X@X#X,X(.].,X4Xo.g V.#XN.2X2XH.( X.H.r u.e.u.A.g.8X#XE.D..X].B.T.[.H.A.F.XX@XR.].oXoXOXoXOXoXR.].[.R.T.T.[.g.R.D.*X.X'.].R.R.R.].H.D.J..XH.H.@X[.+X[.@X]..X.X].].J.J.D.].J.].E.D.E.R.'.].+X].R.B.D.H.@XH.].R.J.N.'.].'.'.B.'.5.}.'.+X@X1X}.H.'.'.T.T.#X#X@XD.oXg.OXE.F.E.R.*Xg.y.'.H.B.R.R.H.H.2X2X.X@X-X=X+X@X2X2X=X[.@X[.H.oXOXR.oXoXoX].@XoXoX&X[.oX*XE.oX-X[.T.@X.X'.#X].@X[.[.oX+XoXoX@X[.@XT.'.^.E.*X-XoXB.D.].oXoXE.oX.X.XOXoXR.E.R.oXOXXX#X#X-X@X&XoX.XOXoX-XE.D.R.#XoX]..X].oXoXoXoXR.R.'.].#XoXR.].oXR.T.=X@X2X3X1X=X@XJ.b.R.R.g.B.E.q.D.OX-XD.A.#X'.[.[ y.",
"w.b.).+X1.<XG.2XqX3XfX5.b.b.7X0X-X#XoX7X#X*.B.H.&.y.k.D.Y.H.D.oX2X[.}.'.oX'.].H.@XoXoX-X-XOXE.R.R.D.D.[.'.'.{.}.).J.].oX@XOXoXoX[.'.R.H.R..X.XF..X'.(.'.T.D.R.R.R.R.E.R.R.R.J.].[.'.[.}.=X].@X].2X=X=X@X].T.'.+XM.}.,X'.@X@X@X+X2X].].].y.B.J.XX].@X8X@XH.]..X@X'.}.].+X'.'.+X#X@X@X@X'.oX@X-X@X#X@X@XoX.X].].].T.'.+XJ.].].@X}.,XH.].@X].+X#X.X].#X=X'.].}.}.].@X{.|.{.'.].@X}.@X,X2X2X4X4X2X2XqX#XqX@X#X].@X].<XaX6X1X,X4X,X4X<X,XfX6X#X@X#X#XH.].<X@X|.+X2X@X@X=X=XT.[.1XT.4.g.D.R.qX@X@X-X-X6X4X).,X,Xl l V.A.N.'.#X'.O.' 7.U &.oXR.A.N.H.8XoXoXoXR.R.D.B.R.J.XXOXOXS.]..XR.oXE.oXOXR.R.].H.oX@X&X].@XT.OXoX+X#XR..XR.oXOXJ..X-X].D.].R.@X[..XJ.R.].].'.J..X@X#X].].].D..XoX#X].R.H.T.N.y.5.@XD.J.].oX.X+X2X].+X'.@X'.#X'.#X}.1X2X@X}.H.[.@X[.oX'.-XR.R.E.Y.#XR..XoX@XH.=XN.R.].R.R.].2X2X+X3X2X+XoX@X2X2X&X].-X@XT.oX*XoXOXOXOXoX@XE.R.@X@XE.Y.8X[.[.@X'.3XB.g.oXR.[.[.'.@XoX].[.@X+X@XT.[.&X*X-X7X-XR.J.].Y.Y.Y.E.Y.Y..XE.E..X^.oXXXJ..XoX+X@X&X.X.XOX#X2X*XE.oX*X.XR.].J.#XOXE.oX2X2X-X2X7XoXJ.D.R.'.[.@X#X#X=X@X3X2XH..XH.[.B.B.;XD.H.D.@X].e.2X@X[.e.I ",
"i.#X2XV.V.8X2XN.+X+X6XM.@X#X).J.R.u.@X.XOX-X2X6.f.&.y.R.F..X].].1X1X@X[.R.@X[.].@X#X#X.XJ.Y..XoXR.H.'.oX'.H.(.'.@X+X+XoXoXoXoXoX'.R.].'..X].#XR.].'.H.'.H.f.H.R.oXE.E.E.oX.XH.R.@X[.T.'.].].3X2X=X@X=X@XH.D.'.+X].6X1X@X2X@X1X1X].#X@XC.6.R.@X].oX@X2X].J.oX].oXH.2X1X#X'.+X#X#X2X2X=X2X#X3X-X=X#X2X=X@XoX].].'.'..X].].H.].[.}.@X].}.|.H.+X#X].H.].#X2X1X}.{.|.].}.@X}.1X1X2X@X#X2X1X,X,X,X,X2X2X3X,X+X}.).A.3X,X6X2XqX6X1X6XfX0X2XfX5X2X#X@X+XH.H.{.,X,X#X#X@XH.@X=X'.=X'.y.y.xX'.].qX@X6X3X@X2Xy.4.3X3XN.X.N.H.y.+X].4.P y.H.U d.oX#X.XA.g.8XOXD.R..XJ.D.D.D..XXXOX#XD.oX-X#XoXoX.XE.oX].R.'.R.oXoX2X@XoXoX@X@X=X+X[.D.T.oX[.].A.#X.XoX].'.H.).H.J.J.].].'.+XoX@X.X@X@XY.D.D.].'.]..XT.g.N.H.].R.D.R.oXoXy.].'.[.+X'.+X@X@X+X].].=X5X@XT.=XoX@X-Xg.D.#X-XH.Y.f.J.k.H.oX'.oX@X#X].].@X@X#X#X=X2X].R.].+XoX[.[.'.[.2X@X].@X#XoXOXOX@X@XE.Y.oXoXoXOXT.T.@XT.2XT.A.B.].].+X#X].[.oX.X.X].+XoX'.+XE.OXOXE..XE.F.D.E.E.E.oXE.E.oXE.@XoXE.^.R.J.]..X.X@X@XE.oX#X-X2X*X*XoXoX-XoXR.oX-X-X#X-X-XR.R.8XoXoXR.H.R.@X@XR..X#X@XoX-X-XJ.u.o.R. .B.oX[.E.y.D.D.B.2X'.f.W u.",
"+.).C.V.,X(.H.T.2X6X6Xo.H.wXwX#XOXf.oX#X*Xf.OX .g.=.Q A.D.OXA.T.+X#X#X}.H.[.'.oX#X#X#X@X.XoX*X-XoXoX@X=X+X'.].{.@X@X+X].'.'.].[.[.].@X@X@X].&X].(.|.(.'.T.Y.oXR.oX].R.].oX].D.H.h.T.T.@X{.{.@X@X=X}.+X+X).).].+X}.].].].].H.].'.A.H.T.N.R.@X.XJ.@X@X@XJ.T.+X[.].'.#X].+X@X8X8X@X[.[.R.@XoX+X].oX2X2X2X1X#X+X].'.].+X).).G.H.'.@X}.@X}.H.H.{.}.}.D.'.+X2X@X}.@X}.}.,X}.{.{.}.(.{.@X,X,X,X,X@X,X2X=X-X#X@X-X2X].9X6X@XqXgXfXfXjXjX2X2X5XqX3X8X.X'.H.].].+X,X@X+X@X].+X=X=XqXoXH.].C.7.H.}.'.1X=X2X2Xt.4.<X].#X=X+X].y.@XqXy.D y.A.q J.A.S.oXoXR.2X-XJ.E.OXoXR.F.F.F.~..X#Xk.Y.oXOX.XoXR.F.R.R.H.R.T.-X@X@X'.@X&X@X{.+X2XoXy.f.D.@X@XN.oX@X@XH.H.'.).].].'.]..X'..X.X.X].oXoXR.D.Y.].]..X.XH.g.B.'.'.H.A.J.].].O.N.[.R.].'.+X+X<X].}.@X].@X@X@X#XoX-X@XR.J..XoX.XJ.A.oXD.D.2X[.'.3X-X@X#X@X@X#X2X=X.X#X@XJ.T.@X-X[.+X+X2X2X#X;X2X;XE.[.oX&X@X[.@X[.OX-Xg.y.;X[.=XT.oXR..XR.#X[.@X[.oXoXoX'.oX].H.oX^.-X*XoXE.E.E.oXoXoXoXOXoX.XoX.XoXoXJ.J.R.oX#XoXoX#X@XoXOX#X-X@XoX@XoXoX-XoXJ..X-X-X-X-X@XH.H.;X.XR.J.].oX.XR.R..X.XA.@X#X.XJ.z o.R.5.H.8Xy.;X].'.H.N.=X}.8.F t.",
"H G._.(.{.@XM.N.].M.2Xy.y.w.OX-XY.D.yXA.oXoX9Xg.&.g.f.&.R.E.D.[.].C.'.'.].@X}.[.{.]..X#X@XJ.Y.oX;X@X=X@X@X}.}.@X].{.{.].].'.'.[.=X#XoX=X=X[.@X'.].H.C.|.@X@X@X'.oX.XoX@X@X].T.].D.D.H.{.(.|.@X2X6X@X{.+X@X+X+X|.}.].].].].'.'.M.e.&.g.H.+XD.A.+X@X-XoXH.T.].[.[.].].H..X.X@X+X.X@XT.].[.2XoX#X2X#X=X1X1X1X@X[.'.[.]..XJ.).H.].}.T.].}.[.}.].'.}.R.oX@X].H.{.@X{.}.}.|.@X|.@Xb.@X+X2X3X2X<X@X@X<X=XoX2X[.@X8X7X-X6X}.2X,X,X5XfX@X#X2X1XqX3X2X].H.D.+X@X+X+X#X@X@X[.'.-X-XoX].oX@X1Xy.H.1X}.2X@X]..X7X8X8X].H.3X}.H.y.Z.=Xg.W l : q ;.r.;..X2XB.qX7X-X#X#X-X.XA.~.oX.XOX-XR.E.E.E.R.Y.R.E.R..X.XJ.oX*X&XoXoX'.@X[.#X+X1X+XD.H.B.].oX-X].J..XH.].].'.].+X'.].].'.].@X+X].].R.R.J.R.].].J.H.D.H.D.N.H.y.N.J..X.XJ.J.#XT.H.+X].+X<X+X@XqX@X[.oX@X].@XoXoX@X].J.D.R.D.J.^.@XR..Xy.H.@X+X+X#X.X.X+X2X2X@X8X7X].].-X&XD.}.}.'.H.[.oXR.&XoX[.E.@XoX.XOXOXE.E.-XT.-X2X@X;XE.oX.X@X@X@X#X+X].@X@X'.@X[.T.[.oXOXoXoX.XE.R.oXY.oXOXOXE.Y..X.XR.].H.J.E.#X*XoX.X@X=X-XoX@X-X@X=X[.@X=X.X].oX^.#X#XoX@X3X3X-X-XoXR.J.R.R.H.D.A.u.A.R.].#X#X.X2X.X].2X@X2XN.[.;X6Xy.N.R.}.[.D 2 ",
"4 H.(.V.6XxXN.R.H.B.2XoXu.F.oXoXD.D.*XE.oXoXyXoX%.f.B.H A.g.A.D.[.H.].'.T.+X+X+X,X@X@X#X@XH.Y.-X@X].@X'.}.].].}.{.{.}.@X}.].].}.#X2X].}.@X}.@X'.}.C.V.|..XE.H.'.R.R..X.X'.R.H.'.Y.H.+X2X@X+X@X<X1X1X@X@X@X@X{.].{.#X+X].}.'.T.f...t.D.H.H.R.].+XoXoXN.B.'.'.].H.'.].'.@X].].].@X[.T.'.].#XoX@X-X@X@X#X1X1X+X[.].[.].+XJ.).).}.}.B.N.].=X1X{.'.}.@X@X@X'.Z.{.].{.@X}.2X}.{.).{ t.1X6X,X{.].+X#X2X+X#X#X@Xy.8XoX.XqX@X1XqX6X,X1X}.2X5X1X6X2X].J.N.D.J.+X@X+X#X-X*X&X@X;X&XT.].].].qXH.H.+X'.'.6X5X:X#X7Xu.A.N.H.6X3X@XqXH.[ g.r ; t L ..q..XR.A.qX#XJ.oX#X~.^..XR.!.F.F.R.R.E.E.Y.D.R.^.^.OX*X#X.XJ.D.Y.R.oXH.].[.2X2X+X+X+X@XT.T.y.].].].@X]..XJ.'.].].T.'.'.H.}.H.'.].].].T.B.f.g.R..X].D.'.'.R.H.y.C.H.].].XX.XoX'.H.].].].@X+X2X@X#X2X-X.X].@X@X#XR.O.2XD.g.J.oXD.g.]..X].'.+X'.H.].].].R.@X=X#X#X@X@X@X@XY.B.1X2X@X].#X@X'.-X&X@X[.oX[.E.OXOXoXOX*X;X-X[.3XT.F.oXoX2XoX8X@X#X].@X@XT.@X@X].@XOX.XR.oXoXOXE.E.E.OX*X*XoXR.oXoXR.].J.R.^.oXOXE..X+X=X=XJ.J.*X&X=X[.@X#X.XoX-X-X@X=X-X=X-X2X=X=XR.R..X.XR.~.F.r.J.D.D.} g.-Xg.oX#XR.2XoX5.[.y.'.1X}.=X3X}.'.y.2 ",
"5 1.(.(.{.].H.g.8X[.3XoX.XF.~.oXY.q.yX.XOXg.yXoXZ.g.g.&.r.u.A.oX#X].].'.N.3X#X+X{.@X@X#X2XoX].*XT.'.-X[.@X}.}.1X@X}.}.@X,X@X}.}.].2X'.'.'.].@X[.}.H.(.H.A.H.H.H.@X]..X.X].+X].'.-X].2X<X,X+X+X#X{.@X@X+X@X{.+X<X@X2X@X].#XT.B.M...O.g.H.D.@X.XH.R.oXA.D.'.H.].'.H.].'.+X+X@X@X.X[.[.'.+XoX@XoX@X-X@X#X2X2XoX].[.[.@X].).H.+X@X1X'.N.T.}.'.|.}.1X@XR.].].C.}.].@X}.].qXv.+X,XG.@X].@X@X|.].+X<X2X{.@X@X'.H.2XN.A.@X2X1X,X].}.}.@X3XtX6X6X3XJ.oXR.].N.H.<X+X+X-X-X@X@XR.].@X2XR.R.T.#XN.H.5X6X6X1XR.9X-X&.g.'.#X2XC.'.5XT.' B.} g q H w.O.A.D.].+XoX.XE.~.oXOX/..XXXoX.XR.R.R.oX@Xk.oXD.u.^.oXR.oX#X*XOXoX[.[.@X@X+X3XoX+X+X+X[.'.N.y.H.].J.J.R.@X[.[.'.H.'.H.N.}.].}.].R.R.T.D.H.S.J.R.].H.T.B.B.H.'.N.H.].].]..X[.#X@X].#X@X2X@XtX%.B.qX2X.X@XoX#X@XoX-X@X@XR.oX#XD.A.H.-X]..X#X].].#X+X@XoX=X@X#X#X#X#X#X@XOX*X}.@X3X2X}.+X@X@X@X@XoX*XOXoXOXoXE.*XE.Y.].T.&X[.R.D.oXR.@X2X@X@X@X2X@XH.oX[.'.[.R.^..XoXY.oXoXE.oXoXOX#XoX.XoXE.'.].R..X.XE.oXoX@X#X2X@Xu.y.OX*X@X2X1X#X#XoXR.OX2X@XoX-X2X2X#X+XoXR.R.J.J.XXOXL.A.g.A.D.g.A.@X@X.XB.R.g.%.N.[.=X|.M.3X@X[.=X5.9 ",
"} r D.H.y.J.J.@X3X3X=X@XqXD.A.8XB.D.gX2XJ.oXoXy.e.f.q.y.g.B.B.oX'.T.[.].].[.[.[.H.@X@X3X2X].@X.X}.,X|.|.{.{.}.}.,X].+X-XH.(.@X'.@X@X+X|.|.@X#X+X1X'.'.2XH.y.[.'.[.oX@X.X[.T.H.].oXE.^.OXoXE.Y.E.{.+X].+XR.].{.{.}.}.}.{.'.}.|.7.q.&.D.R.oXE.OXD.J.].H.H.H.R.H.N.]..X].H.'.@X[.[.E.Y.u.'.'.[.[.@XoX@X&X=X1X#X@X+X+X@X.XH.R.].#X+X2X@X@X+X@X@X@X<X@X}.}.T.H..X].+X.X#X+X@X3X'.{.{.(.+X|.).,X].].<X@X+X#X].@X+X#X6X,X,X4X6X,X2X4X1XtXfX2X2X].T.@X'.H.<X2X2X@X1XH.W iX|.}.[.H.oX*X3XH.V.'.{.aX5X2X0XoXeX8X.X].J.oX#X].G.+XA.y.2XI u.~ ~ A.e.d.-XR.:XoXJ..XA.E.Y.E.^.oXR.R.R.D.oXoX.X~.~.OX^..X.X#X/..X#X#X@XoX@X=X2X].].3X.XoXR.oXg.A.J.D.J.].R.].].].].R.H.H.H.H.H.+X].+XT.H.'.[.H.N.J.oXJ.A.].J.O.A.D.D.D.R.oXoX[.[.oX=X@X=X3X-X=X}.B.I.'.@X1X|.+X1X@X'.@X+X}.'.@X{.{.{.|.'.].@X-X#X,X}.2X=XoX@X3X1X@X#X@X#X@X2X].@X;X@X[.#X2X@X@X+X].'.3X=XT.=X[.2X=X-X@X2X-X[.H.].'.oX2X@X@XR.oX2X8X@XoXoXOXR.oXXX@XoX.XoXOXOX[..X+X=X2X#XoX.X.X^.^.J.J..X#X@X+X2X2X#X@XoX.X#XoX*X7X-X2X2X].R.+X2X@X2X-X-X2XoXoXD.A.R.D.J.#X].#XE.A.D.u.A.g.J.A.J.D.D..X-XoX].oX4XZ._.].A.wXD.t ",
"@ ' g.N.2XF.S.2XhX1XI.2XqXA.8XqXg.E.cX@Xy.-XJ.q.J.e.O.*.&.B.B.N.Z.H.#X].'.@X}.'.#X@X].#X<X.XXX.X1X1X|.'.{.].{.|.(.'.[.=XH.(.,X,X+X{.{.}.].'.].#X].|.@X}.H.T.].#X'.]..X.X+X[.'..XR.Y.Y.E.R.H.D.H.H.].].+X'.'.|.+X[.@X'.(.|.{.(.H.q.g.#XoX.XH..XD.H.R.D.H.J.oXR.H.J.J.H.'.+X[.[.'.E.A.e.R.].].'.R.@X-X2X=X+X+X+X@X+X<X@XJ.].+X1X#X{.@X@X#X@X+X@X@X{.#X6XH.H.#X].H.J.-XH.+X'.'.(.|.(.@X).+X].,X@X@X[.'.].@X@X@X}.+X2X,X2X2X,X,X2X1XqX3X+X3X3X@X@X'.2X+X2X@XqX=X@X7.{.{.].y.H.B.[.9XC.N.1X1X,X@XsX@Xy.r.^.8X.XH.D.3X}.N.<XA.P P d q k ~ A.u.q.R..X:X#XJ.R.oXE.Y.A.E..XR.Y.J.A.E.E.E..X.X.XR./..X#X#X].@X-X@X@X2X=X+X+X#X2XoXR.H.R.D.J.J.D.J..X].R.'.].oXoX].'.'.'.'.].'.H.B.].H.T.'.B.H.J.].J.D.u.O.D.A.g.D.oX&X&X-X@XoX@X=X=X2X@X@X&X[.}.'.}.2X@X].'.].+X].[.+X@XoXH.'.{.{.].].[.@X2X3X@X2X=X#X@X@X2X+X+X+X2X3X+XN.@X=X=X#X#X+X+X#X].=X=X@X'.'.}.f.H.H.-X@X@X+X'.oXY.].2X3X=X@XoX;X2X2X#XoX@XOXoXoXXX.X.XoXOX@X@X@XoX@X@X=X=X@X.X.X^..XY.J..X#X#X@X#X2X2X2X@XoX#X#X-X-XoXoX-X@X].#X2X2X2X-X-X7X@XoX.XD.J..X.XR.H.].A.f.D.^.g.D.y.&.D.H.R.J.H.J.H..X2X(.|.6XA.~ U r ",
"@  .H.'.0X#X].t.fX}.[.'.8XA.A.qX@X.X-X7XOX-XoXJ..XA.q.y...g.B.oX,X|.'.'.].}.].'.2X{.|.@X#X.X.XoX{.}.'.].,X,X}. X{.'.H.@X].+X,X}.@X@X}.{.{.@X@X}.].}.@X].'.].R.].oX@X2X#X+X].'.@XR.R.J.J.R.].'.J.N.(.'.'.'.].|.#X[.[.'.H.'.(.H.].J.R.oXR.R.D.R.T.H.J.A.H.J.oXJ.D.J.]..X-X@X'.@X@XY.].H.H.T.oX@X[.@X&X=X@X+X@X+X].+X<X@XJ..XoX#X#X|.+X{.@X@X{.#X#X@X}.#XB.H.8X@X]..XJ.g.2X].+X'.H.(.].@X.X@X].+Xb.#X'.T.#X}.#X@X@X,X,X2X6X2X1X,X{.gXgX2X2X-XoX-X2X2XH.2X2X=X#X3X=X|.=X@X'.'.oX'.].=XgXfX@X[.].2X@X-XoXe.8XR.H.@X+X2Xy..X].I ' y.9 N L u.D.;.r.E.zXoX.XoXOXoXoXE.^.E..X.XJ.D.OXoXE.~.^.oX.XOX.X^.R..X#X@X].].@X#X.X}.].].oXoX+X].].D.g.D.R..X.XR.R..X@X@X].H.H.'.].].@X].H.f.N.N.H.u.].oXJ.A.g.g.g.oXY.A.Y.oX[.].@X=X@X@X=X=X@X[.@X=X=X@X@X@X+X<X@X=X#X2X].'.J.+X].H.(.|.].].].[.oX].+X'.@X#X#XoX[.@X2X6X6X1X=X[.].;X&X&X-X2X@X.X].+X@X=X#XoX=X2X'.@XR.2XoXoX[.D.'.;XR.R.R.@X#X[.].-X#X=X[.&XoX#XoX@X].R.oXOXoX[.@X@X@X+X#X1X#X@XoXE..XY.J..X@X#X#X@X=X#X2X@XR.oX@X#X*X-X-X;X&X].-X@X#X@X-X-X8X].B.oXD.A.oXoXH.J.J.oXA.R.d.g.g.f.g.J.A.D.H.J.R.J.oX#XH.9.].D.~ Q Q ",
"y A.H.N.H.OXwX8X2XH.=X'.d H.N.H.].8XqXR.Y.OX8XD.D.Y.D.f.H q.].oXH.V.(.{.'.'.].#X@X{.@X,X#X+X.X#X,X1X'.'.,X}.}. X@X@X].+X'.].}.{.,X1X@X{.@X6X1X}.}.}.C.H.H.H.=X@X].oX-X@X'.H.C.].R.H.D.H.R.].'.H.C.(.H.H.'.].|.@X[.T.'.|.C.C.(.H.J.Y.R.D.g.5.B.@XR.R.D.H.R.].H.B.D.J..X@X].'.].H.R.oXoXE.[.@X].g.].].oX@X#X=X@X[.+X<X+XH.].].oX[.+X@X(.@X,X+X1X@X+X].=XB.N.].J.+X'.].+X#X].N.'.].'.@X@X@X).+X,X+X2X].'.1X}.+X=X=X,X2X2X,X,X2X2X,X2XqX3X[.oX].@X+X<XI 0X#X#X2X#XH.1X'.#XV.}.@X@XH.@XvX@XH.R..X].<XqX2X.X@XB.D..X2X'.V.A.H.' I I 0 z z ;.D.y.r.F.eXR.J.oXJ.oXE.oX^..XoX.X^.J.OXE.R.#X#XoX.XOX.X^.oX@X#XoXJ.J..X@XoX@X'.H.].+XoXR.'.A.d.R.R.J.R.].oX.XoX.X'.H.T.].+X+X].'.].4.N.'.].A.J.H.A.D.R.J.A.E.D.B.Y.OXoXoX-X=X@X=X=X@X=X@X2X1X3X@X2X#X|.,X,X@XH.'.'.H.N.'.].].|.H.H.'.].+X@X2X@X'.2X6X+X'.+X@X2X'.[.=X1X@X|.2X=X#X=X#X+X].J.3X'.[.@X@XoX[.=X3XoX#X].@X#X'.'.D.D.oX@X3X-X-X=X=X@X#X+X@X@X#XXXoX.X.X@XOX^.E.oX@XoXoX@X=X#XoX.XE.[.E.R..X@X@X#XoX-X@X@X].H.R..XOX#X9X7X2X-XR.@X=X=X@X&XoX@XB.y.#XH.g.D.D.J.oXoXR.R.f.&.g.g.*.T.A.D.J.R.H.H.].@X3Xy.v.H.tXg.} r ",
"0 J.y.T.H.u.XX8XH.qXqX3X} S.A.<X7XE.7XE.@X-X-XoXg.Y.=.&.q.u.H.#X4X@X{.{.+X2X@X'.,X@X@X@X@X@X@X2X2X,XH.H.].}.@X6X}.}.(.].].}.}.}.@X@X,X1X,X}.@X6X{.}.H.H.N.H.2X+XoX.X#X#X@X@X]..X].R.R.J.J.J.H.G.H.'.(.H.].'.H.].[.R.].].H.'.|.H.B.D.R.T.H.u.B.oXR.].J.].R.].D.A.5.N.-X].N.J.J.R.].R.oXoXoX].'.oXH.R.@X-X=X+X#X6X#X<X+XH.'.].+X].#X#X'.@X1X+X2X@X@X[.=XD.A.oX'.].H.2X2XB.H.B.H.H.).@X@X@X+X+X<XwX@X].+X2X+XT.@X[.#X,X2X6X4X6X6X6XfXgXqX#X3X2X#X].2XwXH.@X2X+X+X].6X'.H.|.H.2XN.+X].yXR.J.H..XoX@X@XH.H.J.2XoX'.@X2Xy.b.#Xu.y.U g 3 ..D.g.&.*.oX^.^.D.R.R.oXD.E.^.oXR.R.oXE.R.D.E.oXOX.XoXoXoXoXOXoXoXoXoX.X.XoX@X=X[.].].oXR.R.oXJ.D.R.H.A.R..X@X@X.X].].]..X+X@X3XH.A.+XG.J.+X@XA.N.D.H.A.D.H.g.J.H.H.R.oX.XoXOX@X=X2X@X@X-X2XqX2XqX2X6X<X+X,X].[.C.H.@XT.H.H.'.}.'.H.H.H.].@X#X#X#X}.6X1X].].#X@X2XM.T.1X1X1X[.[.=X2X#X].]..X.X1X'.[.[.[.oXR.[.].+X#X+X-X@X@X'.R.T.R.R.@X@X2X2X@X@X@X=X@X*X@X.XJ.].oX@XOXoXOXOXOXoX@X@X@X+X].].E.oX.X]..XoX.X+XOX-XoXR.R.R..XoX*XoX*XoX@X-X].oX'.[.[.-X&X-X;X3XR.D.R..XR.oXE.D.A.F.f.} E.e.f.B.g.R.D.D.y.y.].H.3Xy.7.@X;XB.] r ",
"q S.H.N.y.OX8XoX8X3XH.y.#XG.).<X8XT.oXE.[.8X;XD.D.R.g.D.u.O.k.OX@X|.{.|.H.|.[.2X,X{.(.).+X#X2X2X@X+XH.).+X+X1X2X@X{.H.].}.2X1X@X{.+X@X@X}.{.{.}.{.@X1X'.M.H.oXoX[.R.@X@XoX@X].].R..X@XoXR.H.H.'.N.H.|.|.|.H.H.].'.@X[.T.|.}.].].f.B.D.D.R.J.A.D.Y.E.Y.].R.R.A.A.g.H.-XB.e.J.R.#X].]..XoX]..X].@X].H.R.@X#X+X@X6X2X1X@XH.T.].@X].+X@X[.2X2X+X2X2X<X}.[.T.J..X.X-Xy.B.-X].5.t.R.J.).).].{.0X+X@X@X@X+X@X#X[.B.[.[.@X+X@X5XqX1X1XaX2X2XqX2X-XH.R.oX@X+X0X2X<X.X'.H.qXv.H.,X2X@XN.)..X@X.X.XR.].-X@X6XqX3X].2Xe.g.].'.u.H.A.y.N.' d 0 k.d.B.g.&.7XOX^..X^.oXoXE..XoX.XoX.XoXoXOX^.OXR..X.XoXoXoXR.E.oXoXoX#X#XoX@X#X@X].oXoX@X].R.).D.D.Y.D.J.oX.X.X@X.X.X.X.X].].].-X].].].-XJ.].oXA.H..X].y.u.D.g.g.D.H.R..X.X^.oX[.+X@X[.oX2X3XqX6X3X#X3X2X+X,X{.&X[.[.=X'.|.'.H.H.'.].'.'.'.+X<XT.@X[.+X'.].[.@X}.5X{.@X1X{.2X2X+X=X2X@XoXoX#X#X@X].@X=X-X-X].[.+X2X-X@X#X+X2X].R.@X2X2X-XoX=X=X@X=X=X2X@X-XXXXXH.].@XOXoXoXoXoXOXoX@X=X=X@X@X@XoXoX.X^.XX.X].].OX*XE.Y.E..XoX#XoXE.oX.X[.OX[.oX[.].].oX@XR.R.R.@XJ.J.J.J.R.J.H.A.Y.q.g.g.g.B.B.k.D.g.A.5.o.H.].=Xb.G.].;Xg.g.d ",
"H N.H.C.H.A.g.OXH.3X3Xy.H.J.G.+X-XE.3X-XR.[.2XD.g.D.g.q.D.R.D.].2X{.}.@X{.|.(.(.,X|.M.(.+X@X2X#X<X+X+X#X#X.X+X'.].@X@X,X{.}.,X1X{.,X@X|.).{.}.|.}.}.{.H.N.B.].3X@XoX#X#XoX@X+X.XH.J.R.R.J.D.H.J.N.N.|.'.(.V.H.].'.@X[.T.'.|.].}.H.+X#XoX[.].oXOXY.R.J.].R.R.A.D.@XH.B.e.A.@XR.J..X.X.XoXoX-XD.q.].A.A.J.+X@X@X@X-X@X=X'.H.].-X@X+X+X+X2X1X@X@X=X@X@X=X[.g.q.D.2XH.o.D.=Xg.g.oXJ.].).G.<X@X2X2X2X<X<X+X@X[.T.@X}.2X#X].@X2X@X1XfXV.H.2X3X2XH.'.@X<X+X+X8X@X2X].+X<Xb.N.2X@X<XH.G.J.J.R.].+X[.=X6X,X6X1XM.'.H.H.qX[.B.A.y.y.=X@X0 k O. .A.uXg.OX^.J..X~..XR.E.oXR.J..XoXoXOX*XE.^.#X*XOXoXY.oXoXOXoXoX.X.XXXoXOX#X[.[.].+XR.J.A.y.A.D.A.J.oX#X@X.X.X@X@X@X].'.'.].R.+X#XR.@XJ.R.].'.].].H.u.B.A.u.D.J.R.R.].J.D.F.+X[.oX[.@X2X2X3X5X2X@X2X8X#X,X@X[.@X[.R.T.[.+X].H.'.].].].]..X#X[.2X#X+X'.].}.{.}.1X@X}.1X@X@X@X1X#X}.oX2X-X#X*X2X+X+X2X2X+XR.[.-X-X@X.X#X#X2X@X1X+XH.E.OX;X2X@X@X2X-X=X-X@X.XXXH..X@XoXoXoXoX^.OXOX@X=X1X2X1X2X.X.X^.~..X.X]..X@XOXY.Y.oXR.R.oXE.oX*X#XoXoX[.].[.]..XoX-X].oXR.R.J.D.R.].R.H.g.g.A.g.g.B.f.B.f.d.d.J.R.y.t.J.qX@X'.A.N.B.;X8X .",
"H A.C.N.H.u.OX.X@X3XqXN.G.G.H.<X[.=.3X[.D.].&XR.@Xg.T.D.R.g.q.J.@X@X,X].H.|.{.}.,X{.V.+X<X.X@X].<X{.].#X[.].+X'.{.@X}.1X{.}.}.{.+X,X,X{.(.H.].,X'.{.H.@X@Xf.N.[.@XJ.R.].].=X@X].Y.D.D.H.J.H.A.A.H.V.(.H.H.M.H.H.[.'.[.[.H.T.].'.+X].'.].E.U.Y.^.D.Y.D.E.].].J.R.@XR.B.D.oX@XJ.J.'..XoX#XY.oXR.oXH.A.A.F..X#X=X=X-X@X3X+XH.].8X*X3X@X@X#X#X+X].].+X1X@X'.D.k.R.].2XH.H.T.R.B.J.oX).].0XwX@X(.,X@X+X2X{.2X&X[.@X[.].2X2X3XqX5X,X,X2X'..X'.#XoX@XR.,X+X<X0X<XJ.).#X).2X@X+X2X].b.t.J.D.].-X@X2X=X1X6X6XM.H.3X-X[.R.@X-X].H.N.[.[.f q  .A.B.9XA.oXuX^.~.~.J..XA.E.R.J.D.J.*X*XD.q.z.oXOX*X*XE.OX&X@XOXoX.X.XXXOX@X.X[.@XoX@XA..X.X].D.Y.g.J.oXoX#XOX.X@X#XOX.X].@X3X@X.X].@XH.H.A.B.H.J.'.].H.y.t.N.u.N.H.].@XoX.XOX2XoXoX@X2X3X2X3X3XqX3X#X<X8X3X}.[.@X@X].@X}.@X+X].].'.'.]..X+X+XoX=X[.@X+X+X@X#X@X].1X{.2X2X+X#X@X@X].[.-X@X.X:X2X#X+X+X#X@X@X2X@XoX-X@X#X@XoX@X2X2X].OX@X&X-X&X@X2X2X@X-X.X]..XR..X@XOXoXoXoXoX*XOX@X@X#X@X+X+XR.~.R.~..X.XXXoX&XOXY.E.oXD.A.E.*X*XOX#X@XoX[.D.B.R.oXJ.R.B.@X&XR.oXA.J..XR.R.u.k.D.D.q.g.g.B.T.D.d.Y.A.J.wX3X].qX2XwXN.g.3X&X' ",
"U #Xt.A.A.g.qXB.wX@XqX8XR.D.oX@X2X-X-X@X.XH.B.oXR.*XR..XF.y.e.D.|.}.'.(.Z.Z.}.|.}.{.(.|.#X'.].'.#X#X^.oX].'.#X'.'.@X}.@X}.@X}.{.@X].H.H.H.].+X+XH.'.].}.@X@X%.T.#X'.H.oX.X@X).b.H.g.B.Y.J.A.A.A.H.H.J.R.H.H.'.J.+X+X].'.].].}.].'..X].].+X].].H.R.T.E.E.D.D.oXE..XH.u.u.J..XJ.H.@X}.@X+X].oXOXJ.].T.N.J.].OXOX#X6X,X#X'.].=X=X#XoXoX#X#X@X+X].H.2X2X@XR..X#X~.^.F.OX.XoX'.H.H.{.].H.2X2X#X#X2X#XJ.].@X-X,X{.{.2X+X}.6X1X{.6X{.@X2X#X2X2X<X#X@X.X)..X<X@X+XJ.#Xu.J.+X].].#XB.J.N.u.J.J.3X0X2XjXfXtX@Xy.@XS.A.OXA..XA.J.#XT.T.3XI % g.g.g.*XE.E.oXD.*X-XD.OXOXR.f.D.J.R.Y.*XD.oXoXR.#XE.R.#X.X#X^.R.uX*XR.oX].].].|.}.+X].H.J..X.Xu.N.A.B.J.OX.X.X#X@X@X.XoXD.E.OX-XoX.X@X].C.N.T.J.F.J..XH.g.g.e.A.e.N.D.].T.[.;X:XR.D.-XqXqXtXqXwX8X#X2X,X].+XoX].2X2X8X].&X@XH.H.#X'.].[.T.@X[.#X#X[.+X]..X.XoX,X|.{.,X#XoXoXOX2X@X#X#X@X#X#X1X'.@X@X.X@X-X#X@XoX-XoX*X=X3X{.,X[.@X@X@X-X#X@X-X2X2X<X2X#X].J.J.F.R.oXE.oX].@XoX.X@XoXoXOX#X#X.Xu.A.].oX.XoX*X#X-X&XoX.X].R.R.oX@X].H.H..XE.E.Y.J.XX.X].#XoXR.].E.[.oXY.Y.g.y.A.H.].'.y.B.y.H.H.E.f.A.u.o.&.%X.XR.e.R.'.2X2X2Xy.",
"( G.N.].B.H.@Xg.oX-X8X#XD..XJ.-X7XoXoXR.oX+XB.-XF.^.q.u.R.D.u.R.|.}.{.'.8.7.(.{.{.(.(.(.@X+X+X@XOXoXR..X.X].#X].'.[.'.+X}.,X,X@X{.).).{.{.|.'.(.}.}.@X[.@X=XT.'.].'.A.H.@X+XG.G.H.H.D.D.R.D.A.S.J.J.'.R.H.H.'.'.).].].].].].}.].'.'.H.H.].]..X].R.[.T.D.E.E.J.R.#X'.H.).].@X].].}.+X3X3XOXOXoXD.T.H.y.A.J.@X#X.X@X,X2X+X+X<X@X.XoXoXoX+X@X#X#X}.'.#X-X.XoX-X.X~..X.XD.J.'..X|.|.].2X6XB.2X1X@X+X]..X2X#X{.,X,X}.].].@X|.|.aX6X,X#XJ.#XqX2X2X2XH.G.G.H.H.@X+X@Xu.@X@X.X]..XA.J.A.u.u.} ].8X4XfX{.[.@XA.H. ...O.F..XN.#Xt.I T.=X[ n u.g.f.-X7X7X7XoX*XoXg.Y.E.oXoXoXoX.XoX.XE.OXoX.X.X@X#X.XR.>XoXA.OX*XR.E.@XoXR.'.].].R.H.J.R.D.H.H.J.D.J..XR..X@X@X2X@X@XY..XOX@X.X.X+X{.'.H.T.J.J.J..XD.g.g.f.q.g.A.A.D.].OX@XeXoX-XqX@X#XgX3XqX8X2X<X#X+X@XoX+X#XR.+XH.3X-X[.oXH.H.].3XT.@X[.@X=X@X@XoX@XoXoX,X@X@X].2X#XD.oX8X#X-X@X+X@X+X+X].#X-X@X@X@X@X#X-XoX .A.@X=X2X+X@X@X@X@X-X&X@X#X2X2X,X#X.XJ.A.H.Y.E.oXoXoX].oX].J..X.X.X.XoX.XA.].H.J..X]..XOX*XoX@X@X@X@X.XR.oX].2X.XR.8XOXE..XF.~.~.-XoXE.-XR.[.R.Y.Y.Y.g.y.D.A.y.u.A.].A.N.H.D.E.D.D.} H O.;.wXq.R.wXI 5.3Xf.",
"d @Xb.N.g.5.y.#XD.A.#Xu.y.H..X@X-Xe.2X].g.oX&XoX;.y.&.q.f.B.D.].C.C.|.'.C.(.{.+X|.H.'.H.{.@X].=XOX.X.X@X@X#X@X|.oX@X'.}.@X1X2X1X,X{.{.,X@X|.|.].'.].6X@X[.H.[.]..X.X].].2X@X].].N.H.H.A.J.J.A.S.H.J.R.H.H.H.H.].'.].].].'.H.'.'.N.H.J.+X@X].].'.T.B.A.D.T.R.R.D.T.H.H.+XJ..X'.#X@X+X#XoXR.oX*X*XN.H.N.A.g.J.oX#X2X2X#X).J.XX@X@X=X@X@XoXoX@X@X}.[.@X@X'.R.oXoX-X.X.XR.H.H.].|.].@X@X}.H.2X+X].2X-XoX;X#X{.2X6X6X+X+X2X,X].6X5XjXqX2X-X2X#X@X].H.2X@X#X2X.XJ.@X#X@X]..X.XY.D.D.g.r.u.A.u.].@X#XH.3XH.].D.} w.e.A.gX8XOX..' T.T.I n A.g.A.*XoXY.oXY.E..X.XoXE..XOXoXoXoXOXE.oXOXE.#XR.oXoX.X^.*XoXE.^.-XoXY.-X@XR.'.].[.J.D.J.R.D.H.J.R.D.J.].R.]..X@X#X@X#X].E.oX.X.X+X{.{.].T.T.J.F.u.F.D.Y.A.e.r.R.y.u.R..XE.7XOX#X-X-X-X2XfXqX2X3X2X].].+X].R.].].oXH.].oX=X[.].'.@X].@X'.=X@X[.@X#X]..X.X.XJ.}.{.@X].'.].].2X2X-X-X@X#X2X+X}..X#X-X#X#X#X@X-XoX*X#X2XoX#X[.@XoXoX].oX&X@X@X@X#X2X#X@X].].N.R.^.E.OXoX@X@X@XoXoXR..X7X#XD.g.A.g.g.D..X.X].oX.XoXoXoXoXoX.X.X#X@X#X].J..XE.E.D.S..XJ..X.XJ.R.J.D.A.A.A.Y.R.A.D.r.y.u.y.N.'.A.D.g.y.*.A.O.e.g.;.9X9XwX.X9 g.2Xy.",
"l ].N.N.t.D.#Xy.gXH.e.y.B.H.y.].2XA.8XD.H.oX].Y.q.g.D.D.e.f.D.T.H.N.T.V.M.{.+X+X|.(.(.(.].].'.+XoX.X@X@X@X#X[.[.@X#X}.+X@X,X2X,X,X@X@X@X}.{.+X@X1X].@X@X@XT.'.T.XXH.].oX+X].@X'.y.G.H.D.D.D.A.A.H.J.R.T.'.H.H.).'.].'.'.'.'.].].'.].'.].].'.].@XR.D.R.[.T.].@XR.'.{.@X#X].].H.]..XoX@XoX].oX&X&X'.'.A.A.D.R.oX@X@X+X#X].]..X.X@X-X@X@X@X+X+X+X].}.}.+X+XoX].[.-XR.].@X.XA.H.].@X@X2X@X@X+X2X+X2X@X@X7X3X1X,X'.'.2X#X#X4X1X5X5XaX2X2X#X-X-X@X]..X+X]..X#X@XB.u.#X#X].'.J.D.E.D.A.k.r.J.q.J.2X].H.=XoX].e.XX.Xe.w.].N.' } 5.H.T.' z A.g.9X-X7XuXoXF.D.J..X.XR.R.oX#XoXOXoX#XoX*XoXoXoXoXR..X^.^.#X*XoX-X*XoXoX.XR.H..XoXH.g.A.R.R.J.]..XR..XoXoX#X].].oX@X#X.X].oX+X+X+X+X].'.H.H.H.J.A.R.D.J.A.g.D.g.y..XJ.D.OXOX@X2X-XoX2X2X-X-X<X2X3X].].@XE.E..XoX2XH.+XH.].T.[.@X2X'.N.R.R.H.#X=X2X}.@X@X@XR.B.'.H.'.H.V.#X@X@X@X=X@X2X2X+X}..X.X.X+X=X-X=X=X*X#X*X@XoXqX+X].'.'.'.[.=X=X&X=X@X2X2X=X[.+XN.+XOXE.@XoX@X@X-X-XOX-XqX2X].J.F.F.D.J..XR.J.oX-XoX@XoX].R.]..XoX#X#X].].R.R.OXOX.XoXoXoX^.E.E.A.E.R.R.T.B.g.A.g.f.u.r.r.S.J.R.A.H.E.f.A.J.A..XA.I E.oXH K H 2X2Xg.",
"I H.M.N.5.5.A.].@XgXN.%.H.B.4.R.wXoX#XR.*X-XE.Y.y.D.D.H.D.D.g.D.6.f.#X].(.,X+X`.|.{.(.].{.'.].].#XoX@XoX.X.X+X2XoX@X+X@X#X+X#X,X}.+X@X[.'.[.@X[.=X=X2X[.T.B.N.#X.XS.R.'.].'.].H.B.B.J.].H.D.J.A.J.].].].+X'.H.H.'.].R.].].[.#X=X#X#XH.'.'.].+X#X].+X[.[.@XoX[.@X'.,X2X'.@X'.H.[.OX@X@X@X@X@X[.[.].'.H.H.].].@X@X}.[.+X+XoX+XoX=X@XoXoX+X.X+X@X@X+X[.[.oXoX[.+X+X].J.oXoXJ.R.@X#X@X[.H.#X2XH.N.=XH.7X>X&X=X2X'.'.#X3X6X5X6XaXfXdXwX3X8XqX@X.XR.B.N.+X[..X2XB.5.#X=X].f.o.&.D.s.g...&.O.D.].2X'.'.2XqXR.H.R.R.F.R.3XA.X.X.%.N.R.o.Q E.e.E.oXR.E.oX.XE.R.E..X^.^.oX*XOXE.Y.OXR.R.OXOXOXE.J.oX*XoXoXoX*XOX*X*XE.R.R.H.]..XD.g.A.J.J.A.H.D.J.E.R.R.H.].]..X-X#X].].-X@X+X+X+X'.D.D.H.J.oXR.oXJ.J.D.D.A.A.A.A.B.A.-XOXoX].@XoX@X#X8X7X2X2X3XoX].@XE.[.]..X].R.R.@X[.@X@XT.T.].H.[.H.'.+X}.+X'.+X+XoXJ.g.+X'.+X3X].).N.@X@X=X@X#X#X].{.].R.R.].+X#X#X#XOX*XoX-X+X].1X,X].].].@X2X2X-X;X1X3X2X#X].oXB.@X&XY.@X@X@XoX#X-X#X7XqX.XH.].oXoX#X#X#X.XJ..XoXJ.oXoX[..XoX.X.XoX].J.@XR.oX#Xk.oX-XJ.oX-XR.oXE..X&XR.R.T.A.g.A.OXu.u.;.u.J.H.J.g.D..X#XF..XH..XH.@X3Xf.D.q.e.-X5.",
"F M.y.y.y.u.S.' %.gX-Xo.y.6.y.N..XgX2X@X[.;XU.&Xg.q.e.D.D.B.y.B.H.T.@XN.y.H.).+X).+X(.{.+X].+X+X@X@XoX@X#X]..X#X]..X+X@X#X+X2X2X+X@X@X[.R.@X&XoX=X=X].H.'.+XN.'.].].).T.@X].T.'.H.N.R.+XG.N.H.A.J.].].[.+X'.H.H.oXoX].[.[.].[.{.}.}.H.].#X2X.X'.].].'.].[.oX[.[.H.+X#XH.+X].].@X#XoXR.R.[.[.}.}.H.H.H.R.].H..XoX=X|.[.oX@X@X@X2X@X[.}.].J.).].{.].+X].'.'.+X=X'..XJ.].].H.H.#X.X@X#X#X].2X#X1X'.R.3XD.Y.#X@X].3X#X3X6XqX1X1XqXaXqX2XoX].R.].R.J.P g.=X=X].B.].8X@X+XB.=.=.g.&.W oXA.O.5.B.+X'.=X=XB.e.8Xn ;.eX*X=X2XX.z ' y.+XN.j Q f.oX7XoXY.Y.J..X^.R.oXoX^.R.Y..XD.R..XR.r.^.oXR.Y.^.Y.#X:X^.E.-XoXE.oXR.E.R.R.R.].J.D.F.J.D.D.Y.Y.E.oXR.D.N..XoX@X2XoXJ.J.2X@X+X+X].J.B.D.R.H.R.D..XR.J.A.A.q.A.&.' D.D.Y.oX=X[.[.H.@XoX@X#X#X+X@X.XR.].R.R.R.].oX].H.'.T.].@XD.T.].@X+X].+X@X@X@X+X1X2X2X@X2X=X#X].@X2X#X2X=X1X#X+X#X@X].@X[.'.[.}.}.+X#X#X#X-X#X=X=X2X@X{.+X}.[.@X2X@XoX@X=X2X@XoXR.].D.&X@XD.-X2X-X@X=X2X7X*X#XR.J.@X-X9X>X.X.XoX.X].H.N.oX@XoXoXoX.X]..XR.H.#X.XJ.R.u.R.oXoXE.-X^.^.oXE.-XR.R.D.f.s.y.y.r.J.r.e.D.J.-XJ.Y..XF.k.D. .&X2X-X;X-Xj K Q 2X5.",
"y.M.[ M.y.t.J.q.B.=X'.H.y.y.5.N.=X3XyXyXy.R.&XR.D.q.A.R.q.q.e.y.M.M.C.y.4.y.N.H.(.).(.{.{.+X].+XoXoXJ.oX#X].].oX@X@X@X+X=XoX2X2X1X1X#X+X[.OX*XOX'.@X].[.@X}.H.}.R.].H.'.].'.H.R.A.g.H.'.N.u.A.H.J.J.].oX'.H.H.H..X.X].'.R.H.H.H.].}.C.'.].2X+X].oXH.'.oXR.[.=X[.+X@X2X].oXoXoXoX.XY.H.R.oX@X|.|.'.H.A.H.+X]..XH.[.'.[.[.+X&XoX[.@X}.+X].H.H.).|.F.J.].@X+X[.+XH..X.X].H.g.g.oXg.[.'.1X@X2X].6X'.R.@X*.E.-X(.H.[.3X#XH.2X,X{.,X,X8XfX2X].oXoXE.OX@X[.oXB.e.N.8X#X@X1X=XR.D.oXh.K o.5.B.y.H.H.[.qXoXH.D.yXq.F.9X7XB.B.} H } 5.'.B.j Q e.q.9X*XE.OXe.D.Y.k.R.F.R.R.Y..XE.OXoXoXd.!.D.E.oX*XD.F.#XOXoX*X.XJ.R..X^.E.R.R.R.R.J.J.J.D.D.Y.D.Y.E.T.D.N.J.]..X@X].].R.@X@X+X.XJ.D.D.H.'.g.H.H.R.J.g.g.H.u.e.y.A.].oX^.F.[.[.T.f.2X2X.X2X#XoXoXoXY.].@XH.f.u.#X].oX'.}.@X.XoXoXJ.H.H.H.H.].}.{.+X+X2X=X#X@X'.3X3X#X3X,X1X1X#X@X+X2X@X].<X@X[.}.@X+X#X,X@X].oX2XH.'.3X].@X@X}.].oX+X].J.].+X@X[.[.].E.E.*X'.B.2XqX3X=X2XqX-X*X-XR.R.8X7X-X7XoXY.E.].].[.].oX@X[.]..X.X.XoX@XH..X#XR.#X#X#XoX-XoXoXD.oX^.oX+X[.[.D.D.OXR.y.&.u.e.D.D.g.A.D.@XJ.D.~.~.y.;X=X;Xf.g.t } e.@XN.",
"V.M.7.V.5.t.e.-XN.=X2XN.f.y.y.oXgXT.[.3X&X&X&XoXr.u.A.k.&.q.q.g.M.f.C.N.7.7.y.y.G.G.(.|.|.@XH.].R.J.e.B.].R.@X@X2X#X+X[.@X[.=X&X@X@X@X#X@XoXoX.X@XR.N.[.2X'.].+XoX'.'.+XH.T.T.H.d.g.A.A.y.y.V.H.J.H.].oX'.H.'.].D.H.H.H.H.N.H.'.'.@XH.].'.@X].].'.].].'.'.'.'.[.XX].#X-XoXOX#XoXOX.XJ.R.[.[.'.'..XoX].J.].].@X].@X].R.A.H.oXoX].].].+X@X'.).].{..XF.H.+X].H.}.@X+X+XJ.D.u.g.oXO.N.2X6X@X2X].'.].Y.E. .Y.#X+X#X@X#X3X].<X@X+X4X2Xo.N.].].H.D.D.g.[.@XB.y.@X].#X.XC.T.[.T.g.oXE.E .X2X].8XtX[.2X5XqXqX8X.X9X>X>X7XC.l N.S. .o.y.5.r f.Y.f.E.D.R.oX .A.oXJ.OX^.^.oX@XoXOX.XE.~.F.!.E.OXD.oXOXoX/./.E.Y.oXoXOXOXY.Y.J.H.J.J.A.A.D.F.R..XD.R.oX[.oX].A.H.H.].oX2X@X+X+X+X].D.A.H.R.'.H.H.A.J..XD.g.A.e.f.g.A.g.J.J.^.}.@X=XT.@XoXoXOX@X.X].oXT.R.=XH..XH.#X#X[.@X'.H.F.@XR.R.B.'.'.+X{.+X{.#X+X=X#X1X2X2X+X+X2X=X+X1X=X@X}.+X2X@XJ.+X&X[.].}.+X,X,X).@X7X2X=X3X=X@X#X1X@X}.+X+XJ.J..X.XoXoXoXoXE.@X&X'.B.3XtX3X@X-XqX>X^.#X#X#X#X^.*XoX^.oXoX].[.+X].].oX].].oXoX.XoX@X@XD.R..X@X.XR.OX[.OXD. .E.oXoX[.[.@XY.A.E.E.D.f.F.A.E.D.Y.D.H.R.D.A.D.R.Y.H.6X;X] t g.E e.H.' ",
"B.N.f.t.r.O.q.D.i.).F.A.u.e.g.R.wXD.oX7X^.eXoXE.*.B.=.] g.B.H.H.y.o.y.g.O.1.X.O.M.8.|.).).+X+X+X].H.t.t.2X).+X@XD.D.'.@X=X#X2X,XOXOX@X@X.X@X].+X=X'.'.H.{.b.y.<X].'.'.'.].'.H.H.z.k..XJ.u.u.H.N.H.{.].+X+X'.[.'.H.H.H.'.'.C.H..XH.H.].H.H.].2X+XT.'.J.A.J.J.+X].T.].].oX2X=X}.+XoX@XR.E.].+X@XH.'.[.}.[.+X].H.).].H.+X+X].J.y.#X].].].2X#XF.F.A.'.N.y.N.].D.J.oX].#X+X+X'.D.T.T.T.=XoX2X#X,X@X{.].].].].[.@X@X8X6X1X5X@X|.3X].@XA.J.oX^.Y.D.E.[.oXR.R.oX].#X#XoXXXS.#XoX*X*Xd.r.7XA.u.#X].4X}.qX@XH.R.D.E.OXF.F.J.e.wXoX .Q X..XH r  .r.Y.A.oXoXR.R.oX.XJ.[.@X[.H.@XoXoX].].[.=X^.D.E.R..XR.oX#X*XoX.X@X.XoXR.oX.X.Xu.g.D.D.E.E.J.D.D.A.R.E.OXoXJ.H.J.J.oX[.*X&X@X].R.H.H.J.J.].H.H..XJ.R.D.f.r.N.A.y.b.N.g.R.oXR.oXR.=XD.'.].2X<X@X@X+X@X'.].].].].+X@X=X[.f.T.].{.|.@X]..XoXXX@X[.[.'.2X#X#X#X1X2X#X{.{.@X,X}.#X#X#X#X,X@X}.}.).+X<X<X@X+X@X2X#X#X+X+X1X1X#X1X,X{.+X+X[.+X'.H.R.B.B.7X>X9Xr.F.C.8.gXOXoXoX7X-X7XoX-X-X[.#X=X+XE.@XT.oXoXoX.X].oX-X-X.X].oX.XR.@X-XH.].oXoXOX*X-X.X#X.X*XOXY.OX[.R.R.@X#XoXE.A.D.D.D.F.k.k.D.F.F.r.F.D.D.J.R.A.oXy.A.7X5.O...X.",
"N.B.5.y.O.w.*.h.r.A.A.N.i.u.e.A.E.9XoXwX#Xg.E.oXB.B.6.g.D.5.e.B.u.N.H.y.5.X.1.P y.<.y.G.].@X#X#XH.y.].J.).H..X.XOX[.[.[.@X+X#X#X#X@X.X@X@X].].+X6X#X].].,Xb.G.2X'.'.'.].].H.H.N.D.oXR.N.H.A.u.R.|.|.H.+X#X[.}.+X}.].'.'.].'.}.+X#X].H.y.H.@XH.B.'.T.H.H.).J.@X+X[.[.@XoX#X#X#X].H.-X*X@X].@X+X'.'.].].'.H.H.H.'.H.N.'.R..X.XH.@X@XoX].+XR.J.J.J.B.N.N.H.].H.R.].+X+XH.@XB.R.].T.].@X'.+X+X2X2X2X1X].'.].].[.B.5.H.1X|.6X6X[.-XH..XoXD.R.E.E.oXY.E.R.R.oX].oX.XoX.XF.@XOX*X*XoXD.H.u.e.2X4X+X6X].6XN.-Xg.*XR.F./.8XyXwXD.h g J..Xz N u.g.*.Y.e.OX-XoXoXR.D.].@X@X.XR.D..X-XOX&X&XR.Y.E.#X#XJ.oX@XoXoXE.#XK E.OXE.R.oXD.D.R.F.R.E.A.A.J.J.Y.R.^.Y.N.D.J..X@XoX@X].].].].J.H.F.J.].R.H.].].oXD.y.r.y.y.y.u.B.A.R.].[.].'.oXD.'.].@X{.).G.].].@X].@XH.'.].[.@XD.&.T.#X).].+X'.]..X.X[.[.[.'.@X+X#X2X=X2X1X#X@X1X1X1X2X#X2X2X,X@X@X,X@X+X].+X<X2X,X+X#X1X#X#X#X#X#X2X2X+X].].+X2XoXH.A.B.D.9X-X#XJ.A.R.5.@X9X>X*X*X9X7XoX-X7X@X=X@XoXY.oXR.].R.J.R.]..X.X.X.X@X.XJ.D..X].H.H.-X*XY.-X#XoX#XoX-X#XE.OX-X@X].oXOXOXE.r.R.k.k.w.k.d.D.f.F.D.A.k.k.^.R.D.wX8XyXqXH ; b.S.",
"f.H.5.u.O.q.q.B.q.J.u.q.r.u.e.zX*X-X-X7XoXoX*XoXB.T.B.D.g.g.g.y.y.5.y.y.X.P b.@XM.y.b.).+X@X3X2X].oXA.H.@XJ.#X@X&X[.@X=X3X=X#X+X#X#X2X2X].6.H.+X#X2X].C.+Xy.].@X}.].'.].'.H.H.H.k.F.A.A.B.H.N.H.H.'.'.].].(.'.].'.[.'.T.H.'.].].T.'.'.H.T.'.H.H.H.B.B.A.J.H.].[.[.'.@X[.+X@X=XH.N.H.OX&Xu.).+XoX#XR.A.H.T.].'.H.'.H.'.H.@X@XoXoX'.'.oX].].oX.XR.N.B.N.J.H.H.R.].+Xy.%.+XB.R.'.R..XoX].].'.@X,X6X|.<X].'.@XoXg.A.H.].6X2X].N.J.J.OXoXq.d.D.R.oXE.Y.R..X].@XoX@X*XoXA.H.-XoXk.J.g.gX2Xe.A.{.V.4X4X2XN.y.].^.^.d.oXJ.J..Xu.z } OXe.u N  .e.u.D.D.-XoXD.R.oXoX.XR.'.@XR.R..X#X^.oX^.oXOXF.oXR.y..X.X*X9XoX^.g.OXd.f..XoXA.A..XR.J.F.A.R.D.g.D.Y.D.*XR.].J.R.R.].oXoX].J.J.]..X].].].D.].oXB.g.u.y.f.u.t.u.D.H..X+XoX].R.@X].B.[.@X[.<X].].+X@X].].+X'.+X+X'.[.H.g.&X].#X#XH.].R.H.#X@X'.H.H.@X#X=X#X2X2X2X2X1X1X1X6X@XoX#X<X{.].}.}.,X@X+X+X@X<X#X@X#X2X#X+X+X+X+X,X,X@X+XH.H.oX+X].Y.[.;X-X-X8Xu.A.g.g.qXyX7X7X-X-X7X.X#X8X;X-X@X+XoXOXoX.XoX.XoXoX*XoX]..XoX.X.XoX].H.#X.X.XOX*XoXoXoXoX].#XoXE.oX;X;X#X#XoX.XR.k.d.x.k.k.e.g.g.g.J.F.D.~.g.e.g.oXoXA.#XA.X.O.S.u.",
"B.B.y.y.u.w.u.B.u.A.r.r.r.r.D.yX^.-X*XoX*XE.F.OXB.W.B.g.g.D.H.B.|.M.f.M.5.b.A.+XM.V.H.].{.(.2X@X].H.'..X]..X@X@X@X[.[.].=X@X=X2X2X#X@X2X.XN.'.+X+X+X].M.#Xy.[.].oX].]..X.X].].+XB.y.A..XN.N.H.u.N.].+X'.(.).).(.T.+X+X'.H.'.}.].N.B.y.T.D.H.].y.H.H.A.H.).].+X+X'.'.@X].@X@X@XH.f.B.E.OX+X@XJ.@X.XJ.H.J.H.'.].'.].J.H.H..X.X+X].oX'.+X].].@XJ.A.H.D.g.A.u.u.H.].H.A.].@Xg.D.].H..X.XoX@X].{.}.@X@X0X@XT.-XoXD.].[.g.].H.A.J.H.<XA.D.u.A.^.R.D.D.E.oX#X].@X.XoXOXoX#XoXoXR.J.#XD.G.#XR.T.,X{.{.5X'.oXD.A.&.g.k.&.e.e.-XS.g U e.u.0 E } g.y.A.oXOX#XJ.D.Y..X.X]..XH.J.].R.J.J.XXJ.oX#X^.*X.Xg.^.R.[.D.oXE.oXE.oX[..XoXA.A.^.R.D.A.A.g.J.D.B.R.J.oX.XoXR..XR.].].]..XJ.H..XoX].'.R.R.R.@X2X@Xg.y.Y.B.e.g.A.N.D.A.B.].R.&X].B.2X2X].].].@X].+XH.].].'.#X2X'.oX&X@X[.[.@X'.M.].2XJ..X@X'.H.H.#X2X2X#X<X#X#X=X#X=X1X1X+X].#X#X].+X,X@X<X#X#X+X].].+X=X<X<X@X{.+X+X+X@X+X@X,XH.N.H.oX@X;X;X3X@X2XqX1.G.H.y.8X#X8X7X>X-X7XoXOX2X-X-X-X@XoXoXoXR.oX.XoXoXE.oXoX.X.X~..XoXoX2X-XoXOX.X#XE.-X-X@X.X*XoXoXoX.X.X.XoXR.A.D.B.d.F.F.F.q.k.A.Y..XF.A.A.D.g.F.d.q.e.u.yX .z N. .",
"N.N.y.e.F.r.g.g.u.g.u.e.e.y.OX-XD.Y.*X*X-XR.g.-X[.R.B.B.R.B.H.#XV.Z.C.N.y.).'.J.V.V.H.).+XN.2X}.].).D.H.]..X]..X].'.'.'.@X]..X@X@X#X].2X'.H.].'.].H.'.'.3Xy.B.].].]..X@X#X+X].].H.H.].].].A.V.N.J..X.X'..X@X{.).'.@X@X].R.'.oX'.D.H.y.H.g.g.H.e.A.H.A.H.].@X1X+X].oX+XoX2X@XoX].2XB.R.oX@X@X@XJ.].H.J.J.H.T.].'.].J.A.].]..X.X.X@XH.H.D.J.oXJ.A.'.H.g.A.u.y.g.R.D.J.oXoXD.D.H.J..X].oX#X+X{.@X}..XH.@X}.[.T.[.].^.D.g.J.J.R.+X@XT.Y..XR.OXE.A.F.Y.oX@X].@XoXoXE.H.oXR.D.D.].-X2X{.'.N.N.2XfX1X}.@XqXyX-X .q.d.&.R.A.g.g.n  .u.A.y L F.%.e..XOXu.#XoXoXE.oX#XE.H.].].R..XR.oXOXF.R.^.^.oXR.R.oX.X@XD.*XoXD.Y.#XE.D.oXR.Y..XJ.D.H.g.Y.D.g.H.[.N.#X'.].H.].]..X].J.F.J.J..X'.H.R.]..XY.D.R.E.A.g.Y.f.q.A.R.J.]..X@X@XB.D.].g.].'.+X].@X.X.XH.].J.'.#Xg.D.].-XOX*X&XH.H.].].y.]..X@X].].oXoX2X#X2X6X#X+X}.+X=X1X1X6X@X+X@X].'.#X3X,X2X#X+X].].].}.+X@X<X<X@X+X@X+X@X@X@X@X].'.+X@XoX7XR.g.7X-X@Xu.J.g.&.7XoX8X8X7X7X7X*X#X-X-X-X#XoXR..XoXR..XR.].oXoXOXOX.X.X.XoX>XoXR.A.oX#XOX#XOX#X2X#X.XOXoXoXoX].R.J.R.R.H.D.u.^.F.Y.g.D.g.R.J.^.A.g.A.J.F.E.q.e.D.g.D.Q Q o.U ",
"5.y.f.y.g.e.r.A.;.J.g.O.e.g.7XoXoXA.*XOXY.OXU.^.g.D.A.6.f.y.A.].1X(.Z.C.H.A.].D.H.V.'.[.+XN.#X1X#XqXN.A.-X]..X#XT.].oXoX-X.X].].].#X+X#XN.V.'.H.].J.'.+X[.y.g.oXR.R.].oX+X].'.J.H.].).G.].A.V.H.R.R.].].].].R..X.X@X].J.J.'.].H.J.D.e.t.H.R.q.&.u.D.A.H.).@X#X].@X#X@XoX#X@X[.@X2X@XR.e.H.H.R..XXXJ.H.H.J.R.'.H.R.H.A..XJ.].].+X'.D.B.D.R.@XoX].'.'.A.H.J.A.g.J.'.B.y.].].R.g.].]..X@X=X'.Z.}.1X@X).1X+X'.B.D.J.oXOXF..XR.J.].].@XR.@XH..X].D.R.D.R.oXoX@XoX].Y.R.R.H.R..X].].qX{.N.B.+XqX,XfXqXJ.5.#XoXY.;.e.r.&.5.o.g.Q &.g.A.N t Q g.q.R.y.J.#X^.Y.E.oXE.Y.OX#XoXR.oX.XoX/./..XR.R.J.A.E.E.oXE.]..XR.#X#X].].J..XE.Y.R.R.J.R.Y.D.Y.H.D.].].#X].'.H.R.].].].H.J.].J.].].H..X.XA..X.X.X].OX.Xg.g.y.D..XR.D.H.].D.].].B. .[.@X].@X#XoX].'.].].'.=Xy.N.@X-XOX-XOXR.B.H.#XB.oX].+X].].@X@X3X2X1X2X<X#X+X@X1X1X1X1X1X#X+X'.H.@X3X,X#XoX].'.'.'.[.[.(.@X2X<X@X+X+X<X<X+X+X+X+X=X#X@X7XD.q.8X7X.Xt.@Xk.q.7X-X-X7X-X7X8X7X-X7X-X@XoXR..X.XoXR.oXoX.X.XOX^.F.F.J.J.E.-X].y.D.oXH.OXOX@X].@X#X].OXoXoX.XoX#X@X.XR.].].B.Y.A.D.A.J.A.D.A.A.g.D.@XD.g.A.D.g.e.g.g.B.5.H.&.",
"{ 6.B.y.e.e.;.g.y.u.g.u.t.N.#Xr.7XyX*X-XOXOXOXoXg.@XOXf.e.J..XJ.M.Z.C.H.N.t.H.N.H.H.'.+X'.D.+X+X=X].2X2X@X@XoX#X+X@X@X[.#X.X.X#X#X+X+X].H.@X#XH.J.+X.X[.[.N.].@XE.oX.X].].].].'.G.G.H.H.H.H.H.G.S.F..XR.H.A.B.oX@X@X].].].].].T.g.D.D.f.Y.D.&.u.b.F.H.].].@X+X].oX#XoX@X].@X[.oX|.].Y.g.A.A.R.R.R..X].R.H.A.D.T.H.B.D.R.F.H.H.H.T.R.R.R.R.R.].H.(.].V.N.].D.A.J.R.R.[.R.H.R.H.].[.=X#X1X'.8.}.}.+X+X'.'.=X@XD.].U.R.F.D..X@XR.'.J.J.].R.].oXJ.J.oX.XoX-X@XR.H.J.H.@XoX].H.J.H.].@X}.}.6X5X(.,X}.D.u.u.#XoXR.u.H.R.T.'.[.e.g.A.g.y f H &.%.u.k.A.F.k.F.OX*XY.D.OXJ.J.D.D.Y.Y././..XE.oXOXR.oXY.Y.@XR.^.F.~.R.].[..XE.R.D.H.R.R.J.y.A.R.R.@X+X].+XR.'.'.].@X].).N..XoXH.].].].@X.X^.oXE.oXR.E.oXF.r.q.y.Y.E.A.D..X[.E.R.@XH.oXoXoX].R.].'.#X].+X].T.@X;X@XoX7XOXy.H.oX@X=XH.'.'.#X.X].]..X8X6X1X@X@X#X#X@X=X2X=X@X2X2X#X{.].+X2X2XoX+XoX].'.'.[.@XH.+X,X@X+X+X+X@X#X+X@X].'.@X=X2X-XoXY.7X-X@Xy.2X>Xq.A.7X-X#X-XyX8X7X-X7X-X.X.X.X@X.XR.J..X*X~.J.OXoX^.oX#XoXE.oX[.@X@XT.R.[.D.R.[.@X2X.XOX*XoXoXOX#XoXoX].J.].H.g.D.D.R.A.D.N.u.N.J.Y.J.A.D.g.A.B.-X@XT.3XH.H.&.",
"[ 7.B.&.r.k.q.&.*.f.g.r.q.e.J.#XOX*.A.-XoX-XE.OXE.oXoXR.g.J.R.J.].M.C.'.H.J.A.B.H.'.'.oX].2X@XG.#X].H..X-X].@XoX@X=X=X@X2XoX]..X2X#XqX}.H.'.@XH.N.J.J.'.3XB.=XR.Y.oX#X@X@X@X+X].G.H.H.].J.].H.V.k.S.~.J.D.T.D.R..X.X].oX.XT.T.H.g.d.r.e.A.r.w.;.A.F.F..X].].'.'..X@X@X-XJ.@X@X[.'.'.e.y.R.H.D.H.].].J.J.R.H.B.A.R.B.R.R.].].).G.D.[.].R.D.D.].H.(.'.y.O.D.A.D.J.T.D.OXT.[.T.oX@X3X1X[.6X1XC.1X'.{.1X+X#X[.[.g.D.e.D.E.D..X].R.'.F.J.J.R.H.].].R.oXH.J.2XoXR.].*XT.oXR..XA.D.].].Z.xXgX}.'.}.}.@XyXwXA.-X@Xo.u.#X3X2X3X;Xf.%.A.&.t r r %.g.A.u.u.S.!./.Y.Y.R.U.OX.XoXJ.g.Y.Y./.~.R.J.Y..XJ.E.E.OX@XoX.X~.J.OXoX[.^.E.oXE.D.J.R.J.&.q.D.T.'.'.#X+X@X].H.D.'.J..X].].@XJ.R.J.H..X.XoXoXE.oXY.oXoXy.g.q.&.D.R.g.A.].E.oXH.H.@XyXoX' ].oX+X3X#X].H.].'.].T.oXE.Y.R.*XoX=X-X@XD.oX=XN.]..X@X@X3X2X2X6XJ.].@X@X=X2X-X@X@X@X@X@X+X].[.#X#X@X+XoX[.[.[.@X{.@X+X].{.+X+X+X#X@X<X+X[.=X=X-XoX7X*X9X.X.X8X2XA.&.g.9X2X#XqX8X7X-XoX-X#XR..X#XoX.XR.R.R.#XR.~.&X*X#X.XoX#XoXoX@X[.].@X&X[.;XE.[.@X2XR.oX*XoXOX7X~.F.oXoXJ.H.H.E.].].H.A.A.S.p..XH.D.B.].g.*.D.-X8X@X@X&XH.%.5.",
"O.5.D.g.y.w.q.q.;.r.k.r.q.y.J.qX-X2XqXwX7X-X-XY.U.U.OXE.R.H.R.].[.B.H.H.V.H.'.].J.G.].@XJ.oX[.R.].].J.J.oXoXR..X].#X@XoX@X#XoXoX'.@X'.'.N.H.g.A.H.].J.D.R.N.oX#X.XoXOXoXoX#X@XH.H.B.A.H.R.R.H.N.N.y.D.'.+XH.T.oXoX'.R.'.'.H.H.H.t.u.y.H.A.t.y.t.p.J.F.J.].].A.J.oX@X].R.oX#X#XR.D.g.D.J.A.A.F.J.R.R.D.H.R.D.R.R.D.H.].].A.A.N..X].J.J.H.g.A.J.D..Xg.5.H.H.t.A.].R..X.XR.].'.=X+X8X3X@X#X2X1X#X#X+X@XoX.XD.E.R.D.'.'.].'.N.H.@XH.H.H.H.J.H.oX@X+X@X.X].2X8Xg.y.8XY.^.-X*XR.J.].].A.9X*XD.H.qX+XB. X=XH.A..XJ.oXoX+X2X2X3X'.y.v.H.L k u $.d.F.u.r.g.D.R..XE.J.J.J.F..X^.D.~.~.D.oXF.k.!.R.J.J.R..XR.J.oXR..X#X#XoXJ..XR.R..XR.J.F.E.k.D.Y.oXE.oXoX@XoXH.T.|.}.,X{.].+X].).].].J.].@X@X].].J.].H.H.D.g.g.D.B.H.H.@XoXoXoXoXoX@XH.%.A.#X-X+Xo.}.@X[.'.'.H.R..XJ.R.2XJ.7X#X].-X@XR.R.oX@XR.oX-X.X.X#XF..XY.J.].@X-X2X[.@X=X@X}.]..XoX].].].oX+XoX[.oX+XH.].{.@X)..XoX@X@X@X8XoX#XqX#X2XqX3X-X7XoX#XJ.u.D.J..X8X-X8XwX3X7X-X*XOX#XoX.XOX.XE.oXR.R.@XoX.X-XoX.XoXE.*XY.@X#X.X.XoX#X#XR.z.F.OX;X-X2X=X'.#XJ.H.-XoXY.D.E.D.D.Y.q.6.D.8.D.A.g.D.H.T.R.].@X@X#X#X2X[.H.6.t.",
"5.e.D.e.g.e.e.6.;.u.A.w.g.D.oXoXR.@XR.R.oX8XOXg.&X=XE.g.D.oX[.-XoXN.H.H.H.N.J.].J.G.].@X@X@X@X]..XoXJ.H.].].R.oX@X#XoX].@X#XoXoX[.+X@XH.R.D.H.D.].'.B.R.A.N..X#XoX.X.X.X.XoX@X].H.H.R.R.H.D.A.N.B.H.].R.'.'.].'.'.T.'.'.H.H.H.B.N.A.N.H.N.y.y.t.A.J.J.].].+X.X].oXoXoX-X.XA.J.@XH.g.A.D.g.g.J.XXJ..XH.D.J.J.R.D.B.R.'..X.X@X].u.u.N.H.H.H.].].A.J.@XH.D.J.N.D.u.R.D.R.].@XH.#X2X8XqX3X6X2X+X@X#X@X].'.J.oX-X*XF.N.H.H.'.'.T.'.C.R.J.J.H.'..X+X].@X#XH.@X#XoXD.@X*X-XoXY.E.oXR.g.oX^.7XoXN.#X4X2X1X|.@XR.-X.XO.R.#X.X].qX].'.H.C...y B ^ w.F.J.&.s.E..XR.^..X^.F.k.k.k.k.F.J.k.D.!.F.Y.D.F.J.J..XD.J.oXoXR..X.XR.@XR.R.].R.R..XY.k.D.A.A.OXoXE.oX.X].D.H.'.|.].'.'.+X+X].H.J.J.].]..X]..XH.A.B.R.u.q.g.J.+XoX'.@X@XoX+X@X-X-X@XR..X#X2X@XZ.+X].H.T.R.J.F.J.@X8X2XoX@XR.T.oX@X@XR.A.].@X#X.XR.].H.#X-XOXoX@X#X-X#X@X@X@X@X+X[.].E.'.'.'.].].].].].].].].@XH.[..X@X.XR.].@X@X#X8X].<X3X-X7X7XoX-X#Xe.e.R.8X8X@X7X-X*X;X-X7X-XOX.X.X^.oXJ.R.R.R.R.].~..XOX*X#XJ.oX*X#XoXoXoXoXoX.X.XE.R.oX#X@XoX#X2XoX.XoXJ.Y.R.oXD.f.R.oXD.g.D.f.D.A.R.g.A.f.oXg.5.@X.X].@X@X'.H. .",
"o.e.D.5.u.;.q.y.u.w.w.&.e.u.-XwXyX@XoX8XoX-XeXR.-X&XD.R.D.[.T.3X6X'.C.(.N.'.H.H.G.G..X#X#X].2X+X].oX.X.X#XoXoX#X@X@X].R..XoX.X.X[.[.[.R.H.R.].R..XH.D.H.A.e..XoXoX.XoX@XoXoX].H.H.R.].R.H.H.J.D.u.A.H.R.'..XoX@XH.H.'.'.H.H.H.H.B.H.D.H.A.A.t.o.A.S.F.J.J.@X@X.XJ..XoX#X@X].@X-Xu.A.R.R.D.J.J.u.A.].].R.R.J.R.].R.@X@X@XH.u.@X].N..X#X].A.H.J.H.A.@XD.N..XH.J.F.E.oXoXoX].J.+X+X2X8X2X3XqX3X3X2X#X].@X.XoXf.A.^.H.T.H.'.].H.N.N.J.H.'.J.oXoX@XT.@X2X'.@X.X=XoX'.Y.D.OX-XR.J..XR.F.k.oXoXJ.2X{.oX=X2XfXA.@X.Xo.oXqX#X'.@XR.oXH.y.B y u ..g.S.u.d.f.Y.J.J.^.^.~.J.F.k.k.F.~.J.k.F.!.F.F.k.F.R..XoXR..X.X#XR..X#X.XJ..XD.e.R.J.D.R.E.D.A.f.g.Y.OXY.g.H.H.H.H.H.|.{.].@X@X+XH.R.'.].]..X]..XH.B.N.H.u.&.y.A.+XoX[.[.+X]..XoXoXoXoXoX#X@X8X#XH.N.H.+Xf.A.J..X#X#X=X8XR.J.oX2X].].-XR.@X.XoX#X.XR.@XE.OXoXoX@X#X@X2X+X2X2X,X#X@X+X].].].].].'.H.H.).'.[.-X}.,XZ.+X].oX].R..X@X-X-X8X.X+X#X@X8XeX#X>XwX7Xe.J.wX#XJ.-XoX-X;X*X-X#XE.R..XR.oX*XoXoXA.R.oX-XoX.X.XR.g.D.].R.H.oX#X#X.XA.A.D.E.OXOX@X#X=X-X@X.X@X@XOXY.D.g.D.oXD.f.y.B.D.T.A.D.g.&XT.R.e.A.oX-XJ.J.}.=XH.t.",
"} e.f.%.e.&.O.q.A.w.u.~.R.e.D.oX@X;X-XR.-X#X7XoX*Xf.y.*XE.@X[.2X2X}.H.H.v.}.'.B.b.).].@X@XR.-XoXR.]..XoX@XoX.XoXoXoXoX.X]..X.XoX-X=X@XR.B.D.H.A.'.H.].H.H.t.R.oXoXoX@X#XoX[.R.D.H.H.H.H.H.H.J.D.g.]..XJ.D.@X].A.R.R.].'.H.T.R.H.N.D.A.g.N.J.e.} u.S.D.R.R..X].]..X-X@XoX@X#X#X'.H.J.R.H.J.XX.Xg.oXoX.X.X].J.H.].J.R..X@XH.u.2X<X.X#X@XJ.H.].J.H.D.R.u.y.A.u.r.F.J.#X#XoXH.oX@XoX0XqX2X8XqX3X2X2XA.H.oXH..XH.oXOX'.'.H.H.'.H.H.J.H.H.].].@X@X+XH.-X-X@X=X@XoX-X'.^.R.oXoX.X-X.X .r.D.D.oX].,XZ.=X@X}.-Xe.H.A.#X@X3X@XH.B.R.y.%.5.2 B m ;.A.S.e.w.y.D.A.D.!.!.F.F.F.F.F.J.F.F.A.F.F.Y.F.D.Y.^..XoX].R.J..XH.R.oXD.A..XA. .R.Y.A.R.A.g.R.^.F.Y.Y.*.B.]..XH.H.H.H.(.].].'.@X]..X].J.].+X.XR.J.H.B.B.y.5.g.H.@XoXT.H.'.+X#X+XoX@XOXE.@XoX2X@X.XA.H.+XR..X7X2X].2XtX@X.XoXR.].@XoX].].@X'.'.oX].J.Y.J.H.D.H.oX@X@X2X@X,X1X2X1X@X+X+X@X[.}.].].).J.]..XoX[.+X@X'.].[.].[.].+X#XoXoX@X.X.X#X@XqX7X#X-XyXwXe.D.wX@XR.8X@X;X&XoX#XoXOXoXOXY.R.R.oXOXR.R.R..XE.oXJ.D.A.J.@XoXD.J.J.]..XA.D.D.*X-X#XOXoXR.H.R.oX].R.D.oXE.D.5.g.A.D.D.R.D.D.g.g.A.E..XE.H.2X8X#X.X].y.[.6. .",
"5.B.6.5.u.d.;.f.D.e.q.A.d.g.J.#X&XoXH.D.7XE.J.R.#XR.oX@XN.H.'.].].H.|.M.Z.C.].H.G.).A..X@X#X=XH.oXoXoX.X.XR..XoXoXoXoX@XoXoXoXoX[.R.@XB.R.H.@XT.J.+XR.J.F.H.J.#XoXoXoXoX].].].H.H.D.H.H.D.D.A.g.D.A.D.oXoX.XJ.]..X].].T.H.R.R.H.B.A.g.u.g.J.A.u.r.A.D.R.].'.H.[.@X@X+X#X@X[.[.'.J.g.y.A.D.D.F.J.J.R.E.R.D.g.u.H.g.u.].oXJ.H.#X]..XoX.X].oX@X].H.N.A.A.N.A.XXF.XXOXoXoX#X.X@X@XoX2X8X8X8X8X-X2X3X2X.X]..X2X].R.[.'.H.H.].J.H.J.H.H.J.R.oX.X@XoX'.3X1X@X#X+X@X3X].k.OXoXR.oX.XB.g...A.D.wXqX@XV.qXqXqXN.e.gX].@X-X3X].H.H.B.L L &.3 N $.d.A.g.u...&.D.J.F.F.!.!.k.F.F.F.F.F.F.F.F.D.^.~.R.R.R.J.J.oX.X]..X.XJ.oXD.J.D.A.q.D.D.g.k.J.J.F.A.J.Y.R.D..X.X].R.R.T.H.N.].H.G.].].].J.].]..X].R.'.'.H.H.g.B.D.].].@X'.].).+X#X@X@X2X2XOX#X2X2XJ.H.J.R..X.X8X8X@X#X8X8X-X.X].R.[.oX].oX].).@X.XH.A.D.J.E.T.H.R.#X#X@X2X#X@X#X,X,X@X@X+X@X].[.}.].].].@X#X[.B.'.}.=X].oX].+X@X@X=XJ.].].oX@X2X@X2XoX.X.X7XR.u.oX8XR.D.3X;X&X;XoX-X].-X.XoXD.>XOX-XOX-XJ.D.^.R.oX].@XoX@X@X@XJ.R.J.R.oXR..XD.E..X.XoXoXoX&XE.^.F.J.A.D.A.D.R..X.XD.u.A.g.D.R.g.g.g.R.D.J.-X@X@XJ.H.f.B.W ! ",
"o.y. .5.e.g.u.R.F.g.e.g.&.y.r.R.&X8X@X].OX8XOXg.J.#X2XR.D.H.'.#X}.N.H.C.H.N.T.T.G.J.G.+X-X8X=X'.@XoXoXoXoX.X.XoXoX]..X@X@X=X#X+X&XOXoXD.D.H.T.B.J.+XJ.A..X].R.@X].oXOXoXR.].R.B.H.H.H.R.D.B.B.g.D.Y.R.].]..XR.H.oX].R.J.D.H.H.B.D.Y.D.D.D.J.J.J.g.J.J..X].'.H.@X].].R.oX#X+X@X+Xg.u.g.A.B.g.g.D.R.oXOXR.J.H.B.A.B.e..X#XR.H.T.].R.J.].].].].].].D.D.D.B.r.J.A.J.-X.X#XoX7X-X#XR.#X2X2X8X8X2X8X8X#X8X2X[.@X2X=X'.+XoX].].J.H.'.D.H.J.J.oX].@X@X=X@X1X@X@XH.@X#X#XoX.XR.@X7XD.e.J.u.J.q.f.8X@X{.qXoX@XJ.@X].e.J.#XoXR.R.@Xq. .k.Y.t k ^ d.k.D.u.e.q.D.].~.F.F././.F.R.J.!.R.J.!.S.F.oXoXoXR.R.Y.J.[.].oXR.R.H..XR.].B.B.g.R.g.*.f.J.F.R.R.oXoXoXE.oXD.Y.].J.A.N.H.+XH.H.J.J.A.H.].].R.'.'.[.H.H.R.R.R.R.'.H.oXoX2X@X].].+X@X@X@X@X2X2X2X.X.X].].#XOXR..X#X@X2X3X@XH.R.].oX].].@X[.H.'.H.y.g.B.D.oX}.].].@X#X@X#X@X,X@X@X#X2X,X@X].}.@X@X+X}.@X@X,X[.B.C.1X1X}.'.].#X@X].@XH.+X].oXoX#X.X].R.H.J.-XJ.A.oX8XoXf.].2X&X2XoX#XH..XR.oXQ OX*XD.OXOX.X^.*XoXoXoX@X].].]..X.X#XoX.XoXY.R.OX#XoXJ.J.E.oXoXoXJ.J.Y.R.e.e.A.H.J.].J.A.J.A.D.F.F.F.R.R.A.B.-X=X@X.XoXT.6.h.*.",
"O.g.5.g.g.A.F.7XD.r.u.u.;.r.r.-XR.;XR.@X7X7X.XOX#X2X#X].].].S..X1XN.M.|.H.'.H.T.G.G.H.+X2X2X#X#X[.].].oXoX@X@X.XOXR.].oX@X#X=X@X[.&XT.T.B.].H.H.H.H.R.B.@XJ.R..X].].@X&XoXR.T.B.T.H.J.].J.A.A.D.A.k.D.R..X]..X@X.X].R.R.H.H.T.H.J.J.k.E.R.J.J.J..XoXoXoXJ.].@X@X.X.X'.].+X#X#X'.D.].R.g.u.A.D.H.OX.XJ.A.H.J.y.O.k.;.J.8X#X+X'.[.H.g.g.D.J..X+X].D.A.g.g.A.S.J.XXA.A..X#X7X7X#XoX8XqX8X8XqX2X2X#X-X@XoX+X#X1X@X'.[.@X].J.].].XX@XJ.J.].oX.X@X-X2X}.@X@X}.H.#X].2X.XR.R..X.X.XoX.XA.R.d.&..X@X{.].].oXA.@X#X+X'.-X@X@XR.T.] L f.&.q ..B ^ d.R.A.A.A.A.F.^.F.x././.F.!.F.Y.Y.F.F.F.R.oX.XOXR.R..XE.oX@X@X.XoX].J.~..XJ.H.H.#XJ.*.A.^.D.R.R.J.E.OXR.oXD.oX].g.y.u.B.'.H.H.H.'.A.J..X].J.].'.oXH.H.T.T.R.oX].'.].]..X2X@X+X#X@X@X@X+X#X'.+X#XqX#X.XJ.#X7XoXD.[.2X-X+XR.2XA.y.-X3X[.@XH.H.].+X#X+XH.'.}.}.(.|.@X+X#X+X,X@X@X=X6X2X@X].@X@X@X+X}.@X@X@X@X'.T.1X{.@X[.[.+X[.'.[.H..XJ.oX.XoX].J.].H.R.7XJ.g.R.yXqXH.R.=X@X@X].].R..XoX-XD.*X7XA.oX.XoXk.E.OX#XoXJ.y.'.#XoX@XOX.XR.R.E.oXR.oXoXJ.Y.*X*XR.D.E.R.r.B.D.J.J.J.J.H.J.D.R.D.g.r.E.^.D.D.^.R.-X}.@X].D.T.W 6.&.",
"5.g.5.g.g.r.d.E.R.u.u.&.;.f.e.oX@XR.].7X7X-X7XoXoX2X8X-XH.J..X#X+XV.V.H.C.H.T.'.).b.G.J.2X#X#X6X;X@XoXoXoX#X-X#XOXE.oX@XoXoX-X2XOX;X[.A.H.R.R.T.N.A.J..X].J.H..X].].[.@XoXR.R.R.].H.H.].R.A.k.A.D.R..XD.H.J..X].].J.].].R.T.R.R.D.d.&.A.J.D.J.H.OXR.^.R.e.H.@XT..X.X].].].}.+X'.H..XR.g.u.A.A.A.R.R.oXR.H.A.u.J.A.A..X2X].+X].].J.H.].].H.'.+X].A.J.g.e.S.q.S.A.&.;.A.wXoX.XA.#X2XqXqXqXqX2X2X8X.XoX-XoX+X@X2X}.].-X].].@XR.J.OX.X].@X@X#XoX@XoX1X}.@X].2X3X].=X7X#XR.D.D.D.J.@XoXoX7XoXt.V.@X@X@XqXR.@XfX2XH.=X;X&XR.oXU.} z.e.N k.m ^ ~.;.A.D.J.A.F.~.F.Y.F.>.R.^.Y.~.Y.l.!./.^.oXR.oXF.Y.oXE.R.].[.oXoXR.5.q.].B.R.].R.E.g.f..X^.A.w.k.D.Y.oXY.A..XJ.e.B.H.N.f.N.H.N.].J.]..X].].].T.oXR.H.N.R.R.].D.H.J.].].].oX@X#X@X1X#X]..X.X#XN.H.R.@XR.R.E.oXoX=X=X@X#X.X].].].].2X3XH.N.H.2X2X}.@X].T.}.{.H.H.+X@X@X+X].}.=X-X2X#X+X+X+X+X+X{.+X#X2X,X@X@X}.@X{.=X=X@X@X@X#X@X'..XR.#XoX.X.XJ.@XJ.R.7XOXJ.R.@X#X].;X-X8X@XoXoX-X.X.XR.;XOXOX-Xg..X-XE.oXOXR.].@X'.#X].R..X.XOXOXoXOXOXR.Y.^..XoXOXoXY.A..XJ.D.A.J.A.D.G.].J.].D.D.R.S.E.s.....F..XR.#X=X]..XR.[.6.f.*.",
"y.y.y.q.y.f.e.u.qXe.g.y.o.5.y.oX'.[.@X2X8X-XJ.oX-X-XqX-X@XOXXX#X.XJ.J.A.A.A.[.[.J.y.R.oXH.#X2X].=X].@X=X-X#X2X.X+X}.]..X+X@X#X2X#X2X#X].R.R.oXB.D.u.D.].@XA.u.R.J.R.oX].H.].#X}.'.'.J.H.F.D.A.S.H.B.D.].R.oXH.].@X].].R.@XoX].H.J.OX*XY.T.[.R.D.R.E.-XoXR.N.oXJ.@X@X].'.].oX#XD.S.F.J.R.D.E.D.D.J.D.D.R..XA.D.>XD.D.@X@XH.H.].H.S.A.r.A.A.N.u.J.b.'.O.q.g.A.D.A.D.D.R.8X8XJ.R.8X2XqX8X7X7X2X2X].R.@X[.T.oX.XR..X.X8X-X'.T.R.[.[..X.X].R.^.^.>XE.&X-X2X1X@X[.B.}.&XOXR.OXJ.F.^.oX[.3X2XoXH.8X8X8X#XT.oX-X.Xr.r.D.>X#XR.R.u.R.H.B.E L L A.J.t.B.H.R.F.~..XF.~.k.r.F.F.F.F.R.Y.R.XXOXE.E.R.F.F..XXXH.'.oX'.D.T.].D.).|.'.e.H.H.H.b.Y.z.k.D.A.D.].oXoXoXoXE.D.].'.H.g.A.f.Y..XoX@X#X].].D.oXR.].R.].'.'.(.'.[.+X].[.@X#X@XoX2X2X].H.H.R.y.f.H.R.].J.y.+X+X@X@XR.H.B.R..XN.o.5XH.1XH.t.H.J.H.R.OX#X.X].].T.].oXoX@X+X@X1X2X2X1X,X@X<X+X+X@X=X@X}.+X+X}.{.}.1X1X+X+X#X@X].2X#XH..X.XoX-X.X.X.X].A.H.hX#XR.R.8XoX@X8X2X7X-X2X8X2X#XoX].oXoX#X.XoX-X*XoX@X.X@X@X]..X@XH.D.F.R.OXE.;X@X&Xf.N.T.[.@X@X[.].oXY.A.OXF.R.d.R.].].J.H.J.D.A.F.U.E.D.J.D.J.A.J.@X2XoX.XT.B.-Xy.",
"%.N.B.y.&.y.e.e.y.o.y.g.O.e.9X-X[.@XB.@X2XF.F.>X@X.XR.#XJ.F.u.XXA.b.D.D.J.D.D.y.J.H..XoXR.oX=X#X2X@X#X-X@X#X#XoX'.]..X+X+X@X#X#X.X#X2X@XJ.g.J.A.D.g.A.D.R.N.u.R.].J.R.[.}.+X}.'.H.J.J.].J.S.F.XXR.T.R.].H.T.D.].@X#X-X].'.R.oX+XR.R.*XH.].R.R.H.Y.D.D.Y.@XJ.oX.X+X].'.H.H.]..XJ.D.J..XR.J.^.R.E.R.oXoXoXOXR.A.D.B.D.oX@XR.].@X].A.A.u.A.D.H.D.'.A.4.u.f.D.A.A.J.~..X8X@XoX8X@X#X-X3X8X8X7X-X@XG.oX[.T.R.@X#XR.F.J.].].].oX&X&XT.D.#X#X@X*XoXR.oX-X@X'.H.T.&X].@X[.#XE..X#XJ.D.D.'.[.[.H.H.qX#X.X'.fX=XoXD.J.D.q.oX*X>XJ.R.J.5.y.K Q Q f.R.A.H.].R.R.F.~.J.~.J.F.x.F.F.F.F.!./.oXOXR.D.D.F..XoX.X'.[.oX].R.]..XH.'.T.D.%.g.D.H.A.^.Y.D.F.F.D.J.].oXoXY.g.oXR.H..X.X.XD.F.R.oXoX].@X#XR.oX].oXR.H.H.H.H.T.].+X+X#X@X-XoX@X+X=X].R.+X].H.g.D.H.H.H.u.oX]..X].'.g.y.oX].H.H.'.'.+XN.y.].oX].H.J.oX.X].@X@XoXoX=X2XoX[.#X,X,X1X,X,X<X+X+X@X@X}.[.@X#X@X@X@X@X@X+X+X#X,X+X<X@XD.R.R.oXoX.XR.#XR.J.H.qX@X+X2XqXoX.X2X-X>X7X8XqX0XqX2X@XoXoX#XR.J..XoXoXA.u..X].+X]..XJ.Y.oXR.R.oX*XR.*X'.[.@X@X@XoXoXoXoXT.T.Y.D.R.u.F.R.oX.XH.D.F.R..Xf.k.D.R.D.J.A.S.J.#X8X8XH.3XR.' ",
"5.y.A.y.A.f.A.A.y.[ ' } &.g.-X..R.@XB.oX2XoXoX8X2XoXJ.@XH.D.e.oX].H.R.D.R.B.g.o.J.].H.R.@X#X#X@X@X=XoX@XoX2X#X@XH.].+X@X@X@X@X+X2X@X@X@XoXR.].J.N.B.D.R.].H.g.J..XJ.H.].#X].H.H..XJ.H.R.R.A.A.J.].R.R.].R.].T.]..X@X#X].'.R.].].J.y.D.Y.oXJ.R.R.D.g.f.A.#X.XoXoX+X'.[.T.].'..XR.A.D..XR.R.^.^.oXoXoXE.R..XE.Y..XJ.H..X#X.X.X@X].H.H.H.H.R.[.].@X@XN.u.u.D.A.R.Y.oX.XoX@X#X2X2X@X#X-X#X-X-X2X2X+XoXoXT.R.J..X.X+X].]..XoX].R.'.B.g.].'..XOX*XE.-X .R.#XH.f.OX@XT.-X.XoXE.D.A.#XoX2X;X@XoX].].OX@X#X3X@XR.R.;.d.F.g.oXJ.} &.R.o.A.b H  .d.J.H.H.].F.R.k.F.F.A.k.u.F.F.!.^.R./.XX!.^.^.F.k.D.^.oX.XoX].].R.R..X].H.J.'.].D.T.].H.N.E..Xk.r.F.A.g.].Y.OXE.t A.oX]..XR..X^.A.J..X].R.R.#XoX].J.R.R.H.H.H.'.+X#X+X+X+X#X-X].oXH.@X+X@X+X'.'.D.D.J.D.].oXy.y.oXH.].'.R.J.H.+X3XH.H.H.N.N..X2X@XA.B..X#XR.oX@X2X2X2X=X[.].+X@X#X1X,X,X2X#X@X#X@X+X+X#X=X+X}.'.].@X2X1X#X+X+X2X3X.XoX.XR..X.XR.2X].'.].2X@X].2X2XoX[.;X3X>X#X2X8X2X2X2XoXoXoX#X.XR..XE.E.V.i.oX.X#X@X]..XoXE..XoXE.@XoX].+X@X@XoXoX[.oXoXg. .D.D.q.D.J.D.R.R.R.R.g.O.;.k.g.E.A.f.A.A.A.oX@X.XqXg.%.D.D.[ ",
"%.y.e.e.y.g.D.D.T.B.y.'  .f.oXF.@X].@XqX-XH.A.qXoX@X-X-X@X#XH..X'.H.H.N.R.H.].H.N.].R..X#X@X#X#X]..X].].oX-X@X@X].]..X@X+X].].}.@X].].2X8X-X.XH.J.D.A.J.J.J.D.@X@X].J.].+XH.N.H.'.H.A.J.R.D.A.F.R.H.J.].oX@X.XoX.X.X@X.X@X].oX].R.;.q.R.R.A.g.D.Y.E.E.Y.oXoX-X@X'.'.].R.oXR.].D.S.S.~.J.R.R.^.].E.Y.D.Y.oXE.R.[..XJ..X#XoX].].R.J.J.H.R.].].].oX].].y.g.A.D.g.D.A.oX#X#XoXR.oXoX3X3X3X3X2X2X@X).H.T.[.oX@X#X.XA.R..XoX@X].D.T.'.-X].'..XoX*XE..Xe.].4X#XB.B.H.'..XoXoXJ.D.D.#XqX=X3X@X-X.XN.8X8X2X-X3X8XoXr. .g.g.e.y. .Q J.A.u.H L q.F.J.J.].J.F.R.A.F.L.F.A.k.F.F./.oXR.^./.F.F.~.F.k.D.E..X.XoX].R.R.R.R.R.H.R.R.R.T.D.'.H.A.Y.D.F.~..XR.J.D.oXoXoXf.D.@XR.J.A.D.E.g.J..XR.R.R.R.B.B.R..X].D.].J.].@X@X+X+X@X#X#XoX@XH.oX@X@X'.H.R.H.H.D.A.R.y.l } .XH.H.H.N.H.].R.D.H.1X#XH..X].]..XR.R.#XoX[.[.].@X#X@X=X@XJ.]..X+X=X1X,X1X2X1X1X#X+X+X#X#X#X+X].].+X@X#X+X@X@X@X@X].].oXoX#XoX#XoX.XJ.-X2X7XoX7X8X8X2X8XtXeX#X-X8X2X2X#X@X.X.X.XR..X@X].R.H.S..X@X].oXJ.].Y.k.^.oX].@X-X].].].oXoXoX].R.R.D.q.E.E.&.g.Y.k.R.].J.D.F.J.k.r.y.Y.A.f.A.g.u.R.R.B.5.o. .J.A.%.",
"W y.g. .&.g.oXR.D.g.A.e.&.f.Y.>XqX@X@X=X2XgXqX7X@X2X8XoX].#X].R.].].'.B.H.N.H.A.G.].].@X@X@X-X+X].].].R.@X#X@X]..X].].+X].H.H.|.]..X@X#XoX.X].oX#XR.A.D.A.N.y.R.R.R.D.H.R.A.u.H.H.H.J.R.J.A.S.J.D.J.].oXoX]..XoX).]..X].].H.].@XR.w.w.Y.R.oX].oX[.[.;XOXE..X*XoXR.oXR.R.oXJ.oXJ..XJ.J.D.R.E..XoXY.J.A.h.Y.OX@X[..X].oX=X@X[.].J.].F.J.]..XR.]..XoXJ.J.D.e.A. .R.oX.XoXR.-X-XN.D.@X2X#X2X<X<X<X+X@X[.[.f.g.H.#X).Y.oX.X].oX].R.R.@XH.).J.oX*XoXE.2X2X2X#X@XU.R.H.R..XR.J.D.].@XqX@X=X=XoX].J.8XOX3X=X5XqX#XR.r.f.H.e.u.O.A.&.&.&.j Q &.e.F.D.J.g..XJ.F.D.J.F.F.!.F.k.R./.Y.R.R.F.F.!.F.D.~.oX^.J.@X@XoXoXE.J.J.R.H.H.H.H.N.R.H.H.D.R.^.oX#X.XJ.oX-XF.D.A.D. .B.oXR.A.D.A.oX#X^.R.oXR.g.D.oX.XR.R..XD.J..X.XoX#X2X-X#X-X-XoXoXoXR.R.R.H.J.D.u.B.D.%.4.A.A.H.H.H.|.A.].A.D.].+X#X}.].'.].@X.X].#X@XT.@X@XoX].[.@X].J.J.J.'.#X1X#X1X2X1X=X#X+X}.@X@X@X[.+X@X@X+X@X2X<X<X#X@XoXoX*XOX*X-X#XoX].].8X2XJ.J.-X-X-X@X-X;X#XoX@X#X#X#XXXJ..XR.R.J.oX#X.X.X].@X.XoXJ.].Y.Y.R.R..XR.oX@X].oXoXoXoX@XoXE.J.A.Y.E.F.F.r.f.g.D.Y.A.g.J.R.k.k.J.f.f.Y.R.g.g.J.D.=X@XD.g.q.g. .} ",
"' g.y.%.*.D.*X/.T.q.%.g.u.g.R.D.3X2X@X8X@X].2X2X-X2X#X.XH.#X]..XT.'.H.N.H.H.J.H.).J.R.oXoX#X2X[..X].oX.X2X#X#X].oX].].@X+XT.H.'.#X@X.X].]..XR.oXH.N.y.A.J.D.A.oXR.].H.J.oXR.D.R.H.R.H.B.B.B.A.S.D.Y.].oX@X].oX.XJ.).+X.X].D.].@X*XE.R.A.D.oXoXJ.oXT.&X-XR.Y.oXoXoXoXD.Y.R.J..X.X.XJ.J.J..XoX.XE..XR.Y.D.A.D.R.@X+X.X@X=X@X].].J.~.F.J..X.XJ..XoXR.g.D.N.t.D.R.oXJ..X@XoX-X].B.@X2X2X#X#X+X].@X.XT.].=XN.N.A.#X.XE.OXR.D.R..X].H.N.C.H.N.[.oXOX2XoX2X2X@X;X-X#XD.@X].].R.g.'.,XaX1X#XqXH.N.@X#XXX3X@X&X[.R.r.Y.E.H.J.g.&.B.K L  .2 O.r.e.XX.XR.H.F.k.D.k.F.A.k.F.F.D.F.R.J.Y.~.R.F.!.!.R.^..XR.H.E.oXoX.XY.A.A.Y.D.J.R.[.R.].D.D.~.F.oXOXA.A..XoXF.&.D.J.D.A.y.].oXT.D.D.oXOXoXoXE.#X.XoX.XD.J.OX.XA.D.oX#X@X#X-X2X-X2X#X#X@XoXE.R.R.H.'.H.N.T.T.y.R.2XH.J.H.J.A.u.J.H.].N.N.'.#XH.'.+X2X@X].oX@X].@X-X#X].D.R.].R.J.D.H.].@X#X1X2X1X2X1X#X#X1X@X@X'.T.].#X#X+X.X@X#X2X2X8X-X-X@X#X-XOXoX].@X2X2XA..X8X2X].R.8X7X#X7X7X-X-X:XOXJ.F.R..XR.@X@X]..X.X#XoXoXoXE.oXY.oXoX.X].].oX].oX.X.X.XoXoXE.Y.D.D.J.e.u.y.A.H.J.D.oXoXY.A.k.d.k.A.u.D.D.g.B.oXoX=XT.e.e.&.D.I I ",
"&.D.%.g.&.Y.F.F.D.A.g.D.g.y.-X-X'.3X=X2X#X2XqX8X].R.-X-XoX2XoXR.H.T.C.N.H.].H.H.A.H..X.X].oX@X2XoX].oX@X@X@X@X].oX.X.XoX+X{.].|..XR.J.@X-X#Xg.u.@XH.u.e.B.B.A.^.N.A.B.D.H.B.g.D.B.D.N.u.B.D.D.S.D.D.J.].@X].@X].+X+X#XoX@XoX@XoXE.R.Y.g.B.R..XR.@X[.-X-XoXoXoXOX^.D.A.J.D.H.g..XF.F.R..X^.oXY.Y.oX.XOXOXD.f.g.T.@X#X=X@X[.].J.F.F.D.R.J.J.H..X.X^.D.D.A.N.g.J.&.u..X].R.].oX-XE.D.].#X2X#X.X@X@XT.'.+XH.].].@XH.Y.g.f.D.D.R.@X].].#X+X'.R.E.[.T.oX2X+X2XOXE.E.@X].2X@XJ.].).H.fX=X@XqXA.t.].#X7X[.3X=X&Xg.e.u.Y.'.B.B.J.Q L ;.E 2 ~ u.e./.~.J.Y.d.w.k.F.J.D.F.J.F.R.E.E.E.E.^.R.!.F.Y.~.R.R.R.R.J.E..XR.Y.A.A.F.J.R.R.T.T.H.g.D.J..XOXXXXXJ.D.oXY.k Y.Y.Y.oXY.D.[.].D.H.E.^..XoXg.OX.XoX.XoXY.E.oXA.D.#X-X#X#X@X2X-XoX@XoXOXoXoXR.H.H.H.H.H.'.'.#X].'.V.A.H.@X'.S.@XJ.u.O.].#X'.}.'.H.+X2X#X+XR.#XoX]..XH.g.J.-X].R.H.H.].oX@X-X1X1X2X2X1X2X6X#X2XoXR.'.@X#X].H.@X].#X].#X-X*X*X#X*XOX.XoX-X-X-X/.:X7X8XD.A.7X>X#X-X*XOX#XXXJ..XS.J.J.S.]..XH.J..X.X.XE.oXE.F.D.R.J.].@XJ.@X+X+XJ.J.R.E.R.R.Y.Y.R.J.g.e.e.D.R.A.Y.D.z.F.E.F.d.r.f.d.g.d.D.B.D.oX[.g.R.e.A. .5. .",
"] e.N.O.g.u.OXF.*.g.g.q.A.f.R.U.oX3X3X3X2X2X@XsX8X.X8X].].R.'.N.B.'.H.H.H.J.V.V.H.H.].J..X#X].#XXX].].@XJ.].R.H.oXoX.X].].@X}.|.R.]..X#XoX].g.R.D.u.y.q.A.A.A.J.D.H.H.J.D.e.u.J.H.T.T.H.A.A.B.D.g.D.J.J.].D..X].+X@X@XJ.].oX#XoXY.E.Y.E.D..XR.#X].-X3X@XoXOX.XOXoXA.R.oXR.R.%..XR.~..X].D.F.A.Y.^.^.R.D.A.Y.[.R..X@X#X+X'.R.J.J.J.J.oXR.R.R.@XoX^.g.D.u.H.D.g.D.H.N.oX.XJ.[.R.R.T.].@X#X].H..X.X}.[.}.H.H.H.].).E. .&.E.R.D..XR.H.H.(.#XY.&X&Xe.B.+XH.[.E.&XE..X<X+X].D.].'.|.4X5XqX2X+XN.A.7X#X[.[.tX3X@Xg.q.*X-XH.g.y.K N ;.;.E L w.w.F.~.].J.F.k.D.R.R.k.~.~.Y.oXOXE.[.oXR.F.~.k.k.F.~.^.^.R.E.oXoX.XoXR.J.R.D.Y.R.T.R.H.f.D.~.^.J.~.OX~.D.Y.A.Y.D.A.oXOXE.oXoXoXB.H.Y..X.XR.} ].oXoXY.OXE.E.-XA.A.oX#X#X2X-X}.=X[.-X@X#XJ.Y.R.A.H.H.N.H.B.B.G.(.V.H.).H.J.].J.]..X].].2X'.#X'.].'.+X#XoX@X#XJ.J.H.]..XR.].R.]..X].R..XoX+X#X#X=X1X1X=X1X1X@X[.oX[.[.@X#X#X+X1X+X2X+X2X7XOXOX-XOX*XF.-X-X-X@X!.F.A.#XJ.D.eXeX-XOXR.oX#XJ.F.7XOXOXJ.u.J.@X.X+X@X.XR.oXY.OXd.D.D.@X.X@X.X].f.H.R..XXX.XR.J.D.F.F..XR.5.g.D.A.g.A.Y.Y.D.D.F.F.F.R.A.D.A.D.A.R.@X&XD.g.D.g.K y. .",
" .g.D. .e.e.oXR.e.D.q.e.k.F.J.7XeX#XeXXXwXwXqX@X8XD.g.8XD.[.D.f.H.{.H.H.).J.)..XoX].H.@X+XoX[.@X}.].]..XoX].R..X'.@X[.H.H.R.R.'.E.oXoX.X.XJ..XG.J.S.A.A.g.N.F.A.B.J.H.H.H.J.R.B.N.].+XA.B.H.g.g.k.S.F.J.J.].].'.H.+X[.N.J..XoXH.oXJ.E.E.E.R.Y.OX@X@X@X7XoXR.oX^.oXoXD.Y.E.*Xd.oXJ.R.J.J.J.J.D.J..X].].D.D.H..X.X]..XoX].J.J.].].J..X@XR.].@X@XD.H.y.Z.y.u.S.u.J.].2X+X.X#X@X[.T.A.2XoX'.@Xf.[.[.R.R.@XT.H.#X'.+X@X6.'.'.@X@XJ.B.H.J.H.]..X.X#XXX2X2XH.R.].].oX@X1X5X5.H.+X).{.2X2X2X#X].].].=XqX2X,XfX2XA.B.e..XT.g. .} U } } Q  .E R.e.H.J.g.D.~.J.!.~.F.F.!.F.J.J.H.D..XD.R.q.J.D.N.J.oX.XR..XoXoXOXE.Y.oXA.E.E.R.E.oXE.R.Y.D..X].J.R.oXoXoXD.A.E.D.D.oXoXoX.X=XN.D.@XR.oX.XO.R.D.].].R.2X&X&XXXg.A.R.-XOXq.].@XoX@X@X#X.X'.=X'.H.T.'.D.f.g.g.T.H.H.A.A.J.H.H.'.H.@X].@X@XoXoX.X].]..X@X-X&X@X#XJ.J.J.]..XR..X[.].oXT.H..X+X2X2X2X,X2X2X1X1X#X+X2X+X@X@X&X[.[.].oX@X].*X8X#XOX#X-XOXR.oX#XoXoXr.R.-XoX.X].#X7X2X@XR.#X2X.X@X2X@XR.T.R..XoXoX.XR.R.].@X+X].y.g.L..XJ.R.OXE.D.R.].]..XoX^.Y.Y.R.k.r.g.e.e.u.A.e.J.D.D.D.k.Y.~.k.F.R.].H.H.R.J.^.oXY.;.} I 5.%.I ",
"g.B.N.y.g.A.u.g.B.g.e.u.A.A.].@XwXXX#XwX7Xq.@X@X3X[.D.OX;X[.oXD.y.@XV.y.).].H.2X@X].A.@X=X@X@X[.1X@X].+X#X.XR.J.oX[.].].].].oX#XR.U.oXH.H.H.J.G.F.D.H.F.A.A.J.J.D.D.A.A.D.H.T.H.A.+X#XH.g.H.A.g.k.F..X].R.].[.oXH.+X]..XJ..XJ.R.R.R.oXoXOXoXR.oX].H.H.oXE.oX^.R..XE.Y.oXE.E.q.E.R.R.J.J.R.R.D.A.].].@X@X.XJ.'.].]..X.X].R.J.J.R.oX].R.D.J.J..X.XA.e.N.A.u.u.u.H.J.D.].3X].'.=XT.=X2XoX=X'.-X].@XR.].].].R..X+X+X[.].@X-X-X-XA.J..XoXD.R.8X#X#X<X+X8X-XR.#XH.].;X2X}.'..X].+X<X+X6X@X(.].].2X3X2X,X2X2Xy.y.R.B.5.e.;.} O.u.e. .4. .K k.D.].J.D.D.^.F.A.F.F.F.F.k.A.D..X.XJ.q.R.oXJ.].D.A.J..X.X.X*XE.Y.J.E.oXY.Y.D..XOXoXR.E.R.D.R..X]..XoXoXOX.XR.oXoX^.oXE.E..X+X@X@XoXoXD.H.J..XH.#X.X-X@X-X&XOXg.D..X.X*XR.Y.].@X[.@X@XoX2X@X].+XoX'.R.'.].'.oXR.D.J.J.@XR.R.'.'.[.].@X@X@X@X+X].].@X-X&X@X@X8X@X.X].oX@X.XoX@X@X#XR.H.].+X#X#X2X,X[.}.1X2X#X=X2X@X@X[.@XR.[.oXoXOX.X-X7X#XOX*X-X*XoXoX#XoXoXk.k.D.oX#XJ.oX7X8XoXD.oX8X8X2X@X@X].oX@XoXoXoXoXoX@XoX].+XoXg.r.u.~.~.J..XoXE.Y.R.J.D.Y.E.^.^.^.e.u.A.D.A.g.J.g.D.H.R.F.D.F.F.D.A.D.D.H.D.D.Y.oXoXA.w.} o.B.g.' ",
"g.D.u.5.u.oXB.A.y.g.F.;.k.u.D.R.wXoX#X7X@XXX8XqX=X;X&XOXR.&XA.Y.{.].H.).G.].+X.X'.H.J.].H.[.@X[.@X+X].].oX@X].].@X].].[.].].oX+XoXR..XB.H..X].J.A.g.u.A.u.u.S.A.J.J.A.H.R.J.'.H.N.).].B.u.D.u.o.H.J.J.]..X.X].R.].].H.A.J.J.R.].E..X.X^.oX.XY.oX+X]..XoXE.oXR.^.oX#XOXoX.XOXD.oXJ.J.H.H.R..XJ.g..XJ.J.oX].J.R..X].+X].J.R.H.J..X@X.X.X.X#XJ.H.].H.g.H.R.A.A..XXXJ.H.'.@X[.'.R.D.T.3X[.[.T.[.'.].S.F.A.J.@XoX-X].@X=X[.@XN.J.D.J.H..X].oX-XA.H.#X#X@X.X@XoX].].].].H.H.t.J.@X.X@X@X].'.+XH.@X1X+X,X+XfXqXJ.R.J.q.| @.w.&.e.6.6.C.&.} e.F.A..XB.A.J.F.F.F.F.D.D.D.H.R.oX.X.XA..XR.R..XR.D.J.oXoX.XoXE.E.Y.R.Y.Y.E.A.Y.E.Y.D.Y.E.Y.H.R.R..XE.R.oXoXJ.^.^.oXoX^.oX].H.[.].H.@XB.D.OX#X.X.X@XoXoX[.oX.XJ.XXoXF.*X-X@X#XR.;X[.].2X-X3X@XoXR.H.@X8X;X@X-X].D.].].-X].].[.oX].'.#X[.+X+X+X'.R.@X-X@X[.@X2X2X3X3X&X@X[.=X2X2X2X].R.].+X<X2X2X@X'.T.+X#X@X1X=X@XoXR.[.oX@X@XoXoXoX-X-X@X#X7X-X-X#X#X-X7X7Xd.k.D.-X2XA.OX8X@X#XoX-X2X@X#X2XR.T.R..XR.J..X@X@XoXoX'.@X@XJ.A.H u.~..XY.D.Y.D.D.A.D.R.^.^.R.^.J..XR.J.A.u..XF.B.D.F.F.Y.R.F.D.k.A.A.J.D.d.R.oXE.d.w.&.g.[.D.o.",
"5.D.D.&.N.R.A.u.N.R.u.S.A.~.7X8XD.oXg.#XqX#X.X#X[.R.8X2XoX@XD.D.,X].N.]..X.X].oXB.g.oXy.%.@X[.@X{.+X.X]..X@X.XoX.X].].R.H.'.].H.].T.J.N.R.@X].A.e.q.&.q.w.q.u.u.F.J.D.H.J.H.H.H.H.H.'.N.u.A.N.O.J.J.H.J.].].R.H.).J.R.A.]..X].A.R.oX.XE.oXoX^.oX@XoX#XOXR.E.D.R.E.OXOXY.E.*XoXoXR.R.J.J.J..XR.A.J.H.R.@X].J.H.]..X.XH.A.D.J.J.@XH.R.].].@XA.u.A.D.H.D.A.i.A.@X@X@XH.].+XH.'.].y.y.@XoX@X].'.+XH.F.J.J.oXB.I y.@XoX#XoX].D.D..XD.H.H.J.oXA.y.H.'.-X].].2XR.R.R.R.D.D.].H.J.].<X2X@X2X2X#XH.].#X+X].2X#XwX .H.N.e.| | J.R.B.Z.5.o...N r.w.J.J.R.J.D.J.^.^.F.D.F./.J..XR.D.D.A.oX.XR.H.A.J..XoX^.R.R.E.oXoXR.A.Y.E.Y.J.D.Y.E.E.E..XR.].R..XR.R.R.~.J.R.R.^.E.Y.E.R.H.H.R.R.oXD.E.E..X.XD.@X.X-XoXoXA.OXR.J.E.OXOX-X].@X&X;X-XF.@XoXoX.XoX-X;X3X8X7X;XoXR.].].@XoX#XOX-X].'.#X}.+X}..XR.].+X-X@XoX@X@X2XqXqX&X[.[.-X8X2X=X].]..X@X#X<X#X+X.X].].oX#X=X@X+XoXR.].@X@X@XoXoX#X-X-X#X#X#XOXOXoX.X#X7X-XD.g.A.R.@XR.@X#X2X2X2X8XqX2X#X-X@X].+X@X].J.R..XOXE.oX.X@XR.R.].O.r.k.R.R.A.A.f.A.A.F.^.E.D.U.oXH..X.XR.F.J.oXF.g.k.D.A.k.F.R.D.k.A.k.F.A.g.E.oXE.A.;.B.g.T.g.O.",
"5.N.N.y.D.y.u.A.g.O.n k.A.d.cX*XJ.8XR..X-XH.H.8X=X3XD.3XT.D.H..X].H.N.).J.J.R.].H.g..Xy.%.@X[.@X+X@X@X.XoX@X.X.X].R.].R.H.'.].H.H.'.H.H.@X@XoXD.e.e.&.q.e.e.u.A.Y.^.J.D.D.H.'.H.'.'.'.H.g.N.H.H.H.J.'.R.H.H.J..X'.+XR.J.B.oXoX.Xg.H.J.R.oXoX.X].oX].oXoXE.oXD.F..X^.oX.XoX.XR.Y.#X#XoXR.J.].oX.X]..X@X-XJ.H.H.].].].D.g.J.J.J..X].@X@X].@X].].@X].#XH.N.A.A..X+X].H.R.].].oX].D.T.@X8X8XR..X'.].u.].@X'.].[.OXR.oX2X].B.oXR.@XR.H.].R..Xy.B.oX#X2X@X#X.X@XR.R..X*X-XB.J.F.b.H.'.{.,X,XH.H.H.'.H.#X2X#XD.J.u.].-XO.e.2X;Xy.5.<.q.E u ~ ~.J.F.^.~.D.D.A.F.R.F.F.!.g.D.~..X.XJ.].oXE.D.D.^.oXE.E.^.^.E.R.oXE.Y.R.D.Y.Y.Y.E.oXE.D.J.E.oXY.^.F.F.F.J.J.~.R.^.R.Y..X].J.R..XoXY.D.E.D.R.Y.D.Y.OXOX.XA.A..Xg.A.OX&XE.*X=X8X@XR..X;.oX;XoXR.@X3X&X;X8X-X-X@X@X].@X#X-X-X@X*XR.].@X@X@X@X.X].].+X-X-X-X&X2X#X2X#X#X#X#X7X3X-XoX'.]..XoXoX].].+X@X.X]..X#X-X+X@XoX'.R.oX.X.X]..X#X-X#X#X#XoX*X7XoXJ.R.oX.XR.J.OX.X.XoX-X8X7X-X-X7X8X2X@X#XoX].@X3X2X@XoXoXOX.XoX]..XD.J.R.F.A.u.F.J.k.D.Y.D.g.A.R.D.d.D.=X@X.X.XD.k.F.A.k.A.D.J.d.&.f.R.D.B.D.g.A.k.k.oX].E.J.&.g.y.g.f.} ",
"y.N.5.u.g.e.u.R.g...O.d.F.D.OXD.f.Y.*XA.@X8X8X8X3X&X6.] J.A.J.A.'.+XH.N.H.H.H.R.R.H.R.].B.T.[.[.2X@X].].oX@XoX.X.XJ.J.R.T.D.H.T.D.[.H.D.].].#X.XD.y.%.t.A.A.S.A.J..X].R.R.].].H.A.H.H.H.A.N.J.J.H.H.H.H.D.D.H.R.H.H.].oX].].J.D.u.g.A.H.J.J.R.J.R.oXoXOXoXoXJ..XoXOX*XoXE..XoX^..XR.J.A.e.B.R.R.@XoX.X.XR.R.R.R.R.].R.Y.^..XJ.J.'.@X=X].+XoXoXoX'.oXB.N.S.r.N.'.N.H.H.'.2X+XH.-X=X3XH.N.oXH.].2XoXH.T.H.T.R.R.@X#XoXH.D.].*X-XoXH.-X].].D.H.oX2X-X@X#X.X.XOXOX^.OX-XU q.].J.H..X{.,X2XH.+X].@X[.H.2X2X].#X2X2X@X*.D.oXD.%.u.r.e.k ~ E r.-Xu.A.J.A.d.d.D.J.J.F.F..X.XJ.D.R.E.E.E.E.E.oXE.F.F.^.oXoXE.Y.E.D.oXE.D.D.^.^.Y.E.E.F.Y.E.oXJ.^.S.S.F..X.X.XJ.R..XoX.XH.D..XY.J.Y.Y.J.F..X.XD.D.Y.oXD.A.R.R.D.R.oXOXoXOX+X2X8X#XoXD.E.&X#XR.].@X@X8X8XR.@XoX#X].-X-X2X@X@X@XR.].+X#X+X#X].].].oX@X2X2X-X2X#X2X#X#X-X#X7X3X-X].].].].oX].]..X.XJ.H.].oX@X#XoX@XoX+X].oX.X].].].#X#XOX-X#XoXeX9XoXA.J.oX#Xg.g.8X7XR.S.R.7XoX#X-X#X@X@X@X8X'.R.].#X#X@X@X@XoXoX].R.R.J.R.D.u.A.D.J.D.k.g.J.J.k.k.Y.Y.A.U.oXoXB.g.g.k.R.k.~.A.F.R.k.q.g.R.k.A.F.k.u.r.A.oX].[.D.;.&.e.f.B.} ",
"3.i.t.u.r.g.y.B.d.~.^.A.d.-X&.A.8XOXD.B.@X-X8XR.T.;X3XH.R.-XR.#X].'.].A.N.H.#XD.H.R.H.-X].H.'.[.2X.XH.H..X.XoX@X].R.J.J.H.B.B.H.B.H.A.y.H.J..X@X'.B.%.*.A.S.S.S.H.].].].].R.R.B.H.).H.H.'.H.J.H.J.A.V.G.H.H.H.H.@XH.H.H.].H.R.D.H.A.A.R.J.J.oXR.D.oXE.oXE.R.J.^.^.OXOX^.D.oX*X.X.XR.R.J.A.D.oX.X.XR.].oXoX.XR.B.].].].R.^.oX~.D.].[.#X@X-XoX'.H.'.'.D.H.F.p.A.[.D.g.'.#X+X].].=X=X=X' ' 8X.X8XR.T.'.oX].H.'.H.]..XD.oX2XoXeX*X.X+X@XR.R.].'.oX].R.T.oX#XD.oXoXoXOX*XD.OXJ.J.'.H.(.{.@X'.'.'.#X[.2X'.@X@XqX=X@X].&.R.-XOXq.u.e.&.k E  .r.k.F.OXF.A.f.A.R.F.F.F.F.S.J.R.J.J.F.k.z.Y.U.E.Y.k.x.F.F.E.E.E.E.f.E.Y.R.Y.OXoXY.E.E.E.oXoXoXJ.oXJ.J.J..XJ..X~.J.E.E.H.B.J..XY.D.oXE.^.oXR..XD.^.D.-XJ.OXoX].].oXR.@X@X@X@X=X'.8X^.R.*XOXoXoX@X=X;X2X2X=X@X[.@X].#X@X@XoXoXoX].[.].#X[.+X[.'.'.[.@X#X=X=XoX@X2X2X-X#X@X-X6X2X[.[..X].oX]..X.X'.D.H.R.]..XoX[.+X.X#X.X.X.X].].R.oXXXXX#X#X.X-X*XJ.D.R.@X2XT.g.-X9X#XJ.R.-X-X-X2XoX#XqX2X2XoXoX@X@XoX[.oXoX.X.XR..XR.R..XD.A.A.F.F.R.D.O.&.F.D.F.R.^.R.U.Y..XH.D.J.F.R.u.k.k.D.D.A.F.F.A.f.D.F.k.;.w.B.].@X[.f.q.&.e.g.f.&.",
"O.3.q.5.q.k.u.J.k.~.~. .A.D.A.D.@XA.B.A.R.8XR.R.2X2X2X-X@X@XR.H.[.+XH.y.].A.A.g.R.H.D.@X=X@X'.T.+X.X]..XoX.X]..XJ.R.J.D.D.N.B.B.B.N.A.u.'..XH.J.'.T.y.q.e.e.A..X]..X].oXoXE.R.D.+X<X].H.H.H.'.'.].J.J.'.).H.H.H..X].].].H.T.R.].H.A.D.oXR.R.oXJ.D.[.D.R.^.E.R.J.oXR.R.oXR.oXoXR..XR..XoXR.R..XR.@XoX#XoX].D.R.R.oX].R.D.F..X.XD.=X'.].oX@X].'.T.H.H.H.G.A.A.H.'.R.R.[.].#X2X+X2X2X=XH.J.R.#X8Xo.u.J..X+XJ.).J.J.F.A.#XoXoX*XR.oX3X].@XoXR.N.2X2X].B.D.J.#XR.A.J.D.OX*XoXD.].H.'.].|.+X}.T.].#X'.g.].-X.XoX+X#XqXhX*XOXeXO.O.y.g.k E r.~ OX.XF.#XD.g.D.^.R.F.F.F.J.A.k.Y.oXY.z.E.E.Y.E.oXR.Y.F.k.E.R.^.E.y.oXJ.Y.E.E.D.Y.oXY.A.Y.Y.Y.g..XJ.R.A.A.| S..XR.J.D.R.oX.X^.oXR.oXA.^.oXF.Y.oX.XR.R.u.J.R.J.H.H.D.&X@X[.@Xy.B.7XA.*XR.OX].].R.&XqX2X[.;X2X+X@XoXoX].].@X].R.'.[.].-XoX#XoXR.R.+X#X@X@X#X@X[.oXoX@X&X[.[.=X2X+XoX.XR.oX].].H.H.]..X].J.J.@X@X@X.X2X.X].].].].J.].J.].#XOXR.oXoX^.oX-X-X-X@XJ.OX7XOXD.oX7X@X2X2X.X@XqX-X].D.'.#X2X@X+X+X]..X.X~.-XR.D.R.R.J.S.F.A.F.A.&.A.k.D.F.D.Y.E.U.Y.R.oXR.D.k.J.k.d.r.F.k.d.J.A.y.A.g.A.u.O.;.A.].qX[.q.q.g.e.N.&.y.",
"L ..e.q.q.k.r.F.J.O.D.D.q.e.Y.S.].J.#XoXu.J.7XY.J.7X].-XR.u.H.R.[.B.B.g.].A.J.H.A.g.J.#X<X@X].G.@X'.J.+X2Xy.T.'.@XH.N.N.A.S.A.B.f.y.].u.u.H.N.N.N.y.y.H.u.e.u.J.Y.Y.R.R..XoX@X].].oXY.J.Y.Y.R.D.D.J..XoXD.J.D..XV.'.'.'.G.H.-X&XA.g.D.J.J.D.oXg.Y.E.E..XoX.XOXXXR.#XoXoXoX.XF.F.Y.^.^.^.F.R.Y.Y.#X#XoX@XJ.H.D.R.H..X.X].].].{.|.].].'.].@X.X]..XD.5.J.D.y.u.N.@X-X@X@X+X+X@X@X,X+X@XoXR..X@X#X@X].J.].H.A.N.H.B.H.'..XoXH.oX].].H.#X2X+X'.3X].#X~.XXD.~.wX-XR.R.E.OXOXoXk.D.R.J.].].@XH.H.H.2X}.+X3XqX@X@X+X@X(.yX;XyXoXA.H Q A.u C /.L F./.R./.F.k.J.J..X.XoXY..XA.Y..XR.Y.Y.Y.D.H.T.T.Y.E.E.Y.R.E.E..X.X.X~.J.H.oX[.H.oX].H.@XJ.oXA..X.XJ.F.D.w..X~.~.J.D.A.oXD.Y.oXoX-X .g.R.F.oXJ..XJ.^.D.oXR.OXR.R.q.Y.7XE.J.R.7X>XoX#XOXOXE.^.oX@X-X8X2X].1X@X+X#XN.H.#X].'.|.H.+X@X].#X[.oXoXoX.X@X#X#X+X2X,X'.C.}.1X@X@X.X@X].].J.H.].].].H.H..XoX].oX@X#X.X]..X.X.XXX#X].J.J.J.].oXOXoX~.*XOX.X.X#X.X#XA.D.-X-X8XR..X2XOXOXoX:X.XoX-X-X.X].@X.X].J.]..XR.H.T.oXA..XoXR.D.D.J.g.A.D.A.f.A.~.F.R.R.F.Y.F.A.O.g..XD.A..Xg.w.k.k.q.A.OXk.r.f.B.e.e.O.u.#XoXD.q.y.&.y.y.U y.",
"g q.O.q.w.w.k.k.J.A.q.A.g.&.B.#XJ.H.oXJ.B.E.oXoX].-XB.R.R.g.u.-XH.&.R.B.g.J.D.J.D.g.A.H.@X+X,X+X]..XH.H.'.H.-X].].'.H.y.t.F.@X].].H.G.H.A.N.t.N.A.y.t.N.A.A.H.F.E.^.^.R.E..XoX].R.E.D.D.Y.E.oXE.R.D.J.J.D.J.J.H.S.].].'.J.H.[.R.D.H.D.A.J.Y.E.A.Y.D.E..Xg.A..XF.H.#X#XD..X#X;.k.^.^.oX^.R.E.oXoXD.oX-XoXJ.J.].'.D.J.H.H.].[.@X+X].].].}.@X.X]..X].N.H.N.t.u.D.].@X].].]..X@X+X+X'.#X-X@XoX@XoXoXH.A.R.J.t.].@XA.].].J.oXR.].@X8X+X2X'.2X#XH.@XqXJ.J.R..XJ.J.oXoX.X*X*XOXD.D.].R.D.@X@X@X].H.].6X3X].].g.#X8XoX2X3X7X-XoXD.} g.} u w ;.;.x.F.d.r.F.F.~.D.R.^.E.F.D.g.D.^.E.Y.Y.Y.R.R.R.R.Y.E.E.Y.Y.J.D.D.D.F.J.J.@X].R.R.@XoXB.y..X.XD.u.A.oXJ.D.oX.X:X.X^.oXR.oXY.OXOXA..XJ.R.R.F.~.R..XJ.J.J..XE.R.A.^.R.*X-X.XR.R..X.XoXOX.XoXoX*X*X#X@X-X@X].}.2X+X#X].]..X].'.T.'.+X+X.X@X[.oX.X].]..X@X#X+X[.1X6X1X1X@X}.#X.X@X].].J.H.].]..XH.H.].].].[.oX@X.XR.R..X.XXX.X].R.H.H.].@X#XoX.X.X.XR.J.R.#X2XD.R.-X8X-XD.J.#X#XoX^.7X#XoX-X7XoXR.].]..X.X.X].H.H.H.R.5.u.J.oXk.A.J.D.F.D.g.y.u.F.F.F.F.R.~.^.oXB.A.oXR.g.g.g.r.A.A.g.D.!.r.r.y.H.F.w.D.k.#XoXA.u.y.y.u.A.J.J.",
"H J.F.;.O.w.k.F.J.D.} 2 &.*.oXD.].R.#XJ.oX7X.X8X.XoX8XR.J.H.oXJ.H.y.B.H.y.H.J.y.D.g.u.H.@X@X@X#X+X@XH.].].'.[.H.N.N.C.N.r.J.2X=X2X+Xy.u.N.g.u.B.b.y.t.y.H.H.F.A.E.oXoXE.E.].].R.R.E.D.D.Y.E.oXE.J.J.R.R.D.D.R.A.S.r.R.T.B.'.-XY.A..XR.R.OX*XE.Y.oX.XR..X.XoX.XD.B.J.oXD.J..Xq.g.J.J.^.F.D.R.oXH.R.R.OX]..XoX@XH.H.R.H.H.J.'.].+X}.}.].+X@X.X].].].R.H.A.y.N..X.X#X].]..X+X@X{.@X2X8X-X].oXoX.XR.J.J.J.+XoX#XA.A.].oX-X.XY.-X].@X@X.X+X=X-XH.D.].A.F.D.A.g.D.oXoXY.OX#XoXR.D.R.R.[.=X'.H.M.N.}.tXqX2X@Xu.7XR.-X].=XtX;X-Xg. .D.D C u E /.R.!.D.F.R.J.R.A.R..XR.D.Y.g.u.g.B.A.J.oXR.R.R.R.E.E.oX^..XY.D.F.D.F.J.~.[.oXoXB.g.oXOXA.R.R.].R..XR.F.R..XJ.r.~.D.^.oXD.A.E.oXD.Y..XJ.R.~.F.F.~.~.~.^.R.A.Y.A.g.R.-XOXg.#X@XH.D..X.XE.oXoXOXoX].oX@XoXR.].#X+X#X].].'.].].H.[.+X].+X+X+XoX.X].].+X#X#X+X+X=X1X@X@X@XoXoXoX@X].].J.H.]..X+X].R.].].[.oX]..XR.J.J.]..X.X).}.'.H.H.J..X@XoX.X~.oXoXR.D.7X-XH.J.oX2XB.A.#X#XoX#X#XeX:X-X#XoX]..X@X@X#XoXoX~.'.H.]..X%.g.].].R.F.J.J.D.D.d.u.w.u.D.D.F.F.F.^.R.].D.J.R.A.y.u.R.J.g.A.r.;.....N.D.w...O.u.@X#XJ.y.e.A.g.D.D.U ",
"U A.D.;.w.k.k.k.D.J.J.} } q.oX#X@X@X#X].@X@Xg.oX2X.XoXD.#Xg.g.D.].B.B.N.4.].N.t.D.D.u..XoX#X].@X+X].N.@X@XJ.R.R.].H.N.N.r.S.-X2X[.H.t.5.y.y.B.g.t.u.u.u.F.A.A.g.Y.Y.E.E.E..X].R.R.].Y.J.Y.Y..XE.J.J..X.XR.D.^.r.` #.J.R.=X2X.XD.A.oX].].oX*XR.Y.F.oXoXoX@X@X@X].B.H.g.R.R.D.D.D.J.k.S.R.R.].oXH.OX^.#XoXR.R.oX'.H.J.H.J.'.H.'.@X].].]..X+X.X].].J.R.].].H.].@X@X#X.X@XoX.X].}.2X+X-X@X].@XoXJ.A.H.D.].H.H.D.].A.D.#X^.D.J..X@X+X@X-X@X.X#X@XH.O.&.S.XXoXJ.A.R..XE.*X-XoX@XH.R..X'.R.@XH.y.g.=X[.3X2XoX&.E.e.O.S.3XuX7XuXg.y.N.} L E K F..X^.D.^.~.k.D.R.^.R.J.Y.E.Y.g.A.D.J.Y.E.J.J.J.Y.Y.E.oXoXoXE.R.R.E.~.R.~.R.R.-X@XD.A.Y.oXJ..XJ.H.J.u.J.F.A.F.w.OXJ.J.oXA.A.D.D.Y.Y.Y.D.R.R.F.R.J..X.XoXR.R.D.H.A.E.oXoXR.2X2XR.J.E.E.OXOXoXoX].E.oX=X@X].=X#X=X2X'.+X2X}.'.].+X+X@X+X].+XoX].].].@X-X#XoX#X@X[.[.@X@XOXoXoX@X].].J.F.].].oX].].]..X@X@X.X].R.J.J.R..X].].{.+X[.'.).]..X@XoXoXoX-XoXJ.-XoXr.7XOX#X.X@X#X7XoX-X#X-X#X7X#XR.T.]..X].@X.XXX~.J.J.H.u.O.D.].D.R.R.J.R.D.F.g.A.g.g.J.J.J.A.r.k.A..XJ.J.R.J.g.g.k.A.d.^.D.r.w.;.J.y.u.;.;.u.-X].F.&.u.D.d.Y.J.} ",
"L O.O.u.u...u.F.J.g.f.R.6.y.A..X@X#X@X.XoX.XD..X]..XJ.oXB.Q K B.B.'.D.N.%.H.B.A.D.J.A..X.X#X].-X+X].H.R.].D.].oX(.H.Z.y.O.q.A.N.'.5.e.y.t.y.e.y.u.A.D.A.J.u.A.J.J.J.J.R.E..XR.J.D.E.E.R.Y.Y.oXE.R.J.R..XoX.XoXq.` J F.R.H.+X].e..X#X.XR.D.].E.[.E.R.oXoXJ..X2X].N.+Xe.H.oXD.J.R.XXr.w.oX.X.X].@X#XoXOX@XD.H.R.R.H.N.u.D.].].]..XH.'.'.].+X.X].oX.X'.+X.X]..X'.].XX].oXoX[.].}.2XT.#X@X]..X.X].oX].H.D.B..XA.oXD.R.J.oXF.J.oXu..X@X#XqXJ.A.@XH.D.#XD.H..XD.E.-XY..X*X#X.X@XR.R.].H.H.@X@XR.R.2X].H.D.6.} o.oXD.f.>XeX-X.Xg.g.5.I N ~ N q.E.R.~.#XJ.u.D.oXJ.D.F.D.oXE.y.;.q.g.J.R.R.J.J.Y.Y.Y.E.^.oXR.Y.^..X^.R.F.R.E.oXoXE.F.D.^.-XH.u.R..Xq.A.R.A.D.#XoXOXg.D.D.e.D.D.Y.oXE.E.f.k.^.OXF..XR..XoX].D..XR..X.X-X#X].oX]..X].oX-XoXoXOXOXoX].oX@X@X-X=X2X2X[.-X].f.N.oX].oX2X[.'.[..X].R.].+X#X#XoX+X@X=X#X@X@XOXOX@X@X].].].J.].].].]..X]..X@X@X.X].].].].R.J.'.].|.+X+X+X].].oX@X#X7X.XoXoX.XoX.XS.wXOX#X@X-X#X#XOX.XR..XoX#XXXOX#X'.'.H.].].~.F.N.oX].R.oX-XR.D.A.D.R.oX^..XF.F.D.D.R.J.J.D.f.A.u.A.g.H.A.r.w.u.d.r.;.F.A.k.!.F.#XA.u.d.;.A.@X].k.;.e.u.d.R.Y. .",
"H w.u...O.w.k.k.A.g.g.B.D.&.-X#X)..XJ.J..X.X#X-XF.J.D.].].R.B.B.y.#Xf.N.y.g.H.J.A.D.J.R.OXoX@X#X@X].'.H.R.A..XoXH.(.C.H.y...t.f.%.5.R.A.H } o.D.A.A.N.g.N.y.D..X.XR.J.Y.E.E.R.J.H..X.X.XR.Y..XE.R.R..XoXoXoXoXg.R ..F.'.'.oXu.=.#X@X#X].N.R.@X-XoXoX.XoX.X@X#XA.g.R.H.J.D.H.R..XR.u.e.oXR.oXD.D..X.X.X.XD.R.R.B.B.N.y.B.H.D.H.H.).].].]..X].R.].2X].].'.].+XH.'.].R.].[.@X@X[.oX=X3X].A.J.J.J.@X'.H.5.u..Xu.y.S.J.@X].oXoXR.e.H.2XyX#X#X.X.XwX8X.XR.R.oXR.Y.E.D.oX-XoXR..XJ.J.].T.B.4.N.D..X].oX=XH.T.2XB.=.f.f.D.-XoXq.g.u.t.n n } q.J.].g.D.F.R.u.B.R.D.R.D.r.D.E.g.A.f.F.R.F.].R.R.R.R.Y.E.^..XE.Y.R..XoX^.J.E.OXY.y.k.^.R.^.].R.@XoXoXoX.XR..XoX@XY.oXf.D.Y.y.J.R..XOXE.OXg.k..XOXF..X.XXX#XD.J.oXR.R..X#XR.].H.H.J.H.oX#XR.oXoX.X].].oX@XoX@X2X#X@X#XoXo.D e..XH.].2X].'.'.+X.XR.R.].@X#X#X@X#X2X2X@X@X#XOXoX+X].].].J.].J..X.XoX.X.X@X@X.X].].].].J.H.H.H.H.H.'.]..XoX.X.X@X8XR..X#XoXR.^.OX~..X:XJ..X7XoX.X.X]..XoX-X.XoX.XN.].J.].+X].J.J.D.H.J.B.D..XR.A.J.oXoXoXOX^.E.A.J.J.g.g.D.k.A.g.A.D.J.A.u.S.F.w.e.w.F.A.k.A.u.F.F.r.J.d.R.A.H.k.g.O.&.r.D.D.n ",
"Q  .e...A.F.O.k.A.g.g.D.Y.f.8XoX)..XA.N.H.J.R.J..XXXD.e.oXD.o.B.H.R.H.g.A.R.y.B.N.A.E.R.oX.X@XoX].H.H.H.oXJ.oXoX'.H.y.N.e.' 5.B.4.4.t.O.U u. .q.u.u.r.g.u.u.D.R.oXR.Y.Y.E.E.R.Y.Y.oX.X.XR.Y.E.Y.J.R.oXOX^.oXR.F.u.k.]..XN.+X].D.+X].@X'.H.R.oX@XD.OX#XoXoX].H.g.N.g.R.'.e.D..XR.R.J.A..XY.oXD.u.A.R.*X@XH.D.H.R.D.H.B.B.B.u.B.H..X@X+X.X].].J.J.#X+X'.'.].].'.'..X].oX[.@X=X+XoX2X#XH.N.J.A.t.y.V.H.H.N.5.B.J..XH.).H.H.D.@Xe.#XqXoXD.A.J..XoXD..X@XA.k.oXoXY.Y.oX7X#XoX.X].].R.@X'.e.D.].-XoX#X3X#X2X+XqXoX-.*.g.*XoXq.A.A.u.' n E &.y.e.g.R.#X].g.y.H.R..Xk.d.D.Y.g.D.q.u.J.~.].R.R.^.E.Y.E.^.^.oX^.^..XXX.X!..XR.J.F.Y.F.k.^.].J..X@XE..XoX#X-X2XH.E.E.Y.OXoX.X.XR.R.R.Y.*X-XF.!..X^.OXoX.X.XR.J.J.oX#XH.'.].].D.B.D.H.'.].[.#XoX]..X@X-X#XoX-X3X-X#X=X].%.' N.].]..X@X[.'.T.+X.X].].]..X@X-X-X@X@X+X].+X#XoXoX+X].].J.J.].]..X.XoX.X]..X@X+XR.].].].'.H.D.B.B.D.H.R.]..X.XR.oX#X.X.X#X.XD.~.#XXXOX#X7XoXoX#XJ.OX#X@X@X-X~.~.e.} J.J.J.+X).].R.y.D.R.g.g.H.g.Y.E.OXY.E.*XOXE.J..XR.A.u.e.e.e.e.N.D.S.k.u.F.A.u.u.w.k.u.r.A.D.A.F.F.d.D.R.].+Xu.k.;.O.;.D.^. .",
"H R.^.~ r.F.u.k.J.D.Y.f.*.T.7Xe.+X2X).A.]..XR.R.J.J.R.J..X[.o.D.].].H.B.R.H.u.q.H.J..X^.R.oX@X.X@X'.H.D.R.Y.E.F.H.'.f.y.u.&.6.y.y.7.y.u.A.D. .y.y.u.u.D.g.A.D.J.Y.Y.Y.R.E.E.R.Y.Y.E.R.E.E.R.E.J.J.J.].oXE.oXz.k.u.J.T.H.b.+X[.[.@X+X@X'.R.T.R.oX.X.XoXoX].oX.Xt.T.B.g.B.g.H.J.H.#XH.g.Y.J.D.k.F.J.J.oX@XoXD.H.].'.R.D.H.H.H.'..X+X@X@X+X+X].R.R.'.1X].+X].H.'.'.oX+X@X[.].@XoX@X2X2XJ.H.].A.y.N.H.H.H.y.A.J.q.A.V.A.y.J.H.J.o.@X-X@X2Xu.e.u.A.e.J.oX].R.oXOX*XoXR.2X#X#X].].H.D.oX@XoXoXR..X-XoX#X8X#X3X'.tX[.s.>X7X^.A.N.N.' ' ] q.y.N.B..XA.A.D.g.y.J.].J.d.oXD.Y.A.R.w.e.F.~..XR.R..XE.Y.Y.^.R..XoX^.^.oX^.J.g.g.F.^..X~.R.OX].].A.R.J.R.oXJ.H.B.].D.Y.Y.Y.E.].J.J.D.D.oX^.R.!.R.XXOX.XR.]..XD.oXD.J..XH.).|.D.B.D.H.[.].H.=XoXoXoX.X.X.XoX.X@X].#X2X[.@X[.@X.X.X@X.X].[.[.'.].].].].].].oX@X@XoX@X+X].].@X.X].+X].].J.D.R..X].R.].].J.]..X+X]..X+X+X+XoXY.h.B.H.].].R.~..X^.@X]..XR.oXD.k.R.wX:X7X.XOXJ.R.oX+XXX.X@XoXoXF.OXJ.} J.H.A..XV.G.J.J.A.B.].H.y.y.J.E.oXA.R.*X*XY.A.J.J..XJ.t.u.A.u.g.A.D.S.q.e.w.r.u.u.A.u.e.g.H.u.S./..XF.@X#X'.A.;.e.w.r.R.y.n ",
"D q.q.q.q.g.A.g.T.D.R.e.J..XwXg.N.'.oXD.g.oXoXg..XB.].y.I 2X4.H.B.A.B.g.H.D.D.g.J..X^.Y.R.R.Y.R.J.].g.e.H.#XH.T.R.R.D.R.N.N.H.y.e.O...u.R.u.q.H.e.} R..X].H.A.H.J.@XH.@X.XoXJ.E.].R.H.].A.].#X@X].].R.J.Y.OXD.~.J.t.f.'.N.u.J.A.#X#X].H.A.H.].].oXoX-XoXO.oXJ.XX[.H.D.E.D.Y.F.oXR.D.g.oXoXoX.X^.F.A.].oXT.;Xo.o.wX].oX.X].oXY.R.J.*X~.#XR.R.@X].+X].J.]..XA.Y..X#XoX#XOXoXoXR..X@X@XR..X.XXXH.G.D.A.g.J.F.A.J.S.T.H.B.J.B.H.7XJ.B.-XB.' H.@X8X.X&.d.E.A.].2X-X'.-X.XR.#XoX].oX@X'.'.[.'.'.@X@X<X[.2X2X#X1X3X1XN.-X>XY.y.5.b.5.D e.s.2 e.OXF.Y.J.J.A.&.k.^.D.D.g.J.J.R.A.f.A.A.Y.Y.D.D.D.D.F.R.~.Y.D.oXR.Y.Y.U.W.T.|.B.R.oXR.E.D.;.R..XD.H.J.J..XR.F.J..XD.D.Y.oXJ.J.H.oX].oXoX#XoXE.oXoXR.F.Y.R.).H.H.oX@XoXY..XH.H.].#X+X+X@X@XE.E.E.@X-X@XoX[.'.].[.[.@X-X@X[.+XR.H.'.+X+X+X+X@X].R.T.R.].{.}.].].oX@X@X+XoX[.].@X@XR.H.R.R.R.'.'.].J.R.J..X.X]..X[.[.@X[.'.(.H.H.H.H.J.J.J.XX.XJ.~..X-XD.#X-XoX^..XoXR.@XR.R..X.X.XoX@X#X#XoXoXoXJ.J..X].H.].T.R.J.].H.].'.N.oX.X.XR.E.^.D.D.oX.XR..XD.O.;.A.Y.R.E.A.J.u.B.y.i.p.i.u.u.r.w.k.g.g.OXg.A.-X.X.XA.5.e.%. .y.N.P ",
"H %.g.g.f.Y.f.oX[.B.D.A.F.J.D.].%.P y.R.@XoXE.oX2XH.].B.t.H.G.A..XR.H.g.oX].R.e.D.E.R.J.R.R.R..XR.@Xy.A.@X@X@X@Xg.g.R.H.D.B.H.N.q.e.B.y.B.e.B.J.D.u.R.H.J.A.A.A.].y.]..XJ.oXoXE.J..XR.].J.].@XoXH..XR.D.oXF.#XJ.A.N.N.H.H.B.J..X].R.B.D..XoX.XJ.J.J.@XJ.q.R.J.R.@XR.[.D.f.D.D.oX[.H.g.E.E.R.^..X.XD.J.@X].@Xg. .R.@XoX#Xg.oX[.B.OXF.~..X#X.XJ.].'.].].oX.XA.oX*X2XOX@XoXoXoXR..Xg.oX7XoXJ.J.].J.y.k.D.#Xe.D e.A.D.D.N.A.B.J.oXOX&Xg.oXe.2XqX@XH.g.A.oXoX].].[.3X@XoX#XR.R.H.oX=X|.[.@XR.H.J.].#X2X3X2X[.@X#X3X}.Y.R.s...} y.u.D n oXe.:.k..XR.R.A.J.D.F.R.D.J.D..XJ.J.A.d.f.d.F.J.Y.Y.Y.Y.R.^.^.D.A.J.J.A.D.R.E.'.|.B.D.D.R.E.g.J.].R.D.H.A.H.oX~.J.R..XF.R.E.oXR.R.R.J..X].@XoXE.R.E.E.D.g.A.D..XH.'.2XoXH.A.A.'.H.H.'.#X2X#X].R.oXOXoX@X-X@XR.[.[.'.].=X-XoX].oX].'.'..X.X+X+X].).H.H.T.].}.,XoX@X@X@X@X+XoXoX]..X.X].J.J.J.J.'.'.'.].].J.oX].].+X+XoX@X].'.|.H.H.N.A.H.J.R.OXF.XXOXF.R.H.7X#X#XOXoXOX.XoXR.].oXR..X.X.X.XoXoX.XJ.H..XR.u.N.].R.].J.A.t.H.].].Y.E.oXR.D.A.z.^.OXOX.X.XD.&.w.^.g.E.oXR.A.e.u.g.p.i.e.A.J.u.u.~.k.F.J.oX-XXXXXR.A.&.e.Q %.A.H.W ",
"' A.g.e.u.E.E.*XD.B.D.F.q.F.wX-XN.P 4.H.].g.Y.oXJ.A.D.y.H.N.J.H.+X.X].H.].D.k.q.g.J.R.R.E.E.R.R.@X.Xu.g.#Xt.u.y.e.&.D.A.u.N.H.R.e.q.A.B.A.u.A.u.5.o.&.B.H.5.u.D.@XH..X@XoXJ.oXJ.D.].R.R.R.H.H.H.J.XXH.E.D.R.F.F..X.XJ.T.H.N.H.].D.H.B.D.].H.H.]..XD..X].R.D.R.oX[.T.@XA.f.R.D.oXR.T.B.Y.F.R..XoXoX.XD.D.].R.R.R.g.J..XR.H.T.D.D.~.oXJ.J.A.D.O.]..X.X].J.A.u.#X8X7X-X-X#X#X#XoXOX.XoXoXD.R.].].H.A.A.g.y.K H A.J.B.g.D.D.J.R.g.R.[.&XoXoXH.H.J.7X^.^.oX.XoX-X@X@XR.oX#XD.R.2X2X@X'.[.'.[.}..X@X@X}.#X3X+X+X'.1X2Xg.^ e. .Q V.t.z 2 d.s.:.d.D.^.Y.J.u.g.F.J.A.d.J.D.J..XR.D.k.r.u.A.F.J.Y.Y.R.R.^.E.E.D.F.d.A.D.D.R.B.B.D.H.Y.E.T.R.D.D.J.J.A.A.J..X].R.E.J.E.E.Y.oXoX.XH.].].oXoXE.R.Y.D.A.k.D.E..XR.J.R.oX].J.R.].'.'.+X2X2X#X@XY.oX*X].].-X[.H.+X=X+X[.=X@XE.].R.].].R.]..X+X+X+X.X].R.'.[.@X,X#X#X#X#X#X@XoXoX].].]..X].J.J.R.+X].'..XH.A.].H.'.].+X[.[.'.'.].H.H.D.H.H.J.R.oX~.OXXXJ.~.J..XD..X@X.XoXoXoXR.^.oXJ..X]..XR.oX.X.XH.J.R.B.u.D.].H.H.N.r.y.H.|.H..XE.E.Y.F.D.D.oXD.E.R..XF.&.&.D.g.E.R.oXJ.D.u.g.S.u.u.k..XF.F..XR.F.F.~.].#X#XoXg.U e.D.O.g.e.Q ",
"5.g.R. .&.^..XeXE.[.A.J.-XD.#X-X].N.e.N.D.B..X} .XB..XD.B.H.H.g.@X.XN.R.D.D.e.e.k.J..X.X^.^.R.R.@XH.N.N..XO.o.q.J.A.g.D.u.H.B.N.y.e.e.g.g.D.r...J.u. .A.A.&.D.].J.].H.oX#XR.].Y.J.].R..X].H.D.B.A.J.D.J.E.^.D.J.].H.A.D.u.u.H.H.R.[.T.H.@X].]..XH.R..XA.R.D..XJ.W.T.[.T.D.oXT.T.T.'.U.Y.F.oX#XoXR.D.-X.X2X@XD.R..Xq..X.XR.R.D.R.-XoXoXoX.XR.R.].].].oX.XA.y.oX#X*X-X7X7X-X*X&X;XoXoXoX].oXR.H.H.f.u.J.g.q.H.J.N.B.g.A.y.A.J.g.H.D.D.oXoXH.'.2X-XD.oXoXE.R.2X-X[.]..X2XR.A.oX@X@X8X=XT.'.]..X2X2XT.+X=X=X1X'.@X#XY.d.z.;.%.y.I t.B n >.d.F.J.D.^.F.A.D.D.H.R.D.A.A.~..XH.k.A.A.g.u.k.A.D.D.D.R.^.R.E.A.D.k.A.Y.H.T.y.N.H.J.R.R.[.J.D.J.R.R.R.J.D.R.R.R.R.Y.R.Y.Y.oXoXR.R.J.oXR..X].R.R.Y.R.R.E.oXJ.R.].R.#XR.J.~.].#X2X2X2X@X+X#XoXE.#XoXoX-X].oX'.1X2X@X@XR.D.E.R.'.].'.'.]..X.X+X.X'.R.'.'.{.}.@X#X1X2X1X@XoX].].].'.].].J.J.R.].'.]..XD.H.H..X(.].oX[.[.].'.].T.R.R.].R.J.R..XJ..X~..XOXoXoXJ..X#X.XoX#XoXoXoXR.J..XR.].R.oXR..XR.H.H.H.R.].].].H.y.&.y.R.].H.oXE.R.Y.E.E.Y.^.].@XoXOXoXk.r.D.R.R.g.J.J.R.H.J.S.u.r.w.k.F.F.F.~.r.F.F.u..XR.A.A.} *.g.O.J.A.K ",
"} f.D.e.q.%.oX-X-XD.D.e.F.q.D.OX'.#XH.H.N.H.2Xe.R.R.oXD.J.J.y.A.@X+XB.J.g.D.k.D.E..X.XR.R.^.oXOXoXH.u.J.J.g.e.D.A.u.O.A.D.'.D.g.y.D.y.%.&.A.e.} J.A.&.R.u.g.J.e.].D.]..XoX#X].[.J.R.].R.H.J.R.y.X.oXe.oXY.oXF.D.J.D.N.A.B.D.'.R.B.R.H.D.@X].].R.].J.J.R.#XD.R.oX[.R.R.R.R.T.Y.A.W.[.R..X.X#X-XoXk.D.E.7XE.&.7XJ.oXJ.]..XoX-XB.oXoX-XoX]..X].J.].].R.].oXJ.u..X#X#X*X*X-X*XOXOX&X@X-XoXY.A.H.H.|.A.D.oXH.A.J.B.J.B.B.H.e.N.D.D.e.o.R.oXR.R.R.J.7XA.Y.Y.oXE.oXoXoXA.w.oX#XoX.X2XqX;X;XoX#X@X.X#X#XoX=X].@X#X2X#X#XE.e.$.^.H.A.5.o.N N ~ d.F.d..XA.t.N.F.F.A.A.D.r.g.J.~.D.g.A.D.D.g.k.k.A.A.D.E.oXY.Y.A.g.D.A.].R.H.N.J.D.A.R.R.T.H.D.D.H.D.R..XR.R.R.^.oXoXY.R.oXJ.H.H.]..X@XJ.R.R.R.R..X#XOXR.Y.].D.R.R.R..X*XJ.@X@X@X@X-X@X].oX#XR.oXoXoXoXR.@XH.#X2X@X[.H.B.R.oX].].].].].].].'.'.'.R.'.].}.@X#X<X2X1X2X=X@X.X].].'.H.H.H.R.R.'.'.].R.D.D.t.H.'.].+X@X@X[.'.'.H.T.].R.D.D.R.XXF.^.~.F.D.R..XJ.J.OX.X.X#X.XoXoXR.R..XR.R.R.oXR.R.J.D.R.-XoXR.].'.'.D.y.g.J.].'.J..XoX^.R.E.Y.E.R..XJ.oX*X^.k.r.A.H.D.R..XR.H.D.S.u.e.e.r.k.p.F.D.d.u.A.g.J.J.J.u.w.w.;.R.R.D. .",
"Q *.J.;.O.&.S.R.D.Y.A.f.oX#X-Xy.R.'.'.T.N.N.].#XA.u.J.R.H.u.D.D.'.@X.XD.D.D.Y.Y..X.X.XE.Y..XOXoX+X'.D.J.H.q.g.y.J.R.g.H.J.N.B.D.H.T.N.%.t.r.t...A.y.*.J.&.f.OXE.oXoXoXH.#XoX].[.H.R.].D.g.H.].t.g &.u.y.R.Y.E.A.A.H.u.u.D.B.B.H.D.'.T.B.[.].oX.XB.R.R.H.J.R.R.D.[.R.T.Y.T.g.R.H.oXR.D.oXoX@X-X-X:XoX>XoXu.&.J.Y.OX^..X#X.XH.[.R.R.oX-XR.5.#XOXE.oXR.R.oXJ.u..X-X2X-XoXOX#XOX#XoX.X.XY.oXR.H.y.M.A.J.H.H.H.N.g.B.N.A.R.D.H.D.E.*..X@XJ.#X].2X].@XR.R.J.E.Y.D.J.Y.A.r.oXR.-XoX2X@X].@X-X8X8X#X'.A.].-X'.oX].#X#X2Xg.e.*.R.y.t.q.f.3 k ^ ;.A..XS.e.u.N.S.J.A.u.D.S.g.D.F.R.D.g.A.A.D.D.A.A.A.D.R.E.oXoXY.g.D.B.H.T..XJ..XJ.A.H.H.R.H.N.A.D.D.H.R.J.R.E.oX.XoXD.H.].A.e.H.R.@X.XR.J..X.XJ.R.#X@XR.J.J.R.J.F.oXJ.R.yX#X@XoXoX@X@X@X#XoXE.oX].].oXR..XH.+X+XoX@X'.T.].oX].'.].].'.'.].'.].].].].+X#X2X<X2X2X#X=X-X#X@X}.+X].H.A.H.R.R.'.'.oXR.T.H.4.y.(.].@X@X&X@X'.'.Y.D.J.D.y.g.J..X!.F.A.A.A.A.N.A.S.J.R.R.oXE.oXOXoXoX.XR.R.].].].J.R.A.D.oX].J..XH.'.'.H.R.].].].J.oX*XoXE.R.J.J.R.R.D.R.OX*XoXk.u.H.]..X@XJ.D.u.D.g.u.r.w.k.r.k.r.k.k.;.D.#XA.E.u.u.r.A.OXF.y. .",
"Q g.g.O.&.q.k.A.D.A.D.*XA.g.uXA.D.g.g.N.].A.u.H.F.E.^.R.^.g.A.R.oX^.D.F..X.X^.D.^.^.oXoXR..XoXR..XJ.].D.y.y.D.e.g.D.u.u.g.e.y..X].H.D.A.N.u.r.q.q.O.r.~.r.q.D.E.F.-XJ.D.#X].[.'.R.R.R.D.D.B.R.A.u.g..XE.Y.oXA.g.r.A.N.A.J.D.H.].[.T.B.f.R.R..XF.'.H.R..X.XR.Y.oXE.T.T.T.T.D.[.].E.Y.D.oXoX#X-X2X^.oX.X#X7X*XR.J.oXOX.XR.#Xg.'.oXJ..XJ.%.A.-X-XE.R.oXoXoXR.y.J..X7X-XoX@X@XoX#XOXOX.XY.E.H.f.y.H.D.H.y.g.B.N.B.y.N.N.N.A.A.Y.OXE.oXA.R.D.2X7Xg..XE.#XOXR.A.u.F.Y.r.J.R.u.H.].2X8X8X;X-X@X#X@XH.N.R.&X'.[.'.].].2XoXq.Y.OXf.e.&. .u N ~ u.~.oXS.e.e.e.g.r.w.A.F.k.F.D.A.D.D.g.A.A.J.D.A.A.D.D.F.A.F.E.R.A.D.H.H.R..X]..X.XJ.D.H.].H.A.D.R.R.R.R.J.Y.^.oXY.Y.B.D.T.D.t.H.J.J.R.].R.oX@X].R.@XoXR.].oXR.^.F.F.cXyXQ #X@X@X@XoX+X=X2XoXoXoX.X.XoXoX.X[.[.].].@X[.'.[.R.'.].'.].].'.].'.].].].'.].}.+X<X2X2X,X=X-X#X.X].+X[.H.D.J.].R.R.R.].].'.H.T.H.'.].@X@X@XoX'.[.Y.D.D.A.y.g.J.R.F.r.d.J..XH.A.D.F.F..X.XOXOX*X*X@X#XR.oX.X.XH..XR.T.D.D.R.'.R.].].'.H.N.J.].@X#XoXoXOX.X.X.XD.D..XR.B.e.u.E.-XE.H.'.H.A.H.D.J.A.g.g.S.r.w.p.w.;.;.u.D.O.F.-Xq.O.F.A.r.D.F.#Xd.} ",
"} r.g.&.q.u.O..XoXD.y.A.>XoXoXD.B.[.D.g..XN.J.].oXOX*XoXD.R.D.].oXY.d.~..XXXoX2XOXoXoXoX^.oXOX.X#X'.H.A.K R.D.D.H.H.e.A.H.].t.].'.'.'.oXy.A.A.r.g.q.g.k.u.u.D.D..X.X.XoXH.2X].H.R.A.g.D.J.e.B.oXXXe.e.oXJ.A.J.g.y.y.A.J.N.g.T.T.T.T.R.T.[.D..XE.T.D.H.J.R.E.oX*XE.D.E.Y.oXoX[.R.R.@X].oX].-X2XoX.X-XE.oXR.D.R.~.oXOX.XR.J.H.].@X@X#Xu.R.].J.Y.R.oX-X@XR.D.e.J.#X.XOXoXOX.XR.oXoXoXoXE.D.'.'.(.H.J.N.H.H.B.B.N.f.H.N.u.H.g.A.A.oX#X#XJ.-XoX].].oXOXoXR.F.R.D.^.F.F.:XD.R.#X2XJ.-X-X=X-XoXoX-X@X@X&X&XT.R.#X@X+X2X].A.A.Y.Y.&.$.:./ y N r.k..XA.S.y. .u.S.A.F.A.F.A.F.D.J.Y.D.A.e.D.A.A.D.F.F.A.u.g.Y.R.D.A.H.g.H.H..X@XR.F.H.H.H.A.A.A.D.J.R.R.F.D.E.^.A.J.D.H.R.J.u.H.H.e.H.J.R.].#X@XoX#XoXJ.R.R..X~.~..X9XR.~ @X.X@X@X.X.X+XoXR.R.R..X.XR.].].@X[.'.'.'.'.].[.R.oXoX'.).].].J.'.].].{.'.'.].[.@X,X2X,X2X<X@X].'.].].H.H.J.].].E.].].R.y.5.[.H.}.1X2X-X@XE.T.'.D.A.Y.R.D.J..X].d.r.D.D.J.A.A.A.J.F.#X.XoXoXOX&XoXoXH.oXoXR.g.R.oXB.B.@X@XR.T.].'.H.B.N.'.].@X#XoXoX.XE.].R.D.D.A.H.D.u.e.D.OXA.N.'.H.A.A.D.J.D.D.e.F.F.F.p.w.a.u.w.;.r.R.oXE. .d.r.k.~.*X#Xw.u.",
"E f.z.q.e.F.A.A.;X^.g.oX#XoXD..Xu.e.oXD.u.R.J.R.7XoXH.R.R.'.B.H..X~.J.#X#XOXY.y.&XoXE.[.oXoX@X@X#XH.'.J.N.].F.J.g.g.H.[.H.'.f.D.F.A.e.D.e.g.A.&.r.f.D.k.A.B.H.R.J..XoX#X.XOX^.D.S.k.D.A.J.g.oXoX].H.5.D.H.J.J.q.y.g.g.B.A.D.D.T.J.R.F.R.J.D.].T.].R.].].R..XJ.A.R.R.R.R.'.[.[.'.R.T.E.7XOX#X.X-X.XE..XE.J.OX.XOX$X@X[.[.R.#X@X].oX'.oX-XE.E.OXoX@XoX@XD.D.u.A.@X#X7X-XoXF.u.J..X.X]..X.XR.R.R.R.F.J.J.].J.H.u.H.J.].).A.J.].J.J.@XB.].R.R.R..XXXJ.#X.X^.oXoXoXE.OX.XE.oX#X#X+X+X1X'.@X=X-XoXJ.2X>XY.R.oX#X3X=XH.k.u.R.T.y.8.] 8.L N z &.R.D.k.!.y.e.A.J.A.A.F.A.g.A.J.R.A.F.F.k.D.A.D.D.D.Y.A.g.A..X.Xg.k.g.A.D.H.@X].J.J.].S.G.A.F.k.u.D.oXR.D.F.J.J.R.R.R..XJ.F.J.@XJ.u.D..X[.@X'.#X2X.XoX#X].E.E.J.D.R.].].2X@X+X+X.X].@X@XR.D.Y.T.[.H.'.B.'.@X].'.].].'.'.R.oXR.J.J.H.H.T.D.R.R.R.].'.H.R.oX2X2X=X2X2X#X@XoX@X.XR.J.R.R.].+X]..X.XH.5.y.N.[.'.3X#X@X#X.X.X.X[.'.'.H.D.g.T.R.e.A.H.e.e.y.D.B.H.N.H.2X@X+X+X<XE..XoXoXXX.X.X.X.XJ.J.@X&X@XH.R.J..XH.T.[.].+X+XoXoXE.D.R.R.B.D.T.R.D.D.Y.f.H.R.H.].J.J.r.k.k.D.u.d.u.u.F.E.A.A.A. .Q q.H.H.A.D.g.q.y.Y.*X&XD.%.",
"*.*.A.q.&.J.#Xe.D.-XD.Y.oX.X-XoXoXD.H.8Xy.B.B.D.^.oXH.J.R.].].R.OX.XD.E.J.J.J.J.@XE.R.E.[..X.X.X[.'.[.+XJ.D.J.H.J.H.T.R.B.R.B.'.D.e.A.A.A.u.f.*.q.u.D.D.J.R.J.A..XJ..X#XOXR.F.D.F.A.D.D.D.A.D.Y.@XB.N.D.B.B.H.u.k.D.D.D.D.D.D.T.D.D.D.Y.J.H.R.R.].J.'.'.R.R.J.F.@X[.R.T.T.'.[.[.[.R.@XOXj OX-XoXE.oXoXoXJ..X.X#XXX.X'.[.R.].].oX].[.[.@X-XoXE.OXOXE.OX.Xg.q.A..XoX.X@XJ.J.oXoX*XoXR.].].oX@X].H.J.F..X]..XH.N.B.'.].].R.].oXR.].R.B.R.].J.J..X#X#X.XA.J.*X-X7X8XE.A..X2X#X2X8X2X@X}.@XoX-X2XoX-XD.J.-X@X8XoXB. .e.J.@X@X5.H.f.H.N K  .g.J.J..XJ.g.u.A.F.A.k.D.D.D.A.g.A.D.~.J.A.A.B.A.g.A.Y.D.A.A.S.D.r.A.A.A.g.J.@XJ.H.J..XF.F.D.F.D.D.oX@XR.D.F.^.R.D.A.D.].D.F.J.].H.u.D.oXoX].H.J..X].@X2X-X-XJ.g.H.H.].2X#X#X.X.X+XXX.XoX].Y.E.E.D.g.[.B.].].].[.oX].].'.H.J.R.R.H.H.'.'.H.J.R.].].H.H.R.@X#X#X#X#X#X#X+X].+X+X].D.H.J.].oX@X].J.'.H.'.T.T.@X[.+X2X#X.X.X].'.R.].T.H.A.J.F.A.D.J.q.B.oXR.y.A.R.oX-X@X@X].@XR..XoX.X.XoXXX~.oXR.J.H.].@XoX].T.].B.H.@X@X}..XD.Y.oXE.E.R.D.J.R.R.Y.g.Y.T.T.[.'.#XR.J.D.F.A..Xr.k.k.;.&.D.Y.f.g.D.g.e.B.@X].y.*.g.oX-XU.[.Y.e.",
"O.*.q. .D.yX-X*.g.E.D.-XA.R.g.D.oXY.y.A.g.R.H.].].-X.XR.].'.=X'.R.#XJ.g.g.E.#XOXOXOXoX@X@X@XoXoX[.[.'.].J.y.].J.J.J.].H.H.R.N.R.OXA.oXd.k.g.y.y.;.*.g.Y.J.R.R.-XR.D..XoX@XD.J.J.D.B.D.A.A.D.g.Y.2Xy.H.D.u.u.A.A.A.D.D.B.A.k.A.D.R.H.D.D.J.Y.Y.R.].'.R..X].R.R..XoX].R.R.R.oX@XoX].T.@XE.U OX-XoXOX*XOX#X].R..X#X#X.XT.R.R.R.R.oX@XR.R.].oXJ.E..XR.*X].g.e.u.J.7X#XoXoXA.D.@XR.R.H.H.-X-X.X.XR.R.A.g.R.J.oXJ.].J.].].oX].@X].H.].@XR.D.R.R.R..XoX-X.XJ..XOXOX*X*XD.J.*X7X@X-X8X@X].#X2XoX-X2X.XoXA.D.#X7XoX7X} } A.oXH.[.@Xf.' @XL U k.D.R.~.A.r.e.u.g.A.A.k.A.D.D.D.B.D.D.J.D.F.A.A.D.A.A.D.A.f.A.S..XD.D.D.D.D.N.H.H.F..X].J.F.F.A.k.D.R.Y.H.H.Y..XR.D.g.g.D.A.J.].].J.B.D.oXE.H.N.B.J.].oX@X@X#XoXD.R.J.H.oX].@X.X.X#X@X@XoX]..XR.oXJ.5.B.B.A.]..X@X+X]..X].J.R.].].H.H.H.H.B.J.R.R.J.J.J.H.D.[.+X+X[.oX@X+X].].@X.XJ.H.R..XoX].'.H.].'.'.T.D.+X'.#X@XH.]..XH.H.H.R.D.A.g.D.D.H.R.oXy.g.oXR.A.B.@X@XoX.XoX'.].^.oXoX].R.oX.XJ..XD.J.D.R.oXoXR.R.[.H.H.'.H.B.H.J.R.oXY.A.D.D.H.T.D.Y.Y.oXD.y.T.'.D.J.J.r.g.H.N.u.e.D.k.e.A.R.A.A.A.A.D.R..X].J.q.oXJ.Y.oX-Xs. .",
"*.A.~ E D.lXD.&.f.E.A.R.R.D.J..Xy.E.7XoXoXoXe.e.u.D.A.g.D.D.oX[.-X@XJ.R.oXE.E.OXoXoXoXoXoXoX[.[.@X@XH.R.H.y.].R.B.H.R.H.'.H.B.D.^.F.oXR.J.E.g.J.d.&.e.R.R.R.A.D.R.J.R.J.J.J.J.J.A.A.g.g.g.A.g.R.oXe.A.B.u.N.B.H.D.D.D.B.A.A.A.D.].J.R.J.J.Y.D.R.].].R.].].J.F.J.R.R.R.].@X@X@X[.R.H.R.@X-XoX#X+X#XOX.X#XoXR..XoX.X].R.'.oXoXR.D.R.B.Y.oX].]..X].8X8X.XoXH.e.e..X#X-X.XD.R.oX[.R.D.D.#XoXD.H.].-X.XD..XD.].H.].J.@X.X.X.XoXR.D.].+X'.u.H.R.].@X@X.X.X@X#XoXoX*XoXOX*XoX@X2X2X#X+X=X2X=X'..X.X].3X@XH.J.wXOXe. .A.E.OX].H.+XH.5.e.n } k.u.XX.XJ.D.&.y.g.A.A.A.k.A.g.D.A.J.F.D.k.D.S.A.D.D.D.A.f.y.A.S.oXJ.D.D.T.'.e.u.D.F..XF.F.J.A.A.k.A.D.D.D.H.R.Y.R.oX.XH.]..XD.R.D.H.D.D.oXD.R.J.H.R..XoX.X.X].oXoXoX.X].]..X]..X@X@X@X#X+XJ.D.oXF.J.u.&.N.]..X.X+XoX].].].J..X.XR.R.T.B.g.D.J.R.R.J.R.].D.g.'.[.oX].].@X@X].'.+X.XJ.R.]..X[.'.'.R.].H.H.T.T.'.'.2X.Xg.J.].J.H.A.D.d.f.r.k.A.R.R.].D.D.R.H.A.H..XR.R.R.oX].R.oX#XoX.XR..X.X].7XR..XoX.XJ.R.R.T.H.H.T.T.H.J.].Y.Y.R.D.g.H.].R.'.J.J.J.J.e.6.].].R..XR.J.D.R.R.D.q.D.oXJ.D.J.D.A.g.g.D.R..X].].].-X].R.#X-X6.] ",
"y.A.q.y.u.>XR.k.Q R.].%.D..XH.].OXA.D..XJ.J.5.%.e.e.g.g.R.J.].@X#X@XR.oX2XoX^..XoXoX.X[.[.[.[.[.[.@X'.[.D.g.D.H.A.H.J.B.R.D.A.H.J.J.J..XJ.E.A.oXf.y.B.J.H.oX].T.].R.D.D.D.R.H.N.A.D.g.f.B.u.A.D.A.A.B.A.A.A.N.H.D.D.B.g.A.A.A.D.D.J.XXR.J.F.A.Y.R.oXR..X.XJ.J.J.Y.R.E.]..XoX].].].R.R.&XoXR.oX[.oXoXE.#X#XR.oXoX#X.XB.g.D.R.R.].oXoXoXE.].oXR.#X+X].oX2XD.H.@XR..X.XJ.D.R.oX'.R..XH..X+XR.oX#X#X-X.XoXR.R.R..XR.OX.X.X.X.XJ.D.oX]..XB.R.H.H.oX@X#X].oXoX].oX*XoX#X*XOX2X-X.X.X@X#X2X#X.X@X@X@X2XB.D.-X.XO.&.q.oX8X[.H.oX.X&.U 5.K w.r.r.R.r.A.A.q.d.D.F.D.A.k.k.g.A.g.A.D.F.g.k.F.k.A.A.A.A.g.A.A.A.H.u.B.R.].R.S.A.D.S.J.S.F.J.A.D.R.^.E.R.R.H.F.D.R.oX.XD.J.R.H.R.B.H.D.D.oXY.R..XR.J.R..X.X.X].e.].#X.X@X.X.X].].oX.X.X@X.XJ.oXE.J.R.q.&.R.~.oX'.'.].].J.H.H.].].R.J.T.D.B.T.H.]..X].E..XE.Y.'.oXoX].].oXoX].].oX].R.].].R.].].'.J.].].R.oX].'.].2X@XR.R.R.oXoXD.D.k.g.r.k.k.D.R.R..XJ.A.D.A.R.D.A.E.R.oX.X].oXoXoX.X].].].oX-XJ..X#XR.D.J.#X].f.N.H.H.R.oXR.E.Y.E.E.Y.R..XA.H..XR.T.D.u.A..XJ.H..XR.J.D.].}.Y.g.A.D.D.J.A.u.A.D.J.H.J.].R.H.@X2X].J.-XY.Q  .",
"Y.J.D.g. .u.u.u.Q R.u.D.D.y.J.g.f..XD.&.O.A.].4.N.g.D.H.R.J.D.R.J.@X@X].oX#X*X^.oXoXoXoXoXoX@X@X'.+X[.].N.g.N.J.H.J.J.H.R.A.D.F.D.[.J.g.u.D.].R.R.D.R.R.y.y.B.R.R.R.J..XH.F.H.H.g.D.g.g.A.u.A.B.r.Y.A.J.D.A.A.H.D.D.h.f.B.A.A.k.H.J.J.F.J.R.J.E.A.R.A.D.R.D.D.A.Y.R.Y.J.J.R.].].@XR.@XoXY..X].[.oXoXOX-X-X].oX@X^.R.T.T..XJ.J.oXoXR.oXE.J.].].oXoXJ.'.2XJ.g.].#X.XD.J.u.J.@XB.T.@X.X#X#XJ.R.@XoX@XR..X.XoXoXoXOXOX.X~.J.~.F.S..XoX@XJ.+X].J.@X@X<X].oX@XR.E.oXoXE.E.OX-XoX].H.} @X-X#XoX@X2X#X.X2X8X#X-X;.O.D.&X=X-X#X].R.X.H r.k ..J.r.S.OXR.D.r.k.F.D.k.A.A.A.D.D.A.A.g.A.g.D.D.k.D.F.D.D.B.D.F.D.g.5.g.H.[.T.J.A.A.F.J.S.A.A.g.D.E.E.Y..X.XJ.J.XX#X@XR.H.].T.'.].D.D.J.F..XR.D.E.E.Y.J.Y.Y.Y.H.5.].#X@XoXg.].[.R.].oX.X].].].R..X].N.g.D.A.~.].H.J..X].J.H.H.J..X].H.D.T.R.D.H.R.R.R.E.OXOXoX].oXoX].].]..X].+X@X].).].].R.[.].R.H.R.].D.R.J.].@X-X#X@XoXR.E.oXD.D.D.F.g.D.F.D.oXR.].A.e.A.A.J.g.D.oXY.E.E.oXoX.X.X.X].R.].oXJ.J.XX#XJ.J.J.XX{.M.N.H.N.H.E.J.oXE.E.oXY.J.R.g.D.R.B.'.T.A.D.H.oXH.oX.XA.B.+X].R.D.A.g.D.J.g.e.A.A.Y.oXoXR.J.].qXT.=X2X.XF.y.~ ",
"J.J.y.e. .g.g.R.R.g.H.R..Xg.J.@XE.oXA.&.u.u.].u.H.].]..XoXoXR.J.@X@X#X@X.XD.R.~.].oXoX].]..X.X.X].oX'.D.N.N.H.].].'.R.].].D.D.J.N.'.'.e.y.H.@XJ.J.5.u.H.D.f.N.B.R.R..X@XJ.S.H.J.g.g.f.k.g.A.g.u.d.D.D.Y.H.D.H.B.R.T.B.N.H.J.J.D.H.].F.A.J..X.X.XR.oXD.J.OXE.E.E.J.R.R.R.J.].]..X[.'.@XoX#XoXR.[.*XoX*X*X-X].].@XoXoX[.T..XJ.R.@Xz.&.E.OXR.J..XJ.H.#XoX]..XD.R.]..XJ..XN.J.@XN.]..X.X+X].t.q.oX#X@XoX@XOXoXE.Y.oXOXOX.XJ.R.J.A.J.].R.R.oX.X.X8X2X).].2X2XoXoXOX-XOXE.D.E.OX2XR.z qX-X.XJ.H.].@X@X2X.X2Xq.g.R.3X=X=X].7XoXR.r.q.g.N N u.u.J.J.O.E.r.g.D.D.d.A.F.F.Y.E.Y.D.f.A.D.D.A.A.J.F.F.H.A.g.A.J.u.q.u.y.H.D.A.k.A.J.D.A.A.A.D.A.A.g.g.R.oX].A.J.R.].R.].[.H.'.T.H.D.D.D.D.J.E..XoXoXR.J.Y.E.].H.@X).@X#Xu..XR.H.].@XoX].]..XA.g.R.D.A.R.H.].].J.J..X].J.J.J.'.+X].H.D.R.Y.B.H.H.H.J.E.oXoX.X].oXoX].].].].].'.oX].).].].].[.'.R.D.J.J.u.F.A.R.@X@XoXoXoX.XJ.Y.A.Y.Y.Y.A.F.J..X.Xg.A.g.A.D.g.A.D.D.^.Y.Y.Y.E.oXoX.X].].].'.'.XX#X7X7XoX.XD.J.|.(.].R.H.R.E.OXR.Y.J.R.D.D.R.R.oXD.f.D.N.H.J.R.]..XR.D.R.N.B.+XR.B.B.D.D.D.u.u.y.g.D.R..XoXoX.XR.].2X@XJ.Y.q.} ",
"&.u.e.R.e.R.y.g..X.XJ.g..X@Xo.[.f.k.].D.o.].2X].A.@XJ.J.D.J.F.u.+X@X-X#X.XD.~.J.[.oX+X[.].]..X].].].H.N.F.F..X].#X].).].R.D.J.R.@X'.H.y.5.u.H..XoXu.A.H.H.B.T.T.oXR.R.J.].F.H.N.A.y.y.g.e.D.r.e.D.d.D.D.H.D.H.f.F.A.g.g.D.R.J.D.e..X.XJ.J.F.R.^.].].g.F.oXY.E.[.J.^.oXoX.X.X].].'.[.T.-X].R.@X@X#XY.oXE.@XoX].oXE.OX[.g.R.R.].].oX:.^.D..XN.]..X@X3X.XH.].H.oX@X.X#XoXA.A.N.e.A.J.].].#XJ.D.7XoX@X@X;XOXOXJ.D.oXOXOXoXR..X].H.R.].J.oX].D.N.@X@XV.].8X#XR.oXoXoXoXOXR.oX#XoX-XoX7XoX.X@XJ.A.].@X8X2X7Xe.H.2X1X'.2X2XR.R..X~.H O.N ^.!.r.F.A.u.Y.s.g.F.F.d.A.J.D.Y.D.D.J.A.R.Y.g.k.D.F.k.g.D.A.g.k.Y.u.u.D.u.H.A.A.A.D.Y.g.g.A.R.J.A.g.g.N.R.@X.XoX.XJ.oX@X+X].H.H.H.R.Y.E.R.J.R.oXE.E..XY.D.R.*X2X).H.t.u.7XOXF.A.H.oX#X@XoX.XR.H.R.R.J.H.B.g..XJ.J.J.R.J.J.].J.].].].R.D.H.T.g.N.H.R.E.Y.J.R.E.E.[.oX[.].R.R.].B.'.].J.J.].R.Y.@X'.D.J.R.B.R.D.R.H.R.OX.XF.oXoXY.D.R.Y.D.k.F.J.D.A.B.H.A.D.D.J.D.R.Y.F.Y.R.D.Y..X.X].]..X@X+X'..X.X#XXXOX.X.XXX+X+X+XT.R.'.D.E.R.E.E.E.A.u.J.].E.H.H.N.f.@XoX~.].J.R..X'.H.'.@X].B.D.A.y.g.A.A.d.y.f.H.].].].].H.2X2X].R.2Xy.^ ",
"U e.u.J.u.r.e.#X8XT.D.e.g.u.7X7X].H.8XH.D.J.u.e.q..X].D.A.D.R.h.oX^..XoXoX.X.X.X@X].'.]..X.X.XoX~..X.XA.D.].].oX].].|.].].N.N.+X@X[.H.g.g.D.D.g.T.[.2XA.D.J.S..XJ.J.g.D.J.N.N.A.g.g.g.u.y.e.D.e.y.e.g..XA.J.J.D.g.D.J.g.A.H.].'.B.H.[.oXE.R.J.D..XJ.R.D.E.R.H.H.].].].@X}.}.|.[.E.Y.&.q.OX-X.XH..XoX.XE.oXT.E.T.E.R.E.oX[.E.R.F..X.XR.R.F.D.Y.E.R.oXE.R..X.X.X@XoX.X8XH.5.N.f.f.D.D.oXJ.oXJ.R.oX@XoXoXR.#X].J..XOXY.R.d.A.D.D.H.D.OXoXB.@X#X].H.g.oX7XH.@X#XR.oXH.-XoX*XJ..XoXF.oXJ.oX-XH.T.[.@XD.E.@Xy. .g.9XOXOX#XA.OX!.R.u E ;.k.F.x.l.r.k.k.D.d.r.D.f.d.D.L.!.D.D.d.r.F.~.J.k.k.d.d.g.g.A.B.d.u.k.D.f.f.r.D.A.D.e.y.D.A.A..X.XD.D.F.F.Y..X.XR.R.]..X+X].H.V.T.].R.R.D.E.J.OX#X]..XJ.A.J.J.A..X^..X.X]..X+X].J.R.#XoXoX.XD.E.].R.T.J.J.J.R.].J..XR..XR..XR.R.T.].].R.R.].R.B.g.D.E.R.H.R.H.A.g..X*XA.D.R.J.R.H.].].R.'.oXXXXX.XoX.X].].].).H.}.@X#X#X@X+X.XR.J.D.J.R.u.u.J..XA..XR.A.J.D.Y.R.F.J.R.Y.D.D.J.A.]..X]..X.XJ..X~.E.oXoXoX^.Y.R.J.].#X.X].R.A..XH.J.].[.J.S.F.J.J.F.A.g.J.u..X].].+XH.R.R.oXD.E.R..XD..XR.u.g.D.J.e.J.].D..XoX^.F..X7XJ.^.*X*X..N ",
"r.r.q.8XA.r.r.O.&.R.g.g..X.XD.R.R.R.R.D.#Xe.J.&.q.J.].R.R..X&X@XoXE.R.R.^..XXXoX'.'..X.X.XR.E.oXoX.X.XR.J.R.].@X].H.).+X].A.A.).T.[.].g.A.J.B.Y.f.].].D.H.F.D.XXD.Y.J.J.J.A.A.H.B.e.y.g.A.y.f.e.B.f.q.B.A.J.D.F.A.B.D.D.J.H.H.T.R.R.R.E.R.^.R.J.~.R.E.R.oX].D.N.+X{.+X@X=X}.[.'.OXY.D.D.oXoXA.#X~.OXOX.XoXE.[.B.J.J.Y.R.Y.Y.Y.J.F.J.J.J.D.A.F.E.oXF.u.@XJ.A.D.@X@XA.R.A.y.y.y.B.y.5.y..XR.R..XoXoX@X.XR.oXoX].@XR.oXF.J.R.e.e.g.D.oXY.A.N.J.+XH.R.-XJ.R.oXD.].#XoXoXoXE.R.R.oX.X-X-XJ.oXH.B.[.T. .D.&.5.g.g.E.OXXXk.J.OX!./.u ~ N k.!.k.j.j.w.F.d.k.A.D.r.d.k.F.F.k.D.A.A.J.~.J.k.k.k.A.D.D.H.A.e.d.f.;.u.D.k.k.H.D.e.e.D.D.J..XR.F.J.Y.D.J..X].].J.A.G.J.).(.(.T.R.R.R.Y..XJ.R.#X@X@X].A.H.D.D.R.E.oX#XoXoXoX].J.R.R..X.XJ.A.A.R.H.H.J.].].].].J.R.J.R.J.R.D.D.].R.'.oX[.H.D.D.D.D.D.B.A.R.J.H.E.oXoXD.J.R.D.D.J.].].R.'.R.]..X.XoX.XJ.J.R.).J.].#X1X+X'.H.J.J.D.D.J.R.D.F.XX.XR.J.g.A.oX.XD.D.R.E.E.Y.A.A.D.A.]..X]..X.XJ.~.~.J.A.f.A.R.J.R.H.S..X.X@X.XJ.R.].R.].R.H.F.F.J.H.D.g.d.F.S..X].'..XR..XR.OXD.D.D..XD..XoXu.D.A.e.D.D.B.e.D.R..XR.XXoXr.oXeX:X;.N ",
"q.q.R.R.e.D.].} 5.D.6.B.D.oXR.#XR.R..X#X#XD.&.Q A.R..X.X.X.X@X@XoXE.Y.^.oXoX.X.X].].].]..X.X.X.X@X@XoXoXR.J.oX#X,X(.].+XH.A.J.].T.[.@XB.g.J.B.H.B.H.g.D.A.A.J.J.H.J.J.D.H.H.N.u.N.*.t.g.A.y.*.*.%.B.g.B.A.J.g.S.D.A.D.J.].H.H.R.].R.R.Y.J.R.^.R.A.D.J.E.oXoXH.H.}.@X2X@X}.'.oX'.E.oXE.OXoXA.A.#XOX*X*XoXE.D.T.g.J.J.R.E.J.J.R.R.J.R.^.R.D.g.D.R.g.A.J.A.B.u.@XD.].g.A.).A.y.e.g.g.&.q.oXJ.D..XY..X@XoX#XoX@XH.R.^.OXD.D.OXB.u.J.^.oX*X].R.].#X+X-X7XB.D.H.A..XoXR.D.oX.XR.R.R.-X7X@XB.H.H.H.@X=XY.D.6.-XuXA.E.OXR.XXOXoX.XR.j L e F.F.S.k.w.w.p.e.g.F.k.r.k.d.A.F.D.F.D.k.k.F.F.D.F.A.D.D.A.A.g.&.g.k.O.f.D.A.D.B.D.g.A.D.g.A.H.D.J.E.Y.D.Y.].R..XJ.g.u.H.).).|.[.R.H.H.J.oXE.R.J.J.].H.N.D.D.D.R.R.oX@XoXoX[.].A..XR..XR.g.A.A.].J.H.R.].].J.J.J.J.D.R.R..XJ.D.].R.'.oX].D.B.D.A.D.H.B.A.].J.J.OXoXE.E.R.].H.H.J.R.].].].R.].@XoXoX.X].J.J.).J.].@X#X.XR.H.J.J.D.D.D.J.F.J..XF..XR.B.J..X.XA.D.J.J.Y.D.D.A.D.Y.]..X].].J.F.J.R.u.y.f.D.oXY.].].H..X].#X@X.XJ..XoX].R.H.F.F.F.D.D.k.g.S.J.R.J.H.A.D.g.e.R.D.D.E.H.A.D.J.u.D.g.e.J.A.g.g.J.R.oX.XH.D.].*X-X*X .N ",
"e.y.J.e.y.J.#X#XD.A.A.D.B.].@X.XD.D.2X.X#X#Xg.A.E..XE..XoX@X#X2XOXoXoXoXOXoX.XR.H.R..XoXoX.X.XoXoX-X@XoXJ.J.#X.X@X].].'.V.u.H..X[.R.+XJ.g..X#X].D.oXy.N.+XH.A.OXH.D.J.D.A.A.u.N.u.r.N.u.B.D.y.e.f.A.y.u.D.R.A.D.J.H.H.H.T.T.R.T.T.R.E.R.D.D.R.^.H.J.J.E.R.].H.H.}.@X@X'.H.H.+X].D.oX].oXoXD.R.R.^.R.OX#XOXE.@X@XJ.R..X.XE.E.^.R.R.E.^.R.D.A.D.Y.A..X^.oXA.D.*XoXoX].H.A.u.y.A.H.H.u.A.E.D.A.^.Y..XoX.X].].].H.R.D.E.E.A.H.g.y.-XE.A.A.e.R.oXN.B.-X#Xg.A.u.D.R..XD.H.oXD.J.R.J.J.oXoXoX].H.].H.oX2XR.R.8XuXE.yX^.oXoX8X8Xy.e.~ d.r A.d.J.d.w.d.r.e.g.D.u.d.J.k.F.r.k.D.D.g.u.D.E.k.k.k.k.k.A.D.D.D.A.g.e.A.A.e.&.O.e.g.D.D.B.D.H.A.D.Y.Y.Y.R.].].R.J.N.A.J.].].{.].T.H.J.R.oX.X].H.H.R.D.g.A.D.H.^.R.R.E.].oXoXR.].@XoXoX.XD.Y.R..XR.R.].].R.H.H.R.R.J.R.R..XJ.H.R.].].R.R.H.D.B.A.D.R.D.D.R.J.J.E.E.E.oXJ.R.J.R.H.J.R.J.R.R.].@XoXoX@X.X].).J.H.].@X#X+X].].].J.R.J.D.R.J.J..XJ.D.J.D.D.R.oXR..XH.H.H.J.R.Y.Y.^.'.J.J.J.F.F.J.R.e.g.J..XoXJ.].oX.X.X]..XoXoXJ.R.oX].R.J.F.F.D.H.H.D.g.A.H.R.J.H.Y.Y.g.q.F.Y.R.oXJ.H.A.A.g.A.A.J.g.D.J.R.#XoXoX#XoXR.8X7X7X&...N ",
"Q H.B.R.A.N.e.D.e.R.R.e.D.oXoXJ.q.J.J.-X.X#XA.D.E.R.J.J..X@X@X2X-X@XoXoX.X].E.oXoX.X].].].].].].[.@XoX[.H.H.oX].'.].].].J.A.H.oX[.'.H.A.y.H.@XD.N.B.g.D.oXD.A.@X.XA.D.A.A.A.u.A.y.N.A.u.u.D.B.A.D.g.y.B.D.H.D.J.H.D.D.D.H.H.H.H.H.H.R.R.J.J.E.^.R.R.J.R.Y.].H.'.'.[.H.H.D.T.].'.'.R.+XR.R.OXR.E.-XOX*X#XOXF.D.A.~.~..X.XE.^.^.J.A.D.D.D.D.J.R.E.E.*XoXoXD.J.OXOX.X].D.y.t.y.D.g.D.D.F.D.A.R.R.^.J.D.Y.J.oX[.R.R.D.D.Y.H.A.u.y..XE.OXD.q.&.u.5.5.oXR.y.D.g.B.H..XH.]..Xu..XoX#XF.oX2X@XN.u.].R.@X@X+XT.D.@XR.*XOX.X-X3X].u.oXn n U k.A.A.r.r.&.k.e.e.g.q.e.A.g.D.r.k.A.D.D.g.D.R.k.k.k.g.f.g.A.D.D.d.k.A.u.g.w.O.D.A.A.D.A.d.A.g.D.H.H.Y.R.J.J.].D.D.A.F.].].].+XD.H.R.R.oXoX].J..X.X.XJ.D.H.D.J..X.XE.J.D..XoXR.@X.XoX.XoXOXD.D.].J.R.].].R.J.R.E.E.Y.E.Y.E.D.D.'.oXoXR.H.J.D.g.D.D.H.B.B.J.J.J.D.R.R.oXJ.J.J.J.H.].].H.H.J.R.'..X.X+X.X].J.H.J.'.#X3X#X'.R.].].R.J.D.R.J.J..X.XJ.D.H.A.J..XJ.D.J.R.R.R..XR.F.J.H.A.H.H.J.R.R..XR.J.].].oX].].R..X].R.H.]..XR.R.F.J.T.J.D.A.D.Y.D.R.g.A.D.].].R.Y.R.^.J.Y.R.^.Y.R.A.D.D.u.;.g.D.e.J.R.J.#XoX.X#X@X#X2X-Xy..X*.U ",
"o.H.y.e.u.8XJ.u.g.R.D.e.g.R.H.R.A.g.k.g..XD.oX.X].R.R.J..X@X]..X@X@XoXoX.XR.R..X.X.XoXoXoX@X@X@X[.].].+X].H.].+X[.+X'.J.].H.A.J.[.2XT.A.A.A.'.H.N.B.e.5.oXR.g..X+XH.D.D.N.u.y.g.g.N.B.N.y.u.g.D.h.h.A.A.f.D.J.D.B.g.g.T.H.B.N.R.E.D.H.R.R.E.^.E.D.D.D.R.[.oX].@XH.&X'.oXR.R.'.[.[.'.'.'.R.E.E.E.oXE.E.D.oXoXR.Y..X.X.XE.E.^.^.J.D.D.D.D.J.E..X.XR.*XoXy.f.^.-XR.@XoXD.A.H.J.J.g.D.J.D.k.A.oXD.R.Y.J.OXoX-X@XR.D.D.R.A.A.B.R..XB.F.R.D.g.E.oX8X%.A.E.e.J.B.N.R.H.H.].H.oXoXoX.X#XH.oX].oX.X.X.XoX2X1XR.].oXJ.u.OXR..XoXH.o..X*.n L A.d.d.k.w. .u.e.f.F.A.D.D.N.D.D.J.d.k.D.g.D.D.F.F.J.A.f.f.f.g.q.r.J.J.w.d.A.D.A.A.k.F.D.A.J.Y.H.D.A.D.J.H.D.H.J.J.]..XJ.J.].].H.R.R.H..X.XH.R.J.R.R.J.J.R.J.R.Y..XoXY.D.Y.[.R..XR.oX].oXoXA.A.R.R.R.R.R.Y.E.[.J.Y.J..XR.R.D.D.[.[.[.].R.J.D.D.H.D.H.N.H.].J.D.A.Y.F.R.R.].].J.H..X].H.H.J.'.'.]..X.X.X].J.J.].'.+X@X].R.'.].R.Y.R.F.R.J.F.J.J..XD..XR..X].H.H.H.].].R..XR.D.D.H.A.J.J.]..XR.R.].].]..X+X@XR.J.].]..XH.J.J..XR.D.Y.E.J.A.k.A.T.B.H.g.D.D..XOXE.g.A..X^.A.D.^.R.D.&.D.E.u...D.r.y.R.R.D.#X.XJ.R.[.=X@XH.D.R.oXH ",
"%.y.].g.&.B.y.A.R.A.D.H.g.B.B.D.OXR.oXE.R.R.D.D.J.H.].].@X-XoX-X@X+X@X#X@X].E.oX~ y.E.oXR.J.].#X+X].[.@X@X].'.@X}.].H.D.D.A.A.D.D.+XH.D.J.H.H.H.H.g.g.y.D.oX].A.A.H.].R.y.%.y.A.H.H.A.H.u.g.A.D.R.Y.g.e.y.H.R.B.B.B.B.T.B.B.B.R.E.D.D.J.R.E.oXE.H.H.E.[.@X].R.].H.=X]..X.XH.'.+X].'.H.[.R.A.oXY.R.E.E.D.oXOXoX*X.XoXoXoXE.oXoXR.R.Y.J.F.R..X.X.X[.@XD.T.*.OXOX#XoXT.g.y.N.D.A.g.J.J.D.F.J.F.k.F.OXoX@XoXE.].R.H.u.R.H.A.u.J.oXD.D.F.OXD..XD.*X*.k..Xg.J.D.H.R.H.H.H.D.oXH.J.t..XoX.XJ.oX].R.R.@X}.#X+X#XJ..Xg.R.3X2XH.#XN.f.=.H j k.;.k.J.r.A.d.*.y.F.D.D.B.N.e.A.D.y.g.D.A.J.F.k.k.D.k.d.k.g.A.A.g.F.D.g.A.D.A.F.F.F.R.F.d.A.D.D.D.B.N.H.H.H.H.J.J..X.XH.H.].].R.].J.g.].].H..Xg.D.J.D.R..XJ.E.J.Y.E.E.Y.Y.E.R.J.oX@X.XR.Y.D.J.].].].Y.Y.R.R.U.Y.Y.J.].R.E.R.R.'.'.]..X].J.F.J.D.H.R.H.J.].J.A.D.R.D.D..X]..XR.H.]..XJ.J..XoX[.oX[..X].J.F.)..X].].].'.'.].H.N.R.oX^.R..X.X.XJ.g.B..X.X].XX.X@XH.+X].H.R.J.F.J.].J.].J.R..XJ.R.H.H.'.+X].oXD.J..X.X.X.XJ.D.oX].R.oXoXJ.k.k.A.D.H.B.u.D.J.Y.OXY.A.D..XR.g.A.E.E.D.q.A..XD.f.E.z.g.J.oX.X#X.XJ.A.3X].@X.XR.g.N.K ",
"o.5.5.g.;.A.A.Y.A.q.D.D.D.H.[.@XE.E.OXY.D.E.R.D.H.G.J.R.]..XR.-X2X=X@X#XoX.XoX#X^..X^.[.oX@X@X.X[.[.@X[.@X@XT.].@X[.oX[.H.J.].R.[.'.].].].).A.y.%.f.H.H.y.]..Xy.A.H.A.'.H.D.J.g.N.N.N.H.u.A.R.D.U.z.B.D.D.f.g.H.H.].R.T.f.N.N.D.J.D.H.R.R.R.^.^.T.T.oX[.OXR.H.R.R.[.g.g.oXH.T.'.{.H.+XoXR..XE.R.D.E.*XoX@XD.f.oXR.oX#XOXoXoXoXR.D.D.A.D.J..XoXXXE.T.@XR.&.R.OX*XE.Y.D.g.A.H.g.g.R.H.J.E.oXf.Y.^.R.E.oXoXT.].T.T.].J.R.].J.J.g.H.OXE.E.Y.g.OXY.7XE.D.J.].R.R.B.+XH.D.R.&.H.@XJ.J.'.].@XH.g..XR.oX1X@X].+X].D.u.XX&XoX@X(.{ o. .H L k.k.A.F.F.oXd.g.A.J.D.H.H.R.y.e.D.B.H.R.A.A.g.k.k.A.u.u.k.g.A.A.A.J.A.D.k.k.F..XF.k.F.R.A.A.D.g.D.B.N.H.'.H.'.A.B.J..XA.H.oXoX]..XD.u..X.XJ..XD.E.oXE..X.XJ.].^.F.J.oXoXoX[.E.H.].H.D.D.g.D.D.].].R.Y.Y.E.E.Y.oX^.J.E.T.R.Y.R.B.H.]..XR.R.J.R.H.'..XH.A.H.H.J.Y.E.D.A.R.D.J.R.J.].].J.].].].+XoX].].].J.H.J..X].@X#X}.'.T.B.6.D.oXR.D.J.oXOXJ.e.B.R.J.A.@X].].'.2X+XJ.R.R.R..X.XJ.R.H.H.J.J.XX@X].).@X].@XD.]..X].H.@XH.J.#X.XJ.E.E.D.k.k.D.D.R.B.g.H.].D.oXA.S.A.D.H.D.R.oXoXR.H.u.A.R.D.Y.R.g.D.#X-X@X].].H.@X@X].H.N.y.].P ",
"&.y.o.N.5.#Xk.%X-Xd.u.A.H..XoX@XT.[.y.H.+XH.N.A.A.A.H.@X.X2XoXOX*X#X*XOXoXoX@X+XR.].J.J.oX#X.XJ.J.F.oX.XOXJ..XR.B.J.oXA.g.OXY.oXE.E.OXoXu.R.D.y.N.y.5.N.J.D.].H.u.D..XD.J.A.A.A.Y.g.A.R.D.F.oXY.D.A.J.D.A.H.H.H.J.F.A.F.J.F.J.D.R.J.J.D.A.D.Y.R.T.[.[.].].B.g..X'.R.D..XR.D.D..XoXoXR.D.D.R.^.R.D..X#XoX.X.XoX.X[.3XT.-X-X]..XoX.XD.B.u.].R.oXE.J.J.R.].J.R.R.OX+X+X].oX.XoXD.k.g.D.J.R.~.F.J.!.R.#X@XOXE.R.Y.R.H.].D.R.].J.G.).R.R.R.H.A.].2XoX@X[.k.r..XA.r.J.U.Y.y.D H.'.2XJ.].'.g.H.].H.H.N.oX2XA.e.Y.;.q.D.F.l.k.F.A.B.[ D h w.k...~.| S.F.A.A.u.d.J.J.D.D..XJ.D.D.D.F.F.p.D.A.g.A.A.F.F.r.J.S.D.H.A.A.N.y.H.'.A.H.A.D.D.H.F.D.A.A.g.D.D.g.u.E.].oXE.D.oX.X]..XJ.R.oXR.D.oX].R.J.R.Y.[.R.E.].R.H.D.R.Y.J.^.oXH.g.B.H.D.A.J.R.S.A.H.D.J.E.E.R.R.F.R.R.R.D.D.f.A.g.g.J.J.H.J.H.J.R.R.D.A.D.Y.E.J.A.u.g.F.J.F.G.u.J.N.D.oX.XoX].R..X.XJ.H.'.].].@X3X@XJ.H.A.A.A.D.J.R.D.D.E.D.J.R.D.S.F.~.XX.XD.R.].J.D.R..X.XE.D.D.Y.D.Y.oX].XXF..XR..X].D.].].].].H.A.J..XR.R.R.J.J.A.D.D.R.|.'.y.y.]..XOXJ.R.H.H.J.J.J.E.oXR.A.k.g.R.D.A.R.J.B.J.R.R.H.g.A.XXD.k.k.d.F.oXz ",
"H Q N.N.y.y.u.:XR.D..XH.D.R.oX].[.B.b y.@X#XJ.N.A.u.A.2X#X@XF.#XOX#X*XOXoXoXoX[.].R.R.R..XR.J.F.H.J.OX.X.XF..X].oXH.R.D.g.q.y.^.D.@Xg.E.g.y.A.g.B.H.y.%.B.g.R.].A.F..XD.F.A.A.F.D.R.Y.F.D.J.R.A.J.g.g.B.D.].J.H.u.A.A.A.k.g.J.R.J.H.J.D.D.E.Y.y.y.D.T.R..XA.u.D.J.J.A.H.J.J.R.].R.'.R.Y.R.^..X.XoXoXoXoXoXoXoX.XR.@XyX%.g.*X.XR..X].R.D.R.J.~.^.R.R.D..XR.D.A.k.2X#X@XR..XF.A.g.A.g.A.R.J.J.oX~..XoXR.R.R.oXD.z.H.].R.R.].F.A.V.D..XoX].J.J.oX-X[.@Xy.^.oXoXD.g.e.Y.D.e.].N.J.H.J.y.].].O.A.].H.R.2X-XR.D.J.*.;.w.T ....J.6.o.' y 0 &.R.F.;.J ;.~.F.d.d.D.A.g.A.F.A.D.J.H.D.A.k.g.A.k.A.S.S.S.r.D.F.H.N.N.H.N.4.N.H.H.H.D.D.D.D.J.J.R.J.A.g.A.D.A.J.R.R.Y.Y..X.X].D.D.R.J.D.J.J.R..X].].R.oX[.R.'.@X.XJ.R.E.Y.Y.R.[.R.D.D.D.B.u.A.u.N.D.D.H.Y.E.R.R.J.E.Y.R.J.J.D.J.H.D.J.H.D.R.J.H.J.F.k.f.f.d.k.k.k.A.D.J.J.A.F.A.H.g.F.R.R.oX.XR.R..XR.R.].].]..X#XoX].J.A.N.D.J.R.R.D.D.E.R.Y..XR.R.F.S.~..XR.R.J.D.D.E..X^.E.A.A.E.R.J.R.oX.XR.OX.XoX.XH.].oXR.R.R.R.E..XD..X.X.XJ.D.A.J.].).].A.J.R.J.J.J.T.R.].J.A.D.E.R.F.g.D.Y.oXJ.D.R.R.u.g.].@X.XA.g.O...E O.e.^.q.} ",
"~  .t.N.4.N.g.J.D.u.oX].B.u.].R.f.H.o.R.].H.J.N.A.H.H.@X.X.XA.F.R.oXoX].R.oX@X@XoX.XoX.X.XJ.J.~..XJ.~.F.~.R.oXJ.B.H.@X.XD.*.d.oXD.oX*.D.H.e.y.t.5.g.4.&.&.H.oXR.F.J.J.D.J.S.F.J.Y.Y.k.D.Y.D.A.A.J.D.J.D.A.H.D.D.F.F.S.S.k.g.D.H..Xg.R.OXD.k.E.E.T.R.D.D.R.D.g.D.R.H.B.B.J.J.].].'.].].E.E.R.R.R.oXR.R.oX@XoX.X@X].g.].5..XoX.X.XR.J.J.J.XX.X~.~.-X@XD.oX#X.XoXR.+X].].g.J.g.D.A..XR.d.u.A.A.D.J.R.R.J.A.g.R.Y.OXoX].oXR.].H.J.H.H.R.J.R.oXR.D..XR.D.f.Y.R.OX^.g.Y.q.J.R.'.3XH.'.R.D.J.'.g.H.H.'.qX@X@X-X-XY.J.q...^ T A.A.&.o.o.h k g...O.L.;.} F.k.e.r.A.B.g.D.A.g.D.R.J.A.k.A.r.D.J.J.J.A.A.u.A.A.A.A.B.A.V.y.H.R.H.A.B.g.D.H.H.H.R.R.D.g.A.Y.R.J.R.R.H.J.J.E.].D.D.R.R.R.].R.D.R..XJ.R.E.[.T.]..X.X].].J.D.Y.T.[.oXD.g.D.J.A.A.A.A.D.J.J.Y..XR.J.J.^.D.F.D.D.R.R.J.H.H.D.D.J.J.H.J.J.A.g.g.g.A.g.u.N.D.J.F.H.J.S.A.u.J.H.R..X.XH.D.R.].].R.H.D.].#XoXJ.H.D.H.J.J.J.J.D.D.oXoXY.E.D.R.F.u.F..XD.D.A.A.D.Y.E.^..XJ.H.Y.Y.Y.E.E.J.F.@X.X.X.X].].oXR.R.].]..XE.F.R.J.R.D.J.D.R.J.G.A.N.D.D.D.k.J.H.R.R.A.g.H.E.D.A.u.D.A.D.B.g.g.D.u.g.R.R.R.R.D.;...L O.y.R.g.} ",
"L  .5.y.4.u.g.g.J.B.R.J.D.g.T.].B.oXR.R.D.N.].H.A..XoX.XoX-XF.D.J.oX-X@XoXoX'.H.oXoXoX#X.X^.^..X.XJ.J.D.~.oX*X.XT.R.H.A.A.D.oX^.D.oXE.oXR.g.O.t.q.y.A. .H.B.].5.J.J.F.D.J.F.J.F.Y.k.q.g.R.J.D.D.e.u.J.J.A.A.H.J.A.D.S.D.D.D.J.R.A.oXR.D..XJ.g.E.g.Y.D.D.A.A.g.J.+XH.N.A.].H.J..XoXoX].].R.H.H.R.R.J.R.@X#X.XoX#X.XoXE.#X8XJ.OX#X.XR.D.J..XoX.X.X@XoXA.R..XoX#XoX@X]..Xg.F.f.D.H.J.~.r.w.A.k.k.~.R.J.R.R.Y.OXD.Y.oXD.R.R.H.D.J.].R.]..X]..XJ.A.oXOXD.E.g.g.oX^.E.Y.D..XB.J.2X4.#XH.].A.R.R.J.R.J.].oX2X.XJ.e.D.L ..w...k.D.D.o.' g K J.F.!...~ k.u.r.;.r.D.D.B.D.A.B.D.R.D.A.A.A.A.J.A.D.J.D.A.u.A.A.A.A.A.N.H.H.D.H.R.J.J.g.D.D.H.D.D.J.H.J.J.D.R.R.R.R.D.D.H..XH.J.A.D.oX].J..XA.J.].J.R.R.[.Y..X].].oX].J.R.oXoX[..XY.g.A.F.D.D.H.D.D.H.D.D.E.R.F.J.^.A.D.F.D.Y.A.A.D.D.J.J.D.J.J.J.R.J.H.R.J.D.D.J..X.X].J.H.D.J.N.g.J.D.R.R.R.H.H.J.R.R.J.A.A.J.#XoXJ.H.D.R.R.J.J.].R.R.oXJ.Y.R.g.J.J.k.J.J.D.J.R.R.R.R..XoX.X].R.J.J.R..X].D.D.XX].].]..XoX[.R.R.].R.Y.R.R.oX^.R.D.J.D.J.J.D.g.S.A.R.D.F.R.H.H.D.B.A.R..XD.D.A.J.g.A.].oXJ.Y.J.J.^.D.k.Y.g.N ..K O.g.].g.' ",
"n } %.N.H.H.B.H.e.R.D.H.].].B.B.H.H.].H.J..X@XJ..X@X.X.X@XoXA.S.R.@XoXR.]..X].].oXoX.XoXJ.oX~.J.J.R..XR.^.oX>X-XR.R.D..XD.g.A.d.D.E.-X@XR.J.5. .} q.*.n oXA.E.E.J.J.H.D.J.D.R.H.J.A.f.g.F..XoXD.q.5.u.A.D.J.H.H.J.J.R.J.A.g.g.D.H.].^.D.D.R..XE.A.Y.A.A.g.D.A.D.oXJ.D.D.].A.J.].].].'.R.H.D.H.Y.E.R..XoXoXoXoXoX.X^.R.oXoXE.E.oX;X*X[.R.E.R.R.oX@X#X@XoX.X-X#X@XR.R.oXR.^.A.A.A.F.F.A.F.F.A.J.J.g.H.oX.XD.J.g.R.R.B.T.].A.H.J.J.].H.R.].R.E.R.R.oXR.E.f.y.Y.A.^.k.oX.XH.].R.N.@X&.[.D.q.A.B.J.].[.#X-XN.' e.u.O.e.F.:X;.].e.' o.c A.A.A.A.r.;.r.k.k.r.r.A.D.g.g.N.g.A.D.A.A.A.k.J.A.&.q.D.J.A.u.k.J.H.g.g.H.H.M.A.N.H.].R.B.J.J.R.J.D.D.H.R.J.A.A.D.A.J.H.A.]..XH.H.B.A.R.J.A.J.F.J.R.R.].Y.E.R.H.]..X].J.R.].].].Y.E.E.J.D.F.A.A.D.D.D.F.D.D..XJ.H.R..XD.J.R.R.J.g.A.D.D.Y.R.D.J.J.R.R.H.H.J.J.H.J.R..XR.J.F.F.A..XD.N.J.D.R.R.D.J.R.J.H.R.J.A.J.J.oX].).J.H.R.R.R.R.oX].J.R.A..XoXD.J.J.F..XJ.J.J.R.R.J.D.H.R.].H.H.R..XR.].@XR.H.+X+X.XR..X.X].R.J.R.].Y.Y.^.D.R.J.A.e.u.A..Xk.d.F.D.D.d.g.k.H.H.D.D.D.R.oX].D.A.A.e.g..XoXD.A.u.f.F.k.r.d.&.d.k.d.^.q.oXq.o.",
"U %.' 5.u.N.u.N.B.g.y.D.u.H.R.T.B.N.J..XR.@XR.oX@X.X].]..XJ.u.A..X#X.XR.@X-X;X8X@X@XoXOXJ.XX~.F.D.F.~.^.R..XoX^.[.OX[..Xq.*.A..XH.R.].R.R.oXA.' E ;.e.e.oXR.g.D.J.J.J.H.D.g.R.J.D.A.A.J.J.J.R.J.A.y.u.g.A.J.F.S.D.A.D.A.D.H.H.'.Y.Y.R.E.E.R.E..XF.^.D.k.f.J.A.g.D.H.D.H.R.J.].R.'.'.'.'.R.T.T.T.E.Y.J.R..XoX.X^.:X^.F.R.*X#X#XoX&X@X[.[.@XE.R.T.R.oX#XoX.X#XoXoXoXE.D.g.g.g.A.R.F.!.J.!.!.D.F.J.oX.XR.]..X-X.X@XR.R.[.T.u.].].J.A.5.u.D.D.E.J.d.A.Y.Y.g.D.g.D.D.J.B.R..XR.oX2X|.A.oX[.e.].R.A.R.=X@X@X@XN.e.e.y.R.F.!.*XoX=.5.o.c A.J.F.r.p.r.r.D.F.k.u.A.A.g.u.u.u.A.A.A.A.A.f.g.g.e.u.D.D.k.r.A.F.A.u.N.G.N.v.H.N.A.J.D.k.R..XJ.Y.Y.D.A.D.D.B.D.R.A.J.].H.].H.R.A.A.H.H.J.J.H.F.F.J.R.R.Y.Y.Y.H.H.]..X].R.].].R.R.R.R.R.E.R.D.D.H.J.R.R.J.R..XR.J.J..XJ.R.R.R.J.A.D.R.J.Y.E.R.H.H.J.J.D.D.H.H.F.F.H.S.A.S.F.J.D..XY.A.H.A.R.J.A.J.R.J.D.J.J.D.Y.R.oX.XJ.H.D.J.^.R.R.E.D.D..X.X[.oXR.J.H.J.R.R.oX.X].R.R.].].].H.J.R.].oX].]..XR.H.+X@X@XR.]..X].R.H.].oX.XJ.R.J.^.R.E.A.D.J.oXJ.F.A.J.A.F.F.F.D.D.J.F.A.H.].+XE.D.D.d.D.J.J.A.Y.u.g..XR.A.g.f.r.Y.r.R..XD.O.g.",
"5.B.y.o.5.5.H.G.N.5.y.#XR.R.[.D..XH.H.R.J.].R.@X].].[.].oXoXR.R.J.].].].#X.XD.B.@XoX#XOX^./.oXF.F.D.J.R.R.R.J.D.R.R.E.E.A.D..XR.H.oXoX.XR.]..Xg.k.r.F.k.F.A..XE.J.J.D.J.H.g.R.D.D.A.A.J.J.g.A.R.D.g.g.u.g.F.J.J.R.D.D.A.D.J.D.T.E.D.E.oXR.oXY.~ $.D.R.R.f.D.B.g.f.D.D.R.'.'.].].].[.].'.'.'.T.D.R.F.J.R.oXoX.X.X.X>X#X.XR.Y.OXA.R.J.E.R.&X[.R.D..X.XR.oX.X@X@X@XR.^.oXoXR.A.y.u.F.!.A.A.~.J.J..XR..X.XoX].R.H.R.[.T.].N.y.H.J.R.u.5.A.D.g.A.A.A.D.Y.E.Y.OXg.E.D.J.D..XD.].J.N.{.@Xg.D.D.D.A.g.u.'.2X-X].5.Q e.O.e.F.D.cX6.] f.6.T X.e.A.D.u.r.k.A.F.A.k.A.A.g.A.A.u.B.A.A.A.A.g.u.N.D.J.D.A.A.g.k.A.B.N.D.N.N.V.A.A.H.].D.A.J.S.A.D.R.Y.B.g.D.H.J.R.J.].].R.'.H.J.N.B.H.H.H.J.H.D.J.J.R.Y.E.Y.J.oXH.].#XoXR.]..XoX@X.XR.J.J.D.A.D.A.D.R.J.J.J.R.R.J.J.R.J.R.J.J.F.A.D.Y.Y.Y.E.E.J.H.J.H.D.H.H.H.A.S.F.F.J.).J.J.D.Y.Y.A.D.D.R.R.A.A.D.J.H.J.J.H.F.R.@X+XJ.A.A.J..XR.J.R.F.J.OX#XR.Y.E.J.D.J.J.].R.R.J.H.J.J.J.J.H.oX.X]..XoX].].R.'.[.].@X]..X.X].R.R.].oXE.J.Y..X^.R.E.R.R.D.A.~.A.r.F.A.A.J.H.A.D.F.D.A.D.'.}.D.A.A.f.D.D.D.D.E.D.J.E.F.d.e.r. .k.g.#X#X%.y.} ",
"%.f.o.A.5.V.).).B.T.e.y.J.H.T.oX.X].].J.@X].+XoX@X.X@X@XoXE.J.R.+X@X].].#X.XB.B.].J.@X.X^.F./.R.F.F.R.oXY.R.E..X[.D.Y.D.A.A.~.J.R.]..XJ.R..XR.R.F.k.A.J.k.F.D.J.R.D.g.J.].H.R.u.g.Y.A.g.H.A.A.R.J.A.g.u.u.S.F.F.B.g.D.A.k.D.D.'.E.Y.D.J.R.J.A.k.g.R.D.F.k..XD.u.y.N.B.[.oX].R.[.'.[.'.H.H.R.T.D.R.R.oX*X*XoXoX#XOXOXOX#XR.^.E.E.!.J.^.D.R.A.H.R.OXOXJ.#X-X.X.XR.E.E.^.R.R.A.A.H.!.l.k.J.F.J..XJ..XoXR..X]..X.XoX[.B.'.H.D.A.D.^.].N.R.R.J.R.F.R.J.F.R.oXA.B.g.A.J.J.F..X@XN.B.|.B.oXD.A.D.r.g.XXN.].@X]. .y.&.Q e.>XpXF. .8.6.o.c q.A.F.F.A.A.R.k.F.F.F.J.A.N.J.J.A.A.D.D.A.A.A.J.H.D.H.D.A.Y.D.u.J.R.A.N.A.N.V.H.H.S.F.u.S.R.F.A.D.E.E.D.g.D.R.A.D.R.].].oX].].J.].D.D.].J.A.J.F..X.X.XR.#XoXR.].J.R.].J.R.].H.].+X.X].].D.D.Y.D.g.A.J.F.Y..X.XJ.J.D.R.R.R.J.J.H.B.g.D.J.R.R.R.R.R.J.J.H.J.J.H.A.S.A.A.S.J..XJ.U.A.D.A.D.D.R.R.D.g.A.R.R.].].].Y.D.].].].H.A.D.^.Y.R.oXoX.XoXJ.R.D.R.J.R..XJ..XJ.R.].R.H.J.J.J.]..X]..X@X.X].@X+X=X+X'.oX.XoX.X'.].].R.].Y.D.R.R.J.Y.D.R.R..XR.J.D.F.XXR.e.A.N.D.D.D.D.D.R.[.].Y.R.Y.r.g.A.A.D.f.g.J.D.D.D.e.;. .R.7X7Xy. .f.=.",
"B.B. .g.e.J.B.g.T.g.f.&.J..XA.].D.B.T.].].@X@X+XT.oX@X-XoX@XoXXXoXoX-XoX.X].oXoXF.^.oXF..XR.oXB.H.'.].].#XoXT.'.~./.J.~.F.A.D.q.D.D.g.oXE.R.D.J.J.^.OXE.H.H.D.J.T.H.D.D.D.Y.Y.A.F.F.F.D.F.F.A.A.J.D.g.D.A.A.g.B.D.A.N.D.D.g.B.R.D.R.J.J..XJ.A.D.D.'.A.y.R.N.e.R.].D.J.].].H.H.].R.R.R.^.^.Y.D.k.E.R.E.R.oXR..X@XoX&XoXH.-X-X+X+XXXoX#XOXR.R..XR.#XOXR.F..XoX^.R.Y.E.^.Y.Y.R.T.R.Y.D.g.D..X.XF.F.~..XD.J.oXoXJ.#XR.R.oXD.R.R.J.R.J.J.J.H.R.].H.y.J.F.A.J.H..X.XH.R.].].R.oXD.oXoXk.J.R.R.B.y.H.V.A.J.J.7XA.oXQ E ..k...N u.w.r.r.....k.S.r.F.l.x.D.D.J.R.D.g.g.D.Y.A.A.D.B.N.C.H.A.A.D.D.D.S.F.F.k.J..XD.T.f.g.y.A.J.k.D.F.k.D.d.B.H.'.R.D.A.A.D.H.R.].'.B.@XR.H.XXF.D.J.R.Y.D.A.J.R.Y.D.R.R.R.J.oXR.B.'.].oXJ.F.J.R.J.A.A.S.A.S.A.k.k.D.A.B.D.Y.D.E.Y.Y.D.D.J.D.D.f.r.D.R.J.H.R.J.R.].R.H.F.D.g.D.R.A.d.F.R.D.D.D.R.A.A.F.D.F.D.F.D.J.J.oXE.E.Y.J.J.R.D.Y.D.k.Y.R.H..XoX.XA.J.].J.R.J.J.J.Y.oX.XT.].F.F.T.U.D.A..XR.R.R.].R.~.~..X+X+X@X@X.XJ.J.J.J.].^.J.D.F.Y.R.R.R.D.'.T.[.'.A.E.A.J.E.R.D.R.B.A.J.].R.R..XR.D.F.J.A.u.R.].R.K.A.A.F.R.].H.o.;.A.;.~  .R.u. .",
"%.H.B.B.e.B.e.q.e.f.A.u.J.].A.T.H.D.].'.H.'.{.+X].oXoXoX].oX.XoXoX.XoXJ.J.R.R..XOXOXoX^..XR.^.T.oXR.H.@X@X[.B.y..XXXJ.F.k.g.J.N.oXR.g.[.oXoXJ.A.k.d..XE.A.D.R.H.R.R.D.A.E..XJ.D.!.F.A.F.J.J.J.~..XR.D.J.D.D.A.g.D.A.g.g.D.A.B.A.D.A.A.H.H.H.H.J.D.R.H.D.oXA.q.R.E.E.J.H.'.J.H.R.oX~.J.R.E.T.D.D.J.J.Y.J..X]..X+X].&XoXD.@X-X=X#X.XJ.XX#XR.R..XJ..X#XoX.XOXOX^.E.E.oXE.E.J.D..XY.D.Y.Y.^..X~.~..X^.R.J.D.oXE.oXoXD.A.g.A.J.D.oXJ.].].J.H.].oXH.5.A..X;.e.H.J.].].J..X@XD.R.#XoXg...A.A.A.5.H.N.H.N.@XR.oXOXoXk.H ..;...H ..OXe.} N y a.S.T >.F.x.A.D.F.A.g.D.D.A.D.A.g.A.D.B.N.N.B.D.H.J.F.F.F.S.F.J..XD.D.f.g.f.g.D.D.R.E.A.k.u.B.T.'.T.D.D.D.S.].'.].R.B.R.T.[.R.J.J.D.H.R.D.g.^.J.D.Y.R.J.R.oXJ.oX.X].J.R.J.D.D.H.A.k.A.A.N.u.d.A.D.Y.D.A.D.D.J.D.A.J.R.D.F.F.U.D.D.Y.R.R.]..X].R.J.J.D.F.Y.J.g.D.D.A.F.J.F.R.D.D.A.D.D.D.R.F.J.R.].R.oXR.Y.D.D.J.R..XE.Y.R.R.H.R.].#XJ.N.u.J.R.].J.J.J.Y.oX.XT.H.A.F.Y.D.D.J.R.R.R.J.J.H.F.F.]..X].]..X].J.J.H.D.J.R.Y.Y.E.E.].].oX].[.[.2XT.g.oXD.A.D.R.J.R.H.].oXR.J.R..XR.R.^.g.u.A.J.y.u.F.J.A.u.A.H.B.5.~ Q ;.E K J..X .",
"6.B.y.e.N.J.y.e.*.f.g.g.A.].].+XT.T.].H.B.T.[.+X@X@X.XoXR.oX.XoX.XoX.XR..XoX.XoXoX#XoXOX~.J.Y.Y.D.R.@X@XH.R.T.f.R.~.D.D.k.g.R.D.A.D.D.E.oXR.Y.F.D.k.Y.A.B.D.R.J.D.R.D.D.OX.XA.J.F.F.F.F.A.J.~.~..XH.J.R.J.D.D.g.D.A.g.g.A.H.H.H.J.g.A.H.B.A.J.J.B.H.T.J.J.A.e.B.Y.].H.B.'.H.A.R..X^.~.R.F.A.D.J.F.J.E.R.oX.X.X.XH.&X&XR.@X-X@XoX.XN.J.@XR.R.@XR.oX-XOX.XOX#XoXE.A.D.J.A.Y.oXD.J.Y.Y..XoXR.J..XoXoXoX:XOXR.D.E.Y.E.E.A.D.u.&.oXR..X.X.X]..X.XD.5.D.oXe.u.R.]..X].R.R.@XD.A.R.J.B.D.oXJ.A.o.B.o.y.H.e.R..XE.E.k.OXA.N A...k.:Xr...N 0 ;.u.;.F.F.k.R..X.XJ.D.Y.Y.g.A.A.A.A.D.B.B.B.B.D.D.H.F.F.F.S.u.k.Y.Y.D.B.B.A.B.J.D.R.R.A.D.J.T.T.H.H.D.D.F.J.R.@X&X].].@XT.B.R.J.D.A.D.Y.Y.D.y.A.A.f.g.R.R.D.R..XH.J..XoX].F.D.D.A.A.S.A.u.u.u.D.Y.Y.T.D.D.R.J.J.D.R.Y.D.J.R.U.R.Y.J.J.]..X.X].J.J.H.D.J.^..XA.D.D.D.R.R.F.J.D.A.D.J.A.A.R.J.J.H.R.].].u.y.H.D.J.D.H.D.A..XR.J.].].@XoX].D.].]..XR.J.J.Y.E.E.T.H.D.J.E.U.Y..X].].]..X].R.].]..X@X.X].].].J.D.J.H.J.R.R.E..X.XoXR.oX=X@X[.[.f.f.E.D.D.D.].R.R.H.].].D.A.D.J.J.E.g.r.A.u.A.A.e.J.S.u.H.].u.y.H.k.U &.J. .D.F.K ",
"g.D.A.e.y.H.g.D.Y.J.u.N.N.J.oX.X].T.'.H.H.].+XoX#X@X.XoX].oX.X.X].oX].].oX-X.X#XoXOXoXR.J.J.^.J.F.D.oX#XoXT.R.E.J.F.k.D.J.J.R.D.B.D.oXE.Y.g.A.A..X.XY.u.R.R.R..XB.H.D.H..XJ.A.R.D.~..XF.k.A.J.F.R.f.A.D.D.N.D.D.D.D.A.g.u.u.g.D.E.J.R.J.A.A.H.J.D.B.H.H.t.A.D.g.'.].H.A.J.H.A..X^.^.~.^.Y.D.A.D.J.R.oX.X.XoXoX.XR.&X=XoX#X#XoX].].N.D.].R..X*XOX&X;X@XY.oX&XoXR.R.E.oXoX*.q.#X^.oXY.Y.R.R.R..X.XOX].D.oXoX-XoXY.oXoXR.oXR.H.oXR.@X@XOX.XS.g.u.r.E.D.J.]..X@X.X'.].H..XR.g.g.A.J..XD.A.A.y.B.u.B.B.R.D.#XoXu.oXE.*X#XD.&.u.A.~ ..$.N O.~.A.k.A.D.~.J.R.J.A.g.k.r.d.A.D.A.D.B.B.H.A.A.A.D.H.F.J.J.u.g.D.R.D.D.N.A.H.R.D.D.D.d.A.^.].H.D.H.J.A.F.~.E.R.R.]..XH.A.R.R.H.D.F.Y.D.D.Y.E.R.R.J.D.H.J.D.@X].u.g..XoX.XD.D.J.J.D.D.g.g.S.D.J.Y.J.D.H.J..XJ..XE.R.D.D.R.R.D.Y.F.D.D.J.].].H.H.J.H.D.Y.E.R.F.F.D.J.E.J.A.D.H.D.J.R.F.D.J.F.R.J.R.]..Xg.g.R.R.].J.B.H.D.].].)..X].A.].R.H.g..X.XR.J.J.Y.Y.Y.T.].R.Y.E.E..X].R.R.].].].].]..XoX@XoX].].].R.J.R.J.J.R.R.R.].R..XoX@XoX].R.R.g.A.R.D.oXOX.XJ.R.R.R.D.A.D.D.F.^.D.F.g.A.D.A.g.g.N.A.N.A.N.y.y.D.OX#Xg. .;.r.r.U ",
"o.D.R.y.' N.N.H..XJ.y.H.H.R..X].@XH.'.].R.[.oX[.oXoX].oX.XoXR.J.E.oXY.Y.R..XD.R.&XoXR.A.~.~.#X.XE.oXOXR.oXD.Y.[.R.J.D.D.R.R.E.E.].R.].J.R.D.D.A.D.Y.D.u.J.R.J.R.Y.D.A.J.J.D.H..X~.R.~.~.F.A.F.^.g.e.D.D.D.D.D.A.u.g.B.A.A.B.D.[.H.[.].J.J.H.H.J.T.H.H.A.y.J.R.J.oXoX].H.D.J.^.oXOX^.R.R.E.Y.D.D.F.R..X.XY.].oX.XoX@XoX.XoXoXoX#XR.J.J.J.].oXOXOX@X;X@XR.[.oXoX@X.XD.#XoXg.J.J.D.oXJ.D.R.^.oX.X~.J.R.D.^.J.oXR.*X].E.@XR.E.#XR..XOXoX.XJ.e.O.r.F..Xd.R.@X].].].H.].J.H.R.D.A.D.y.oXB.g.J.g.q.g.y.u.D.@XR.E.D.oXoXD.e...} q.OX..} L ;.&.k.F.~.J.R.~.D.D.D.u.r.D.F.g.k.A.D.D.D.D.D.D.g.g.D.F.D.D.R.R.D.D.Y.N.D.y.g.D.D.A.A.D.f.u.A.D.D.D.R.R.J.D.D.g..X-X-XoXJ.R.#XJ.J.J.E..XD.k.D.oXR.J.D.g.A.D.A.A.R.A.t.D.R.#X'.Y.E.R.J.D.g.g.A.J.D.D.Y.J.D.D.R.F.R.F.F.F.J.R.D.F.D.D.J.R.].].].A.H.R.J.D.R.R.D.A.H.R.R.D.g.B.J.Y.R.R.R.].R.D.D.D.R.R.A.J.R.J.A.R.R..Xg.oXR.J..X].@X.XA.R.].R.T.R.R.R.J.F.Y.Y.Y.'.].R.R.^.E..X].].'.J.'.].R.R.R.]..X].].].R.J.].R.J.J.J.D.H.J.J.A.#X].y.%.y.H.R.oX.XA.E.oXR.D.J..XR.A.B.J.Y.Y.E.F.R.J.J.~.J.D.k.y.u.N.N.y.y.H.R.D.Y.&.Q H .Xr.L ",
"&.H.D.g.O.H.H.'.D.g.y.H.R.J..X@X+XR.[.oX].R.R.E.oX.XR.oX.XoXR.J.Y.E..XE.E.E.A.A.E.Y.E.R.oXF.oXOXD.*X*Xg.D.Y.oXY.R.].Y.R.E.Y.Y..XR.A.D.A.R.J.R.R.D.A.J.k.e.A.J.H..XD.A.Y.R.J.F.F..XR.J.J.~.~.~.oXA.A.D.e.y.D.B.D.D.D.D.H.D.B.B.H.g.T.T.H.R.J.H.J.R.E.B.g.J.D.f.oX'.+X].G.N.R.*XOXoX.X.X~.T.D.H.R.R.J.E.E.D.J.R.J.oXoX].oXoXoX.XOX.XoXR.J..XoXE..XD.@X@X[.[.].[.@X.XA.].-Xr.d.>XR.R.D.D.R..XoX.X^.oXoXR.R.E.R.F.Y.oXoX-XD.g..XD.-X#X.X.XR.g.e.k.R.oXE.D.]..XA.H.T.H.B.u.A.D.B.D.y.A.g.g.].y.e.g.e.y.B.D.R.Y.D.E.-Xq.&.} z r.r.r.r.L y k D.J.A.H.H.g.g.A.r.w.u.F.F.R.g.u.k.A.J.Y.A.D.A.A.J.J.D.D.Y.Y.g.A.D.g.H.g.f.A.A.D.Y.J.D.A.A.g.D.D.D.H.R.J.A.g.*XOXg.t.D.@XoXF.E.Y.J.R.Y.D.T.H.J.R.J.D.R.R.g.N.XXJ.u.J.B.@X@X.X.XY.J.J.D.g.g.A.u.g.R.J.H.H.J.F.F.F.~.R.D.F.F.R.F.J.R.].].].].A.J.R.J.D.R.R.A.D.J.R.R.D.g.A.J.R..XR.F..XR.A.A.g.D.R.B.A.H.J.A.D.A.H.e..XJ.H..XJ.J.A.H.R.oXR.[.J.J.R.H.D.Y.Y.E..X].H.].oX~..X@XoX].R.R.].].R.R.R.R.E.E.E.J.H.].J.D.H.J.J.J.R.].].@Xg.%.o.%.e.H.#X*XY.E.E..XR.H.]..XJ.A.D.E.E.F.D.A..XD.r.u.A.u.N.y.N.H.B.B.'.'.U.} &.K Q J.u.e.",
"5.D.e.O.5.y.b.H.J.A.g.B.H.D.].+X+XR.+X@X].E.E.E.oX.XJ..X.XoX.X.XY.E.OXoXoX^.J.J.D.U.oXoX.XA.J..XoXY.A.D.^.oXE.E.J.R.R.R.E.D.z.Y.R.D.J.D.D.A.A.R.OX.X.XJ.q.S.R.J.R.D.A.D.].J.A.A.R..XD.A.J.R.F.~.e.A.R.D.H.H.6.6.g.A.B.g.B.D.D.H.g.B.D.H.H.D.D.J.T.T.A.d.Y.g.e.R.H.].'.A.A.H.J.R.^..X.XR.D.B.H.].E.J.Y.E.A.D.D.A.R.[.].oX^.oX^..XoXoX.XE.E.E.E.[.D.[.oX].].R.R.@X-XJ.]..XoXoXJ.F.H.H.H.R.E.E.R.oXJ.@X#XoXA.D.^.oXXX.XoX.XR.*XoX#X@X].].E.Y.F.Y.Y.OX#XY.R.#XH.H.'.N.y.f.B.D.f.g.A.A.D.g.J.u.g.q.q.A.@XB.D.R.-XH.B. .q.D...~ w.r.A.&.E &.D..XD.A.H.A.F.S.A.A.J.!.F..Xf.e.g.A.D.Y.D.A.D.D.J.J.D.D.D.g.e.B.D.g.R.D.g.D.B.D.Y.H.E..XJ.D.D.D.A.D.J.R.J.oXOXR.E.D.R.].J.Y.oXY.D.E.R.U.oX.XD.R.#X.XD.k.u..X#XR.A..Xu.R.'.oXoXY.A.D.D.A.A.g.q.f.H.D.H.R.J.J.J.J.~.J.A.J.~.J.F.F.J.R..X].].J.H.J.J.J.R.R.D..XR.R.J.D.D.J.J.R.Y.R.D.J.R.D.A.D.g.H.T.H.A.J.J.H.A.A.A.J.H.R.oX#X.XR.oXoXoXU.E.R.J.R.D.A.Y.Y.oX+X].H.R..X~..X@X.XE.R.R.R.].E.E.J.R.^.^.E.Y.D.J.R.H.J.R.R.].].].#XoXB.H.D.g.e.B.oX-XOXoXE.oX.XJ.J.]..XR.Y.oXoXR.g.D.J.&.O.O.} u.g.H.H.g.N.T.T.y.g.&.D.y.' H.g.O.",
"&.J.&.U N.].).).F.A.A.g.H.H..X@X].'.[.oX].@XoXE.oX~.D.J.J..XoX@XoXE.OXY.J.J.E..X[.oXY.Y.R.~.~.J.E.F.D.OXD.E.R.oXR.R.J.J.E.Y.A.Y.].H.R.R.D.A.g.J.E.oXJ.F.u..XH.J.R.E.A.g.R.D.A.~.].].D.H.R.d.e.J.Y.Y.D.B.B.B.5.H.A.H.D.y.g.D.].oXR.B.D.R.D.B.H.H.A.f.A.A.A.k.A.D.'.+X'.J.R.u.&.r..XJ.F.D.R.T.H.D.R.D.A.E.D.Y.J.D.H.].R.Y.F.oXOXOX-X.X.XoXR.Y.oXOX@XOX].R.R.R.R.oXoXJ.D.J.R.F.R.^.J.R.H.J.R.R.R.oX.XOX].J.&.Y.@X^.~..X~.OXA.D.OXOXoXR.J.D.D.Y.Y.D.E.Y.oXR.#X@XH.'.N.y.H.D.R.B.f.g.A.B.e.g.g.A.O.r.D.[.R.y.R.8X-X2XY.J.N  .q.r.O.r.A.;.D.;.A.H.J.H.J.F.A.u.S.~.~.!.A.*.e.D.A.A.Y.g.g.D.J.D.A.H.D.D.D.y.D.B.g.R.H.D.D.g.D.D.A.R.].D.R.A.A.R.E.J.J..XOX-XoXOXJ.oX@XJ.E..XE.oX*XE.D.oXoXJ.].oXR.R.R.g.A.].A.q.R.B.@X'.E..XJ.g.g.A.D.J.Y.f.g.D.u.A.].J.R.R.D.D.F.R.oX.XH.F.F.F.J..X.XR.J.A.D.R.R.R.R.J.R.R.R.J.A.D.R..XJ.A.J.A.B.R.J.A.R.y.g.H.].]..XA.D.D.A.oXH.D.].).J.J.oX].R.D.U.U.].R.].D.A.H.Y.oX.X].H.D.J..X.X[.oXoXoX.X[.].[.oXD.R..XE.E.R.J.H.R.J.J.R.].].].'.H.oX[.+XT.].R.D.D..XY.J.g.B.B.g.g.A.R.oXR.Y.^.E.D.u..Xg.u.k.u.k.N.H.y.y.H.'.'.H.Y.Y.u.L u.A.u.Q ",
"&.R.&.} q.OXoX].B.N.N.D.H.oXR.E.[.+X@X]..XOXE.E.oX].].R.R.].oXoX@X].7XR.F.OXoX&X^.D.D.E.Y.D.D.F.D.*XE.E.g.D.@XE.oXD.Y.E.D.U.E.U.D.E.D.E.A.g.A.A.oXT.Y.Y.g.F.D.^..XJ.A.g.A.D.D.U.D.u..Xu.F.F.k.k.f.Y.Y.J.g.A.J.g.e.B.e.y.e.f.A.A.A.F.A..XD.A.u.u.u.D.D.].J.D.J.#Xd.E.Y.Y.Y.A.H..XY.A.oXD.g.F.g.R.oX.X.XJ.R.J.R.H.H.J..XJ.R.D.&X|.R.J..XR.oXR.R.^..X[.Y.oXk.F.oX.XoXJ.D.E.A.D.oXoXL..XJ.J..X.XoXoXoXoXoXJ.F..X.X.XOXoX.XoX~.S.R.#X@XR.R.~.F..XY.Y.D.g.g.D.*XoXy.A.J.Y.R.#XE.y.y.A.v.Z.y.D.u.y.d.r.V.|.,X2X'.=X2X'.E.e.t e.-XD.Q y.F.O.O.;.g.D.D.F.D.F.A.g.g.T.D.T.g...g.J.k.D.Y.J.J.J.R.T.R.R.H.B.k.D.k.J.F.u.D.S.F.D.g.F.J.A.S.A.A.~.A.e.A.u.R.OX>X-XoXOX.X7X.XJ.OXR.A.oXoXR.OXR.F..XR.J.F.D.J.J.r.A.g.D.J.H.].R.E.R.R.J.S.S.D.A.F.g.F.J.J.Y.q.J.J.J..XD.A.E.R..XA.D.D.D.Y.R.R.E.R.D.D.D.F.A.R.OXH.g..XR.D.D.E.E./.J.k.r.u.D.J.R.D.R.H.D.H.F.].F.'.Z.N.J.D.u.k.F.].-X.X@X@XR.oXY..X.XR.F.D.R.oXoX.XoXJ.J.J.J.XX.X.X]..XoX.X.XoX#XXXoX.XOX.XY.k.Y.].].].R.R.R.E.E.J..X+X+X+XoXR.A.k.F.D.f.D.u.e.u.q.B.J.].#XoXJ.oXR.B.D.A.D.D.g.R.J.u.e.g.S.J..XJ.T.D.^ E 9X9Xe.W ",
"6.D.A.y.A.F.A.].'.N.g.D.H.E.R.E.H.].@X@X.XY.J.E.].R.]..X.X.X.X.X.XoX-XoXY.Y.^.OXOXoXOXOX^.D.D.R.E.*XoX[.h.A.U.D.R.^.Y.T.oX[.U.U.Y.Y.Y.Y.D.A.D.D.[.E.Y.f.f.R.J.D.R.R.D.D.D.D.A.A.oXA.Y.q.A.J.F.R.D.A.A.H.g.B.g.y.g.R.D.B.g.y.q.g.F.R.F.S.A.J.S.r.g.g.;.e.R..X.XXXd.D.Y.Y.].E.Y.].E.D.E.D.F.^.D.Y.oXD.Y.E.D.H.oX'.J.J.J.].J.H.@X&XA.u.Y.J.R.J.F.J.oX&XoXoXOX~.~.#X*X.X#XY.oXoXg.Y..XS.;.q.F.OX-XOX^.-XoX.X.XF..XXXXX~.J.XXoXR..XOX@X].D.F.D.F.Y.T.B.D.y.R.OXoXA.A.Y.Y.D..XOXD.f.g.C.'.N.N.R.Y.q.g.N.H.H.'.+X2X|.@XoXU.s.oX&XD.} Q F.N N J..Xe.A.A.D.F.F.g.f.B.D.[.Y.g.g.D.R.R.D.A.F.H.H.R.'.R.A.g.u.A.u.A.k.g.F.u.A.A.g.A.F.F..XR.k.^.R.D.u.p.R.OXoXOX-X#XR.-XXXu.#X#XR.F.f.f.oX^.F.F.k.J..XR.H.A.A.J.f.J.B.D.].#XoXJ.D.A.A.A.A.g.S.r.S.A.g.R.D.D.D.D.J.A.g.Y.J.J.Y.Y.D.D.D.F.F.Y.D.D.H.A.R.R.oXoXH.F.J..XA.J.R.J.r.F.~.!.A.A.R.oXD.Y.A.D.R.F.F.G.H.'.].R.g.y.k.J.A.]..XoXR.D.E.Y..XJ.S.S.F.J.E.E..X.X].].J.J..X.X.X.X.X.XoXoXoX@X@X.X.X.XD.A.A.D.J.R.].R.R..X^.R..X].'.+X2X-XoXE.J.E.Y.A.oXH.u.e..XD.g.A.oXoXR.oXH.R.].A.A.B.g.J.g.e.e.r.e.r.J.XXH.R.D.&.>X9Xg.' ",
" .B.g.O.g.u.D.D.].H.J.J.D.g.J.E.H.#X].].J.oX.XD.J.R.R..XoX.X.X.X.XoXE.oX.XY.oXoXoXoXoX^.Y.g.f.A.E.OXE.[.D.D.T.h.oXY.^.E.A.T.D.=..XY..XY.E.Y.Y.Y.E.oXOXA.y.u.k.Y..X].R.J.Y.D.A.A.A.A.oXD.D.F.D.F.f.u.A.D.e.e.y.A.g.A.y.q.g.g.y.R.A.A.A.r.e.r.g.S.k.oXoXR.#X.X.XOXoXY.E.D.J.E.H.R.E.E.E.Y.E.^.D.J.f.g.A.R.].T.D.R.oX.XJ..XB.H.[.[.D.d..X.XE.^.J.R.oX[.Y.Y.F.L.~.@X-XE.oXoXJ.R.E.A..X~.A.D..XoXoXY.oX.XoX-X~.J.OX`..X.X.X#XOX~..XOX@X].D.J.~.D.Y.J.E.oXk..XOXY.R.D.E.oXY.D.E.E.Y.D.]..XH.D.OXOXg.r.H.u.H.+XH.].@X@XE.e.E.oX=Xy.} } V O...J.oXu.d.d.D.k.A.F.R.D.f.y.J.R.g.d.R.J.D.J.F.A.N.H.R.J.d.;.d.D.F.J.k.g.J.S.D.J.D.D.F.F.J.J..XJ.A..XJ.F.J.R.OX.XJ.r.D.7X#Xk.Y.oXoXY.y.y.R.E.F.J.A.D.D.A.A.g.R.D.e.D.A.D.J.#XoXJ.D.D.A.A.A.g.g.O.k.J.A.A.R.R.R.J.J.D.D.E.^.J.E.Y.A.D.Y.E.R.F.D.J.R.D.R.oXE.A.].J.A..XA.g.J.J.F.F.J.F.k.A.J.R.D.Y.D.R.R.H.J..XH.H.H..X.XD.A.J.@X].J.J.R.R.E.oX].S.g.D.J.J.J.R.].]..X].]..X.X+XoXoX.X.XoX@XoX.X.X].oX.XD.A.D.g.H.H.H.J.R..XE.Y..X]..X@X[.H.H.].^.OXOXoX@XD.g.D.oXR.H.e.H.oXoX.XoX.XXXJ..X.XJ.A.&.} O.g.S.J..X].T.q.y.-XuXY.! W ",
"%.B.H.} u.H.R.D.H.N.N.D.J.J.oXE.A.g.O.H.R.F.Y.E.J.J.R..X.X.X.X.XoX.XD.R.oX.XE.oXoXoXE..XoXE.R.oXY.E.R.oXR.U.E.Y.Y.E.Y.D.E.oXY.g.oXY.oXE.oXE.D.D.D.D.Y.k.A.r.k.R.R.R.J.F.J.D.A.D.D.A.F.D.F.~.R.^.g.u.A.A.f.H.D.J.A.h.f.f.A.J.y.D.A.y.u.B.D.D.u.g.u.J.R.H.J.D.J..XoXY.Y.D.D..XoXOXY.oXE.Y.E.J.D.R.F..XT.E.@X@XT.=X#X@X].J.e.H.R.D.D.k.^.R.R.R.k.J.R.Y.R.oXF.OX~.oX].oXY.Y.E.R.oXoXJ..XR.R.R.J..XoXE.OXOX.X.X.XJ.XXoXoXoX#XoXR.^.oX@X@XE.R.OXR..XoXY.Y.E.oX*Xr.D.g.D.oXY.g.g.E.E.y.y.].-X#XoXE.^.D.H.D.B.R.T.'.1X@XoXL OXT.D.q.~ Q 9 J O.R.R.g.u.A.A.k.F.A.D.g.f.f.e.R.D.A.R.A.A.J.S.N.A.J.R.A.r.;.A.A.D.R.A.u.D.D.g.A.D.H.J.J.J.F.R.H.D.oX/.F.F..X#X7X#Xu.u.J..X#Xg.g.D.E.D.h.Y.E.u.F.F.d.f.A.D.H.#XR.R.oXoXJ.R.R.E.J.J.J.A.g.g.g.S.O.r.J.F.k.R.J.R.R.J.J.F.R..XD.R.H.D.J.Y.R.E.R.J.R.R.J.R.E.Y.A..XD.J.R.J.e.D..XR.d.u.k.D.R.R.g.D.R.Y.J.R.J.R.#X5.H.R.D.D.H.D.A.H.J.].J.R.D.g.oX].D.A.F.J.F.J.R.R.J.].R.R.oX.XOXoXoX.XR..XoX.XJ..X].@X.XE.D.J.D.H.H.D.H.R.R.Y.J..X].]..XoX].].[.oXoXoX@XoXg.y.J.].oXoXg.H..XoXD.~.J.oX*X.X.XoX].q. .t.J..X.XR.u.Y.&.:.>X7XY.g.' ",
"N.N.oXq.A.^.g.R.@XR.A.g.D.D.E.k.R.OXu.~.R.R.R.D.J.J.R.R.].R.R.R.E.E.Y.D.E.E.D..XR.].R.R..XE.Y.^.R.Y.R..XoXE.oXE.E.^.Y.D.Y.T.B.g.R.H.Y.R.Y.E.A.D.J.oXoXY.E.D.J.R.F.J.F.D.F.D.D.F.oX.XR.J.D.R.Y.R.f.q.f.g.e.A.g.D.A.g.f.A.e.D.e.u.D.A.A.N.y.D.u.g.A.A.D..XR.R.].R.E.oX.XE.Y.D.E.Y.F..XJ.J.].J.H.R.Y.D.D.R.H.].'.R.oX.X.XJ.g.J.R.D.D.J.^.Y.^.R.g.R.J.oXE.D..X#XR.@X-X].-XD.E.E.A.D.~..XF.H.J.R.oX#XOXOXoX@XJ.J.#X.X@XoXR.^.oX.X.XR.[.E.E.A.R.^.^.oXA.e.D.F.OXg.Y.R.Y.D.Y.D.A.E.Y.} L g.J.J.g.E.A.A.g.].J.R.y.y.=XT.D.D.q.@X3X!  .q.J O.@.F.D. .} J.k.k.S.k.A.A.D.F.A..XJ.A.A.g.D.J.g.A.]..XR.g.d.k.R.A.A.J.J.D.D.A.B.g.A.J.R.R.D.D.S.H.H.H.^.A.A..XqX@XR..XOX#X.X~.oXJ.E..XY.Y.T.Y.k.D.A.u.g.D.D.g.J.].-X7X#X.XoX#XR.J.J.J.A.k.A.A.A.A.D.A.u.e.J.Y.R.R.Y.J.J.R..XJ.J.J.].E.D.A.Y.oXR.R.R.].R.Y.Y..XR.D..XR.R.A.D..XR.g.u.A.A.F.Y.A.D.J.D.A.J.J.D.H.D.].J.A.D.J.H.D.y.J.R.B.R.J.g.oXJ.J.F.J.J.F.J.].R.J.R.J.R.oX].XX]..X].R.]..X.XR.@X@X.XJ..XA.A.E.R.J.J.J.J.J.Y.Y..X.X].J.R.+X@X[.#X+X[.2X8X@XR.oX[.D.A.B..XoX.XY.p.u.J.:XA.R.oXR.g.g.J..XJ.J..X].Y.D.Y.q.yXg. .o.",
"y.A.u.e.D.D.D.A.H.R.A.B.J.Y.oXY.^.A...J..XD.J..XJ.J.R..X.XR.R.J.F.F.D.g.oXR.D.R.].oXoXoXE.Y.Y.R.E.Y.E.E.oXE..XR.oXY.E.oXE.E.oXR.R.Y.H.R.D.E.D.Y.F.J.J.R.J.f.g.A.R.E.R.R.R.F.A.D.R..X~.R.D.k.A.A.f.q.f.A.y.y.f.J.D.f.q.f.&.D.A.A.g.D.A.A.O.q.q.A.u.D.R.-X].J.F.D.f.Y.Y.E.E.Y.OXoXR..XJ.J.].R.H.H.F.D.A.R.]..XR.H..XJ..X.X.XJ.Y.E.g.H.J.J.R.J.g.J..XY.E.y.J.J.OX@X@XD.H.oXA.*XOXR.oX.XJ.R..X].R.J.oX2Xg.H.#XR.#X]..X.XR.E.^..XoX^.Y.Y.oXD.J..XR..X*XD.J.F.J.g.e.d.J.g.D.OXY.D.D.*.k.D.F.D.O.-XA.D.F.OX#X@Xf.f.qXH.;.oX].e.@Xy.*.g.w w.w.A.J.&.O.u.d.k.S.A.R.Y.k.u.OX.XD.A.g.S.].F.A.S.J..XR.D.A.F.J.J.D.A.D.J.H.A.J.A.H.J.R.J.g.B.R.D.D.D..Xr.q.E.-XD..X7XXXOXOX.X*X.XOXR.D.Y.D.J.R.D.g.r.u.g.e.g.D.R.oX-XR.@XoXOX.XJ.H.F.D.F.D.A.A.J.J.D.u.q.g.Y.R.R.E.Y.J.R..X.X~.J.J.R.D.D.E..XR.J.J.].J.Y.E.#XR.R.J.A.A.OXR.~.].D.D.J.D.A.J.J.D.D.J.F.J.J.D.A..XA.u.D.R.B.u.g.A.oXR.y.J.@XR.@XD.J.J.J.F.J.R.].R.J.Y.Y.E.oXoXoXoXoXoX.X.X.X.X.X].@X].H..Xg.f.E.].R.R.R.R.R.R.].R..XR.D.A.R.[.}.'.@X=X@XT.H.H.R.T.B.e.q.D.OXoXoXk.A.~.OXr.J.OXA.A.A.A.A.D.R.OX#XD.f.8Xy.@XoXB.g.",
"y.H.&.&.D.D.*Xg.J..Xg.A.R.E.R.g.!.L.w.d.A.D.R.J.~.R.R.R.R.R.R.R.Y.F.g.y.oXB.A.R.J.R.E.].R.E.oXoX[.Y.^.R.E.E..XY.E.OXR.D.oXY.g.J.E.E.R.E.R.Y.R.E.F.k.r.J.J.A.D.H.R.^.^.~.~.F.D.F.D.A.r.k.J.Y.R.A.z.q.*.g.f.g.g.g.Y.A.f.A.A.D.H.A.B.A.g.J.D.A.e.q.A.F.A.F..X^.J.F.A.E.E.Y.Y.Y.R.oXE.R.].].].].H.N.J.F.A.A.].].].@X+X]..X]..XF.D.oXR..XR.@XR.J.J.R..XD.^.R./.J.-X].@X#XD.*XR.oXE.E.^.R.D.J.R.R.]..X@XR.y.H.@X]..XR.R.oXoXoX^.R.^.R.Y.^.OXOX^.oX.X.XF.u.F.F.J.J.u.f.A.g.A.E.D.g.D.D./.!.!.F.&.F.E.Y.^.8X].J.qXqXqX=XF.u.oXg.D.g.y.*.@...;.J.S.u.~.u.d.A.L.J.A.g.f.A.R.J.E.R.J.J.H.N.D.A.D.J.R.H.D.D.A.J.D.g.N.A.A.J.H.A.H.J.J.R.A.D.].H.T.].J.q.;.^.@X.XoXJ.J.R.~.~.d.r.J.F.k.D.A.J.F.k.u.e.e.u.g.J.@X]..X#XR.#XE.J.oX.XR.J.J.Y.D.g.J.k.g.D.J.J.D.A.E.J.R.D.A.R.J.R..XA.A.F.J.E..XY.J.R.J.J.D.E.E..XR..XA.u.u..X^.J.A.A.D.].oXE.J.D.D.A..X.XD.J.J.R.A.F.~.J.D.A.D.A.N.H.R.J.R.].R..XF.J.J.J.J.J.R.].R.R.J.R..XoXOXoXoXoX.XoXoX.X.XoX'.+X].].R.D.f.D.R.R.R.].].R.R.R.'.A.g.A..X@X@X+X#X5X5X@XN.y.f.R.'.].g.&.e.^.Y.R.J.OX*X.XA.D.OXY..X.XJ.D.oX-X-XOX*Xe.Y.J.B.D.e.D.",
"H.N.A.&.A.Y.R.U.D..XN.A.D.D.D.R.F.!.J.R.J.A.].#XJ.J.D.D.D.H.J.R.Y.^.k.y.R.o.g..X@X].R.R.Y.E.oXE.oXR.oXY.^.E.E.J.Y.Y.D.Y.E.].R.R.Y.E.R.R.E.A.Y.D.x.!.R.R.e.y.D.H.D.D.D.F.J.F.F.F.F.J.D.J.oXJ.R.A.A.D.g.D.g.A.Y.A.Y.D.g.u.A.e.H..XH.oXJ.A.D.J.J.t.u..XJ.S.#X^.D.D.D.R.oXJ.R.^.F.oXD.F.oX@X].].H.H.J.r.D..X.XJ.@X].}..X].D.F.F.A.oX#XoX].#XD.A.R.D..XR.D.oX/.~.oX-XD.%.oXoX.XY.OXY.D.J.F.R.oX]..X.X@XT.R.H.oX].e.@XoX#XoXoXoXR.D.f.D.Y.D.oXD.D.R.R.R.F.!.u.D.A.J.R.D.D.A.D.Y.D.D.Y.F.!.r.r.>XJ.*Xg.D.OXOXJ.&X+X'.+XR.J.A.D.R.-X]  .J y O.J.F.r.r.u.u.p.k.J.J.Y.A.J.R.R.oXR.A.A.A.H.A.D.J.J.D.B.B.D.R.J.A.N.H.A.B..XH.H.].J.J.R.A.A.J.H.H.H.S..XS.A.].2X.Xq.#X:X~.J.k.w.J.^.A.u.;.k.F.A.A.u.d.D.A.J.J.N.R..X.X#XOX.X.XoXoX.XF.D.g.e.A.A.D.D.g..XoX.XoXJ.^.D.A.R.J.R.S.u.A.J.D.D.D.A.J..XJ.H.D.oXoXY.F.R.D.A.J.F.~.D.J.H.A.D.J.D.A.T.^.A.R..XD.F.J.Y.A.S.J.F.A.D.J.H.J.5.e.].].J..X+XR.Y.F.J.~.R.J.J.R.^.Y.E.E.Y.oXR.R.H.H.R..X.X.XoX].@X].].D.H.D.Y.D.D.H.R.].R.T.H.J.u.g.].oX].T.}.@X'.T.@X[.'.T.oX'.'.y.e.u..XD.E.#XoXR.g.#XoX*XE.g..X.XD.Y.]..X@X#XD.J.R.g.R.R.] ",
"y.].N.u.R.E.D.*X~.O.O.g.r.D.Y.D.D.D.J.J.'.H.H.'.R.D.R.D.J.J.A..X].D.B.H.H.J.+X].E..XD.A.oXY.R.f.R.F.R.E.Y.R.].R.D.Y.D.Y.R.T.T.'.R.^.R.E..XR.J.F.F.F..X~.A.f.g.oXA.H.J.J.J.D.D.D.F.F.F.J.R..XR.D.S.w.p.F.D.k.F.F.D.R.J.R.J.N.A.N.R.oXE.J.A.D.].g.g..X.XH.R.'.B.f.D.R.Y.J.E.E.R.oXXXXX~.oX.XD.J.J.Y.Y.E.D.Y.H.R.D..X.X.XD.A.D.D.F.D.R..XR.R.R.R..XE.Y.Y.D..XoXD..XJ.f.oXJ.OX+XF.+XD.R.E.R.~.oX#X#XE.E.E.R.R.A.E.oX.XOX#XoXR.E.Y.A.J..XJ.].R..XJ.D.D.R.R.]..XR.#XD.J.H.R.R.R.D.R.].R.R.A.D.g.k.oXD.-XD.zX7XD.#XoXoX:X:XD.&.*Xo.I o.n n e..XA.y.&.r.u.r.D.u.D.~.A.r.T.B.oXH.g.D.D.y.J..XD.R.u.A.D.~.L..XS.A.u.A.D.D.H.B.J.].H.J.R.g.D.J.J.A.u.A.J.R.OX#XJ.H..XoXJ.F.q.q.A.u.q.D.Y.oXD.f.J.A.J..XR.@X].H.#X-XE.R.J.J.E.E..XY.]..XF.~.Y.g.Y.J.e.Y.E.oXJ.~.~.F.J.F..X~.A.D.J.J.J.J.J.J.D.F.D.g.B.T.R.T.D.^.oXk.R.R.R.A.D.D.A.A.A.g.g.D.Y.F.D.D.F.J.Y.J.D.Y.D.R.J.R.S.F.D.R.]..X].D.J.OXE.R.Y.T.].R.G.).R.].E.R..X.XR.A.d.D.F.F.R.~.~.~.R..X.XJ.F.J.D.A.R.D.D.D.R..XJ.D.H.H.A.D.J.J.R.R.#XH.B.R..XoX#X.X'.T.N.e.A.J.F.D.^.oXA.;.R.g.@XH.OXE.oX#X.XJ.R.-XqXqXR.k.OXoX . .",
"y.y.A.N.g.R.*XY.e.} g.R.Y.k.g.A.D.^.g.D.H.T.@XH.OXA.D.D.A.D.J.R.R.R.R.].R.J..X].A.A.g.Y.oXJ.oXY.E.R.E.^.R.J.J.J.F.R.D.D.F..X.X@X^.oXY.F.^.oXoXR.F.A.F.F.R.E.F.D.N.A.A.B.B.D.J.D.D.D.A.A.D.R.E.R.A.A.S.F.A.F.J.g.Y.OX].J.J.R.J.g.f.A.D.B.u.A.F.F.d.A.R.R.B.D.H.N.E.R.A.A.R.[.R.R./.~.J.J.J.H.R.^.Y.Y.Y.D.R.E.oXoX.X.XoXR.F.F.D.F.F.R.J.D.R.#X.XJ.Y.E.oXE..XoXR.oX-X-X>XH.~.OXXX.X.XR.J.R..X.X.XR.E.E.R.E.E.F.E.oXoXoXOX*XOXE.Y.oXD..X@X.XR.oX].R.D.R.R.H.H.B.R.A.q.e.A.J.J.H.R.R.R.oXA.q.;.e.A.F.J.A.*X#XoX-XR..XF.w...D.-X .b 5.} f.y.oXu.u.r.O.w.F.k.F.A.~.O.u.f.y.H.D.&.g.g.e.J.R.F.oXD.k.k..XL.J.A.A.r.g.A.H.D.R.D.B.D.J.D.A.D.D.J.D.g.N.J.].OX~.H..XA.N.d.u.&.q.N.g.*.J..XE.D.g.q.H..XA.XXJ..X.X-X-XR..XY.D.E.@XE.D.H.R.R.F.u.A.J.Y.g.y.R.E..X.X.XJ.R.D.J.J.H.F.F.F.F.F.J.J.Y.J.A.A.H.R.H.g.oXoX.XA.J.J..XR.D.A.D.A.R.A.R.g.g.g.g.k.A.D.A.g.Y.J.g.A.H.~.F.F.@XoX].].J.F.R..X[.E.Y.H.]..X)..XR.R.J.J.R..X.XJ.D.R.R.F.F.R.J.!..X.X.X.X^.R.Y.Y.R.R.^.Y.F.Y.Y..XJ.H.A.D.J.R.J.J.].].R..X.XR.E.oXT.B.g.g.D..XR.g.A.~.r.S.g.4.N.T.oXE.oXoX.X].R.].'.e.g.r.-XOX} U ",
"%.B.@XoXD.g.Y.OXq. .J..X.Xg.f.g.R.Y.J.H.H.T.#X5.u.R.Y.A.D.H.~.XXA.D.D.].].J.].H.E.E.D.A.D.Y.*XY.R.E.R.E.E.J.D.H.F.F.F.k.A..XD.A.Y.R.A.D.R.].].J.D.!.R.q.e.E.E.f.N.H.J.D.A.D.A.g.Y.Y.Y.Y.J.D.g.y.k.F.F.F.k.~.J.g.k..X.XD.D.J.~.F.A.A.J.k.B.D.A.J.F.F.A.A.A.D.H.R.oXE.Y.Y.E.E.].].~.R.R.J.J.R.R.^.oXY.Y.D.R.R.].E.OX.XoX.X.X.XJ..XOXR.J.J..X.XD.H.E.oXoX.X].R.R.J.J.oXoX#XXXS.J..XoXR.J.R..X.X.X~.^.E.J.E.E.R.E..X#X#X.XR.oXE.D.A.].J.oX.XR.R.H.R.N.A.D.A.R.J.R.H.u.g.H..XR.R.R.R..XR.Y.oXOXJ.A.H.O.Y.-X-XH.D.H.].#XJ.N -XA.-X6.P ;.k.;.J.S.k.e.&.p.p.F.J.A.A.;.u.B.N.D.B. .g.oXoXJ.R..XR.A.k.J.OX#X.X~.XXF.A.A.H.A.J.D.D.].R.A.D.g.B.J.R.J.A.D.R.XXJ.A.@X@XoXJ.D.u.u.q.g.Y.Y.g.A.F.f.A.oXOXF.XX.XA.oXoX#Xg.J.R.R.&X-XoXE.J.J..XD.g.J.D.Y.E.y.Y.Y.J.J.F.J.R.D.R.^.J.J.D.D.D.J.R.R.R.R.J.D.D.H.H.H..XJ.R.F.R.D.J.D.A.A.D.Y.D.J.R.f.D.D.F.F.Y.R.Y.D.A.D.D.J.R..XJ.~.T.H.H.R.J.J..XF.E.Y.J.H.].@X].].E.J.F.D.J..X].J.J..XoX^.^./.^.oXOX.X].oXoXJ.D.Y.D.D.R.R.^.oXR.J.J.D.N.D.R..XR.J.H.oX].]..XJ.Y.oXT.B.D.D.A.J.R.g.F.k.w.A.oX+XT.H.u.A.oXoXR.J.J.R.tX9XO.d.oXoX@X..",
"5.].H.oXR.Y.g.-XJ.A.R.N.y.u.f.Y.A.g.Y.R.H.H.y.o.&.oXR.g.A.u.g.D.R.J.A.D.J.R.@X@XE.E.R.H.D.R.E.q.J.R.Y.Y.E.R.J.R.F.F.R.F.D.oXd.r.D.D.A.D.H.A.D.R.D.F.R.F.d.u.u.f.q.u.D.D.D.D.D.B.R.R.J.A.g.f.f.f.u.A.A.A.A.F.D.A.d.D.J.D.D.D.H.R.Y.D.D.A.J.J.A.J.^.J.k.f.g.D.H.].E.E.oXOX.XE.].].OX^..XJ.J..XJ.~.Y.D.A.D.R.E..XoXoXR.R.R.R.].R.].E.D.D.R.oX.XJ..XE.E.R.R..X.XoXR.D.*XOXoXR.J.#X#XY.R.^.J.R.oXoXoXE.E.D.R.J.R.E..XJ.R.D.D.oX#XOX#X#X.XR..XR.].R.R.J.J.D.H.]..XJ.'.J.R.J.R.D.J.J.J.oXf.A.@XoXR.H.D.Y.g.A.-XJ.D.J..XF.D.J.F.*X@XH D N L k.k.u.O.O.u.p.q.F.A.A.u.A.A.J.].].A.g.g.oX.XR..XoXF.D.F.~.OXk.p.J.OXJ.J.D.H.H.A.D.R.R.J.J.R.D.D.D.D.D.A.J.XXR.oXg.N..XoXA.u.k.A.u.S..Xf.y.Y..Xf.J.]..XOXOX.X.X.XD.oXR.oXOX.XoX.XE.oXR.D.J.D.R.D.A.D.E.A.D.D.J.J.A.A.k.f.k.A.A.D.D.A.A.D.D.H.J.Y.Y.D.D.H.R.oXoXJ.J.A.D.B.J.D.B.D.F.A.g.F.F.A.D.F.D.A.D.J.F.A.y.k.D.D.D.H.H.J.@XR.J.R.D.D..X.XD.D.D.D.R..XR.J.R.J.F.F.J..XR.J.J.~.~.R..X.XoXoXoX.X.XoXE.D.A.D.D.A.A.g.F.oX.XR.J.A.A.D.R..X.XR.J.].H.H.R.R.R.R.'.T.R.J.D.T.].H.k.d.e.D.#X+XoXT.R.A.Y.oX@X.XR..XU.s.!.e.#X2Xu.l ",
"q.A.u.D.u..XR..XA.R.@X#XN.A.e.Y.f.J.Y.oX].'.4.N.D.F.d.D.D.u.A.g.A.R..XoXoX.X.X.X].Y.Y.oXE.E.].A.R.^.R.J.R.J.J.].D.A.D.A.D.oXk.D.D.E.T.D.D.B.R.].D.k.D.F.k.e.q.g.q.e.u.g.g.g.g.A.g.A.Y.R.D.g.f.y.e.e.u.g.A.A.D.A.D.A.A.D.J.D.A.J.T.Y.g.A.D.g.g.f.F.k.J.D.y.g.R.D.R.H.R.oXoX].R.J.R.F.J.F.R.OX.XOXD.D.A.Y.Y.R.R.].oX.XR.J.Y.^.Y.J.J.R.E.E.#X>XoXR..XoX.X.X.XoX#XoXY.oX^.^..XR.J.S.Y.R.oXR.J.R.J.J.E..XD.E.Y.R.R.R..X.X.X.X.XD.D.#X.X#XR.oXR.oXoX.X.X.X].J.R.].'.+X].R.H.J.A.H.D.D.oXJ.]..XT.[.@X].eX>X#XoXA.XXXXOX].J.R.J.OX.Xn %.L n k.u.S.S.k.u.w.p.a.k.k.F.k.J.A.J.A.e.A.k.D.F.J.A.R.F.R.A.S.J.w.r.F.~.F.R.D.H.E.D.A.A.g.k.J.^.D.Y.D.B.A.D.J.].R.#XJ.q.g.k.A.k.J.r.u.g.F.A.^.D.E.A.Y.].~.~.-X#X#X].H.@X#XE..XR.E.D.E.oX.X].H.D.D.g.B.D.A.g.D.A.N.D.A.D.D.J..X.XD.H.R.H.D.D.D.D.J.D.D.J.E..XE.E.E.R.^.F.D.D.R.J.D.A..X&.F.F.F.F..X^.R.J.Y.^.R.F.F.J.D.D.Y.E.E.^.oXR.J..XJ.D..XR.A.B.D.S.F.].R.H.J.F.A.F.~..X].R.J.~.~.R..X.XR.R..X.XoXoXR.F.D.F.A.D.J.D.D.Y.R.E.J.A.S.S.D.R.R.R..XR.H.D.D.J..XH.'.].R.R.oX@X[.R.~.R.&..X@XD.[.[.*XE.E.oX.X].R.oX:X^..X.XoX@Xo.U ",
"&.u.D.A.y.g.J.R.D.H.B.R.y.g.y.R.y.u.D.D.H.u.R.T.R.J.u.D.R.D.J.H.H.J.A.A.H.J..XoX].].R.R.H.].@XoX.X.X^.R.J.D.D.R.T.B.B.B.D.T.g.D.D.[.R.B.D.R.].H.A.D.D.u.y.f.f.D.A.g.A.A.f.q.6.e.R.R.J.H.A.g.g.A.e.e.B.B.D.D.J.g.B.A.D.D.J.D.A.D.D.E.D.D.A.f.f.q.d.D.D.k.u.g.D.A.R.R.]..X.XR.E..XoX.X.X/.^.!.A.k.Y.F.D.Y.Y.R.H.J.oX.X.XR.R.oXY.D.D.J..XE.E.Y.f.y..XoX#X.XJ.F.R.OX*XoX^..XoXJ.J.oXR.D.R.E.R.J.g.D.E.oXE.oX].R.R.J.F.~..X.X].J.J..XR.oX.X@XR.H.R.-X.X@X.X.X].+X].].R.R.].R.D.J.J.S.A.R.R.].@X[.R.'.R.*X7X#XD.A.u.-XoXR.f.-XY.oXO. .L N O.k.r.u.k.k.p.A.p.F.p.J.F.J.u.A.w.e.k.D.d.~.].D.R.J.XXXX.XXXR..XXXJ.D.R.A.D.g.E.Y.A.D.A.u.k.y.D.D.B.D.J.J.F.R.R.#XR.D.k.OXXXF.g.R.~.R.g.D.J.J.q.Y..X.X.X~.OXoXR.R..XR.g.D.oX#XE.oX.XoX#XR.A.g.B.u.D.A.f.E.g.H.].R..XR..X.XR.D.R.].].R.H.J.Y.J.J.J.H.Y.E.E.R.D.R..XR.R.]..XJ.R.J.R.;.~.R.A.F.R.R.J.J.R.].R.J.D.J.J.D.J.J.Y.Y.R.H.J.oXoXR.R.D.D.A.D.S.S.R.].].R.F.D.F.R..X].].~.~.~.E.oXoXE.R.R..XoXoX^.R.J.J.u.A.E..XR.R.D.J..XS.J.F.S.J.J.R..XJ.H.J.D.J.oXR.R.].R.J..XoX[.[.#Xe. .&.R..X].H.D.Y.#XoXJ.J.R.oX*X:Xk.^.@Xy.R.&.",
"&.g.A.g.J.A.g.D.'.T.H.J.R.R.].D.B.q.Y.g.J.t.oX'.D..XD.A.H.g.g.B.D.D.g.g.J.R.R.Y.D.R.R.R.D.R.T.D.R.R..XE.F.A.D.H.'.T.R.D.].A.A.A.B.R.H.D.T.R.R.N.D.D.D.Y.E.g.w.D.f.g.D.D.D.g.f.f.S.A.F.R.R.Y.D.A.g.g.D.J.D.Y.Y.k.u.A.J.D.D.F.B.D.B.U.Y.T.D.Y.D.f.u.F.k.y.A.D.A.Y.R.[.[.].R.H.Y.OXH.J.Y.OX#XoX~.F.D.D.k.D.J..X].].J.J.R.R.Y.Y.D.D.R.J.oX-X*XY.A.E.J.R.oXR.F.F.F.-Xg..X>XOX#X.XoXR.E.D.R.E.].].D.R.E.oX.X.X.XR.].R.R.XX.XR..X#XoXR.@X[.@XH.oX].T.2X@X#X.X@X].+X].A.D.T..XR.D.A.D.A.D.R.F.R..XH.'.+XR.oX#XOX#X7X.XR.A.&.oX .A. .n %.~ ~ L A.k.A.A.p.F.A.F.J.u.D.OXR.S.S.A.F.D.A.w.F.A.g.J.A.J.OX.X.XJ..XR.A.B.J.g.D.u.D.Y.E..XF.u.r.f.D.A.u.g.J.R.XXR.J.#X#XJ.A.OX!..XR.R.oX7XR.q.A.R.&.A.D.OX7XD.H.oX.XR.R.R.R.Y.oXOXoX.XE..X].D.B.D.D.g.y.H.A.E.g.A.H.A.R.R.^.R.J.g.A.H.H.H.D.D.T.J.R.R.D.D.J.E.^.R.E.J.A.D.R..X]..XoXA.D.J.R.k.D.R.H.D.J.R.R.R.J.S.~.oXR.^.Y.R.R.-X#X.XR.R.R..XY.J.A.F.F.S.R..XoXE.J.D.J..X].R.R.J.R.R.R.E.R.Y.R.]..X.X.X.X~.R.J.D.g.A.D.R.R.J.R..XS..XJ.S.J.J.R.J.J.J.R.J.J..X.XR.R.R.J.H.T.'.[.E.y.D.O.D..XoXoXY.Y.oXOX@X#X.XR.~.u.F.N.%.T.o.U ",
"} g.y.q.B..XJ.R.H.'.[.N.].J.#Xy.g.B.D.y.].B.o.J.E.A.A.Y.B.e.B.D.A.J.A.A.F.D.D.F.R.H.D.T.H.R.D.R.D.D.R.E.D.A.D.D.(.H.'.D.R.A.Y.F.R.R.D.T.T.D.H.H.B.D.g.f.D.A.;.r.*.f.A.D.B.B.h.g.A.p.k.D.Y.D.D.h.B.g.B.R.A.H.J.A.J.D.J.Y..XE.B.D.D.D.R.D.D.oXD.:.e.k.F.D.g.A.J.R.'.'.H.D.R.H.A.Y.].R.F..XXX^..X~.Y.D.g.D.D..X].]..XR..X.XR.D.A.Y.].R.R.oX*XOXR.^..X.X#X.X~.R.D.:Xz.E.OXoX*XR.oXR.^.R.oXR.R.@XoX-X^.E.E.Y..XR.oX]..X~.~..XR.]..X.XoXR.@X] H.8XoX].].@XJ..XH.'.2X+XB.T.oXH.A.u.S.A.F.~.R.J.t.y.@X+X8X.X*XeX.Xk.S.F.5.&.D.q.f..XH n N O.;.A.r.A.k.k.D.R.D.A.u.A.~.OXJ.u.J.A.k.r.r.J.D.A.R..XoX#X].+XJ..XR.D.J..Xg.R.Y.q.g.^.J.A.J.F.f.R.Y.B.A.D.F..XE.OX#X@XY.F..XOX~.oXoX#XOX*Xd.D.R..X.XR..X.X#X#XD.oX#X@XR.OXJ.^.R.oXR.oXoXA.A.J.J.D.H. .D.D.D.A.oXE.D.E.R.R.H.D.A.D.H.H.D.H.T.Y.J.R.J.H.Y..X^.F.R..XF.D.J..XR.R.R..Xg.J.J.k.R.F.R.D.B.D.J.J.J.J.J.J.R.D.R.R.E.R.R.@X.XD.D.R.oXoXR.A.J.J.F.R.].[.Y.D.D.R.oXoX.X.X^..X.X^.E.R.Y.E.oXoX.XoXoX~.J.F.D.g.A.J.E.R.D.J.J.p.J.J.A.R.J.R.J.R.F.J..XJ.H.R.R.D.J.~.R.].[.D.h.@X].].e. .H..X-XoXOX#XoX.XJ.R.D.r.A.A.5.[.B.K ",
"o.h.g.q.g.+XR.N.E.J.oXy.g.f.OXoXB.B.T.D.D.D.} f.J.F.u.J.g.u.J.g.D.A.D.A.g.R.R..XD.D.k.B.J.J.@X]..X.XJ.H.J.J.T.H.J.H.N..XoXoXE.Y.R.R.oXD.A.R.D.R.H.].Y.A.A.D.g.5.B.A.R.J.g.A.Y.D.D.u.D.Y.Y.A.k.g.H.g.A.].A.J.].D.f.H.B.T.].R.E.E.k.D.D.F.F.D.e.H.A.A.D.D.g.g.J.Y.B.D.B.Y.E.g.g.^.R.E.Y.Y.E..XR.D.F.D.g.A.R.].#XoXoX.XD.J.D.J.D.J.[.oXE.].#XXX.X`.@XoXOXOXOXF.XX@XoXR.oX#X.XH.R.oXJ..X.XR..XoX.XY.J.#XoXD.oXoXE.^.OXOX.X.XoX.XoX-XR.E..XoX#X2X#X+X].R.+X'.H.+X}.@Xy.b.J.T.H.g.R.5.D..XJ.R.R.B.A.A.f.9XoXoXOX;.A.w.} d. .u.7XOXk g n ' 5.H.D.F.S.i.r.u.A.F.D.R.D.#XD.D.A.e.u.;.F.oX].H.J.oX.XR..X$X.XJ.oXR.A..XXXG.A.y.k.Y.F.D.g.g.~...r.R.R.A.Y.E.oXR.E.#XR.R.R.R.@XH.].].H.@XJ..XJ.J..XJ.A.e.y.J.B.H.H..XA..X.XXXOXoXJ..XXX.X].H.D.oXD.f.D.H.D..XA.D.F.E.Y.Y.D.J.D.N.J.H.g.D.J.D.T.T.H.H.J..XJ.A.J.-XJ.E.R.D.Y.OXR.x.oX#XR.J.A.R.D.N.J.R.R.'.C.T.].oX.XY.E.Y.E.D.y.F.oXJ.D.R.@X].Y.A.R.F.D.R.J.]..XoXY.Y.oXoX^.^.F.^.oX~.R.R.R.J.E.OXoXoXOX.X!.k.D.k.J..XJ.D.J.D.D.g.A.H.N.A.R.J.H.H.R.J.D.J.J.F.Y.F.Y.Y.R.H.'.N.e.[.;X;Xg. .g.g.p.F.:X.X.XR.D.R...u.e.e.J.7XD.I ",
"%.*.h.f.N.'.H.H.9Xg.OXy.k.k.oXY.D.g.H.e.u.A.D.f.;.S.F.A.D.g.A.S.A.A.J.D.B.J.A.A.D.A.D.R..XA.D.H..XJ.F.H.J.J.R.'.].].H.].oXoXoXY.E.Y.E.A.A.R.J.R.'.R.J.D.D.J.H.N.g.A.R.J.N.A.D.N.g.u.J.Y.R.D.g.y.N.H.H.J.J.R.D.D.@XH.e.B.R.].A.R.D.F.F.J.F.A.q.u.A.A.D.A.g.A.D.A.D.D.g.A.Y.A.F.oX.XoXoXoXOXOXoXR.^.D.F.D..XR.R.R.J..XR.J.g.g.g.J.E..X*X-X.XXX#XXX].#X#X~.J.F.oX@XOX*X7X-X.XR.R.R.~..X.XR.R.R.R.F.A.R.oX.XoXY.F.D..XD.A.].#X.XR.OXE..X].J.R..X@X@XN.u.D.+X+X].'.].u.y.'.H.B.y.].R.R.oXoXoXJ.B.A.H.r.r.k.J.OXE.oX-Xq.R.^.~.OXk.x X.^ 5.} H.A.^.S.u.u.k.F.D.@X.X#X.X%.D.e.&.A.k.k.F.H.D.H.Y.Y.J..XXX.XR.Y.D.J.R.H.G.Y.E.^.A.g.F.A.e.D.E ~ q.A.D.D.g.u..X-X#XoXD.A.R.H.'.'.J.@X3XH.J.OXJ.R.J.g.F.S.e.6.Y.R.R.-X#X.X-XOX.XR..X@X@X.XJ.g.D.D.f.D.A.D.J.E.E.Y.R.J.Y.D.D.H.u.D.D.k.D.Y.R.'.'.H.H.D.].R.R.F.u.J.Y.D.D.[.D.F.x.oX*X~.~.k.D.D.R.J.H.R.R.T.T..X].E..XoXY.E.E.A.R.F.^.R..XH.[.E.J..XJ.F.R.D.]..X.XR.R..XoXR.Y.F.R.!.F.D.F.J.R.E.OXoXoX^.R.!.D.D.k.F.~.J.D.H.B.D.g.g.A.N.B.H.R.B.D.H.J.A.u.A.F.D.D.D.U.R.T.'.D.H.T.D.f.n =.f.g.r.u.F.oXoXR.J.#XJ.u.oX.X2X-Xe.K ",
"O.&.y.f.t.].u.u.oXA.e.e.oXr.r.D.T.oXR.A.&.y.J.g.O.e.J.A.J.J.J.D.g.D.D.Y.H.R.D.D.R.^.OX.XJ.A.A.H.F.S.H.].].J.H.H.R..X].R..XE.E.A.E.Y.Y.g.A.R.H.J.T.H.D.Y.Y.H.D.B.B.g.D.J.A.A.D.A.f.f.D.A.D.D.A.u.A.J.J.J.D.J.D.D.g.B.D.B.J.].A.oXA.F.F.F.F.D.r.A.k.D.J.k.r.d.D.k.D.H.D.D.Y.Y.^.E.oXE.E.oXoXoXE.R.D.y.F.D..XJ.J..X.XoX.X].R.R.J.R.oXoX@X-XR.#X#X~.#XOXJ.S.~.XX-X@XE.OX-X#X.XoX@X.XR.R.J.J.J.J.R.E.oXR.R.J.Y.Y.oXoXJ.oXOXJ.D.oXOXY..XR.R.R.R..X@X@X@X.X].oXJ.N.H.#Xt.5.H.H.B.e.B.J..X.X.XoXR.oXoX#X~.p.J.D..X2X;X=X;.q.g.R.#XA.g ~ &.q.5.A.k.r.g.u.F.~.k.A.H.J.D.O. .oXq.F.J.;.r.d.D.D.J.Y.E..X.XXX].R.D.D.H.D.D.H.E.oXoXD.A.F.A.u.~.r.e.g.D..XE.Y.D..X^.A..XY.J.J.B.J.R.H.@X#XD.g.OXXX#X#XJ.XXJ.r.e.R.H.B.-X7X.X].XXJ.D.S.R..X.X.XE.Y.oXD.R.D..XJ.E.R.D.Y.Y.oXE.R.].A.D.D.g.g.A.F.T.'.H.J.H.].R.R.J.u..XY.D.D.D.T.^.F.^.oXR.^.D.Y.J.oXD.D.D.y.B.oXR.R.J.oXR.J.E.E.oXoXA.F.R..XH.@XoXR.R.D.F.J.A.]..XR.Y.Y.Y.R.J.A.F.J.!.R.J.J.R.].oX*XOXoX.XR.^.F.J.k.k.J.R.R.H.y.D.g.g.A.A.B.D.R.D.A.u.J.D.r.A.A.A.D.D.A.R.T.'.T.].D.H.R. .g.A.f.F.J.A.^..XoXoX*XR.f.Y.A.R.-XD.q.",
"O.A.f.y.N.wX@XA.f.A.y.#X.X;.~ T u.].D.J.g.N.H.J.D.D.J.J.D.R.D.g.A.A.g.A.D.R.H.].Y.A.A.g.D..XR.J..XJ.H.H.H.H.H.].N.H..XR.].Y.J.d.R.Y.R.D.J..XR.J.H.T.T.T.Y.H.D.B.J.A.D.D.D.D.J.J.D.g.D.A.D.k.g.g.N..XA.u.D.J.g.J.o.5.T.g.J.A.J.F.k.F.F.Y.J.J.A.H.A.J.J.k.r.u.A.D.H.J.R.E.E.E.OXoXoX].R.E.E.Y.J.Y.A.g.Y.J.R.J.R.oXoXoXR.R.oX#X.XJ.oXoX.X.XoX#X~.~.#X.XJ.~.XXR.-X2X@X-X-XoXR.oX#XoXR.R.J.J.R.R..XOX.XJ.J.D.R.R.oXE.#X.X.XoXoXoX.XY.#XR.J.oX#XoXoX&X#XoXR.].].]..XH.y.5.R.[.].H.D.R.^.R.J.J.A.oX].R.XX.XJ.A.R.-X2X'.J.A.q.g.A.g.j  .:.} q.A.S.u.g.r.A.F.g.F.J.@XJ.e.OXoXA.D.F.k.F.J.J.J.D.D.R..X~.J..XF.D.R.A.g.].].g.D.D.A.D.D.u.d.Y.J.Y.Y.g.D.D.E..X.X.XJ.D.D.R.R.F.D.R.D.D.H.Y.g.J.XX#XOXoXJ.k.S.R.].J.D.A.7X-XD.XXF.D.A.J.@XoXoXJ.J.E.A.D.B.H.H.E.E.J.R.Y..XR.J.J.A.D.A.g.A.D.R.T.].J.R.J..XR.R..XH..XJ.k.D.u.Y.^.R.J.J.D.R.J..XJ.R.D.D.g.&.y.Y.H.].J..XJ.R.E.Y.^..XA.y.A.J.'.].oXY.A.d.F.H.B.R.oXY.F.D.D.Y.R.A.A.D.R.^.R.J.]..X^.OXOXoXR.D.F.F.J.A.A.J.R.].H.g.F.A.g.A.D.A.A.R.D.k.u.F.F.g.D.D.D.Y.D.g.T.H.R.R.].D.A.oXf.f.@X[.~.F.u.A.R.OX.XoXT.R.f.q.%.J.D.q.",
" .D.r.} .XOX#Xg.g.T.Y.E.A.r.^ ..&.e.g.B.R.D.R.R.u.R.D.g.R.].R.R.J.Y.A.D.J.Y.F.^.].D.D.A.g.g.r.A..X].].].R.R.J.J.g.D.R.J.R.J.J.D.B.B.D.B.D.J.H.D.R.R.T.D.D.R.R.J..XD.A.D.H.J.]..X^.A.J.R.Y.u.q.d.D.B.A.D.u.D.J.A.g.y.Y.A.A.&.D.g.A.Y.Y.E.T.D.g.g.J.F.A.A.A.D.D.D.'.H.D.Y.R.E.#XOX@X.X]..XE.Y.J.R.Y.E.D.^.R..X.X.XE..XE.J.].].].].R.R..X].@X.XR.OX.XR..XOX#XJ..X*X&X@XoXR.J.].oXR.oX].R.~.^..XoXOXJ.R..XJ.R.D.Y.E.XXA.D.#X#XE.R..X#XoX.XoXoXoXoX&XR..XR.oX@X@X#XH.H.g.R.].oXoXE.^.oXoXoX].N.oX.XoXOXE.f.J.oX.XOX#X#XyX.Xe.&.f.Q &.^ K e.R.g.J.A.D.F.A.J.A..XJ.A.e.k.F.k.k.^.A.~.w.r.A.F.J..XoX.XJ..XJ.S.J.A.g.R.].D.R.E.J.R.R.D.F.D.D.D.D.g.A.g.D.oX@X.XR.g.g.D.].J.F.J.A.D.F.oX^.].]..XD..XD.D.R.R.Y.E.Y.y.E.*XA.J.D.H.D.R.oXR.H.D.E.R.A.D.D.H.].R.E.Y.E.Y.E.Y.Y.H.D.D.A.A.D.F.J.].].J.R.J.E.R.R.oXJ.J.^.F..XY.F.D.D.A.D.A.F.D.J.D.D.E.D.g.D.A.u.H.R.H.].R..X.XR.Y.R.R.D.g.J.oXR.R.F.A.k.J.D.B.J.oXE.Y.J.F.E..XJ.k.D.Y.].R.H.J.].^.oX^.^.R.D.J.R.F.F.J.J.Y.J.D.D.J.A.g.D.D.A.A.J.A.k.S.D.k.g.D.R.H.Y.D.B.J.H.T.R.Y.oXOXoXf.f.R.R.A.;.r.k..XoXR.#XR.3X&XoXu.u.&.q.",
"O.D.&. ..XA.J.S.Y.D.y.*.A.;.w.~.e.q.A.A.g.A.R.H.J..XR.e.F.D.J.q.R.R.D.oX.XR.J.Y.H.J.R.J.d.d.k.!.B.D.'..XoXR.D.g.Y.H.R.H.J.R.R.].T.R.'.H.H.H.J.H.Y.Y.Y.D.D.H.J.H.J.D.B.D.J.]..X.X.XD.J.R.R.u.e.A.g.A.A.D.A.D.B.B.R.D.J.J.f.q.D.y.A.J.A.D.B.N.f.f.k.A.A.D.J.H.D.D.R.D.g.D.R.E.E.R..X].].oX.XY.J.Y.T.Y.f.Y.R.oXJ.k.Y.E.E.R.].].oX@XR.u.J.]..X.XoXoXR..X.X.X.XD.^.oX'.T.T.R.R.]..X.XoX[..X^..XoXOX@XoXoX.XD.J.D.Y.oXA.J.~.R.J..X#XOXJ.@X#XoX].oX@X@XoXOX*X-X.XR..X.XJ.D.E.R.R.E.E..XY.J.D.R.D..X].oX;XT.f.J.oX.XJ.%X.X.X.XA.u. .} *.K B x.F.g.A.D.R.p.u.A.e.N.A.u.F.F.k.~.w.A.A.r.A.u.J.R.D.A.A.S.J..X.Xu.e.A.A.D.T.R.J.J.J.R.J.S.J.D.A.A.D.J.R.D.D..XoXg.g.J.R.g.J.J.R.J.A.oXOXR.oXoXJ..XF.Y.J..X^.Y.D.E.Y.R.D.Y.A.A.g.B.A.J.E.J.A.A.E.Y.D.H.H.D.H.J.E.Y.R.D.E.E.E.D.D.J.D.A.D.A.D.R.R.J.R.J.R.J.J.R.]..XR.OX.X^.Y.g.A.A.D.A.A.A.J.~.D..XJ.A.R.R.D.H.H.N.J..X].R.oXE.R.R.oXN.R.oX+XY.E.R.~.^.J.D.E.E.E.E.Y.Y.^..XR.D.Y.R.R.J.J.]..XoX^.Y.R.R.J.E.^.~.J.F.R.^.R.Y.J.D.A.k.D.D.A.A.H.S.A.J.S.A.A.D.J.A.A.D.A.J.R.R.R.g.R.oXg.%.R.g.&.r.q.k.r.F..XoX-X;XR.[.H.D.Y.;.e.",
"L r.~ ..A.A.S.J..Xq.e.k.A.&.F.k.y.A.B.D.q.N.H.T.R.f.R.g.D.F.R.q.D.A.f.R.J.J.J.J.].].D.A.k.F.k.r.D.D.D.H.H.D.A.D.[.R.Y.D.D.R.J.R.T.'.T.H.H.H.H.H.D.F.F.J.H.D.A.A.D.D.D.H.]..X.X+XR.D.D.B.J.A.g.D.D.A.D.Y.d.g.A.g.A.k.g.f.k.J.H.q.A.D.g.B.f.B.A.g.q.A.J.J.H.H.D.T.H.H.B.D.E.Y.D.D.J.R.].].R.J.D.D.R.D.g.J.J.J.u.w.R.Y.Y.H.oX.XoXoX.Xu.H.R.].oX.XR.R.@X@X].J.D.oXOX=X[.[.@X.X.X.X.X[.[.].~..XOX#X@X.XJ.Y.Y.E.J.Y.D..X.XJ.J..XOXOXOXH..X#XoXoX@X=X&XoXR..XOX#X@X].J.F.R.E.OXOXoXOX#XOXR.A.].oXJ.H.].'.N.f.D.D..X~.OX.X.XlX].y.y.g.&.L ^ z.:.J.N.D.k.G.).u.u.A.J.A..XF.k.u.A.A.A.w.w.V ;.F.R.].H.A.A.)..Xp.O.u.T.D.T.R.D.J.R.R.J.D.F.A.g.D.A.A.J.J.D.g.R.D.D.#XoXg.A.F.!.~.F.oX:XF.Y.E.D.D.J.D.F.Y.oXoXR.E.J.#XE.Y.D.H.D.A.A.R.oXOXE.Y.Y.Y.D.T.H.H.D.E.oX^.E.J.R.J.D.g.k.D.D.D.F.D.R.H.R.J.E.Y.R.J.J.D..X].A.E.F.D.D.A.J.D.R.T.A.A..X.XF.J.R.D.D.R.[.J.J.N.A.].H.R.@XR.R.J..XN.H.'.+XE.oX.X.X^.R.Y.Y.Y.E.E.J.R.R.J.H.J.R.].].].].+X+XE.Y.A.Y.R.Y.R.Y..XJ.F.J.oXR.D.J.D.g.A.D.A.A.D.H.J.K.S.K.D.F.J.F.D.B.H.A.D.R..XoX.XD.Y.q.%.[.].g.&.u.k.w.u.E.oXOX2XR.;XoXf.A.g.Y.",
"L w...U r.A.F.A..Xu.F.u.k.D.k.k.g.J.A.u.D.y.g.H.A.e.Y.Y.E.Y.A..XD.g.q.A.A.D.^.oXB.D.A.E.F.k.d.k.'.H.H.R.R.A.A.J.E.R.T.D.g.J.N.A.C.T.H.H.H.).].J.F.D.D.J.J.D.H.J.F.R.R.J.].].].+XD.D.D.u.D.H.A.B.Y.R.D.A.f.u.u.J.r.d.R.k.R.D.D.R.A.S.g.D.A.D.A.e.w.A.J.H.R.[.T.T.A.R.D.D.Y.D.Y.E.J.J.R.R.J.D.D.D.T.g.D.Y..X~.A.F.oX^..XR.oX].].+X].]..X.XR.oXD.oXOX].R.].#XOX#X~.}.[.[.oXR.R.R..X[.oX.X~..X#X#XoX.XA.E.OX.XY.oXE..XOX#X#XoX.XR.oX2X@X.XoX@X@X&X;X#X.XoXoXoX-XoXoXR.E.Y.oXE.A.D.D.E.D.g..XoXy.u.].H.N.N.].D.D.OXoXoX} R.oXu.*. .L N j.z.,.H.N.N.z.u.J.A.u.XXF.A.A.k.r.D.XX;.OXJ.F.r.F.J.H.H.A.N.D..X.XF.q.q.R.[.T.y.A.].H.D..XD.q.D.A.R.A.A.Y.oXR.]..X].J.#X#X].N.J.F.OX/.Y.:XF.k.oXD.q.D.R.Y.g.7XE.E.Y.A.A.R..XY.R..XH.R.oXOX*XE.R.g.J.D.R.R.oXB.F.E.E.oXE.oXE.Y.F.D.F.F.Y.D.A.R.R.].R.E.J.R.E.oX@XJ.J.D.r.R.E.g.A.R.R.@X[.D.A.^.]..XD.H.].R.'.H.'.+XH.N.].H.].@XD.E.oX].].R.'.].OX^.F.F.F.J.Y.A.Y.oXE.J.J.R.H.H.A.J.R.R.'..X+X{.OXE.Y.oX*XoX.XY.S.F.J.~.Y.k.g.Y.D.g.A.D.g.A.R.H.G.F.A.F.F.A.~.R.R.B.H.B.A.E.OX*XR.A.*XOXD.&.f. .] e.y.k.D.oXoX].#Xg.g.;Xg.B.y.=.",
"K e.5.' t.J.F.J.A..XXXu.A.e.u.S.|.'.H.B.g.A.D.D.y.oX].T.'.T.B.f.g.J.D.A.A.Y.A.J.N.D.J.D.g.D.R.D.oXR.Y.E.Y.Y.R..Xu.g.D.B.H..XA.N.g.d.Y.F.D.Y.T.E.].D.H.g.R.R.B.T.]..XJ.J.A.].]..XA.D.g.J.J.u.S.F.B.].R.B.H.B.g.'.D.J.S.A.A.f.k.!.Y.E.R.R.@XB.B.g.q.k.~.A.Y.R.F.Y.w.A.R.~.R.J.R..XR..X.XR.D.g.H.[.N.H.'..X].J.].[.D.H.oX].'.[.'.'.^.D.E..XR..XR.].[.@X[.].@X'..X).k.OX.XR.#XoX#XoXoXoX@X@XoX[.[.@X@XH.D.R.oXR.K g.-X-X#XoX^.^.oX*XOXE.R.oXOXoXoX-X-XoXoXoX#XoXJ.R.J.F.oXD.J.D.oXE.[.g.f.D.H.A.g.Y.].g.y.].J.D.R.7XJ.; J.A.A. . .z n n J.e.u.J.g.N.w.w.S.P.F.S.L.S..Xe.J.D.D.F.D..XH.g.D.D.k.d.F.F.F.E.D.e.g..XE.J.H.D.'.].H.H.].J.R.J..X.XD.D..XOXoX.XE.Y.oXA.D.J.#XS.D.R.].oXg.g.oXE.D.R.E.oX8X7X].#XH.A.g.D.R..XE.D.oXR..X:XR.~.E.A.J.D.A.J.R.R.E.oXJ.J.Y.A.J.E.J.H.R.J.A.H.J.H.]..X].].R.J.].J.oX~.O.J.g.R.B.J.H.R..X].E.E.D.d.J.R.^.].R.R.R.T.D..XJ..X.XH.].].oX&X[.oXD.R.R.oX.XJ.J.D.F.E.J.R.R.R..X.X.X~.R.R.D.H.J.R.J.F.J.R.~.~.^.^.^.^.R.R.F.F.g.D.^.F.D.F.A.A.u.k.A.D.'.H.k.F.A.F.D.A.F.J.k.A.D.u.H.J.R.Y.R.F.J.-Xg.y.A.e.*.q.g.E.oX.X.XoX8X .O.F.oXg.B.o.",
" .o.%.%.t.J.XXF.r.u.J.u.F.A.D.u.C.B.H.D.g.D.A.z.A.].H.D.[.'.T.f.D.u.A.R.A.D.D.A.A.D.J.J.D.D.F.A.Y..XE.J.J.D.D.E. .&.].R.R.J.R.H.f.u.k.D.D.T.H.H.D.R.].D.H.D.H.R.J.J.F.].J..XJ.H.D.A.D.R.~.A.u.k.B.R.D.y.B.T.T.'.t.D.F.A.f.g.F.!.D.Y.B.D.g.R.H.R.F.k.J.~.D.g.&.} O.S..XD.g.J.R.B.J..XR.H.H.H.T.B.H.H.B.J.].].+X}.R.J.R.R.].+XT.H.J..XOX.XR.oXoX.XT.oX@X'.+X+X@X].OXoXoX~.oX&.D.#X@XoX].].oX@X@X[..XoXR.J.R.oXu.k.oXoX.X.X~.oXoXoXY.oXoXoXoX*XOXOX2XoXoXoXoXoXJ.J.OXoXJ.Y.OXoXR.oX@XH.g.B.T.J.Y.E.R.D.'.].R.oXH.-XO.d ].D.f.5.n H E n u.D.g.u.g.g.A.A.S.F.~.p.r.p.A.D.F.w.~.#X&.r.D.g.D.D.k.r.A.J.J.Y.D.A.D.D.D.A.H.D.B.H.H.J.H.A.D.Y.R.D.D.R.oXE.J.R..XY.@XR.oXJ.OX~..X].J..XY.R.OXR.D.D..X.X#X@X-XoXD.oX*X-X#XOXOXE.E.^.D.k.OX!.D.R.E.A.J.A.B.D.D.E.E.R.Y.A.D.E.R.D.H.J.J.R.R.J.R.R.R.R.J.H.R.H.oXJ.O.J.A.D.R.R.J.R.]..XR.Y.Y.D.R.R.Y.R.R.R.H.B.D..XY.]..XR.].'.OXOXoXOXE.E.E.R.oXY.Y.D.F.J.D.F.J.R.R.R.R..X.X].].R.J.R.R.R.R.R./.^.^.^.^.J.D.A.D.D.k.F.^.J.F.F.A.A.A.A.A.B.J.'.D.F.u.k.S.A.H.H.A.D.J.N.J.R.R.Y.J..XJ.Y.*XJ.k.e.y.^.OXR.R.OXOX.XR...e.E.OXg.} I ",
"' ]  .q.e.F.#XJ.D.oX#XA.F.g.S.A.}.].H.D.g.E.Y.y.e.g.A.B.R.B.D.D.g.A.D.A.D.D.D.D.H.H.J.R.R.R.R.J.oXJ.Y.J.D.Y.E.A.U.T.J.e.B.D.J.H.D.A.g.D.R.[.].B.H.].R.D.H.H.R.H.F.R.]..XJ.).J.J.D.D.R.f.g.R.u.u.B.H.B.g.D.T.T.H.e.D.D.g.y.g.R.F.A.J.H.J.g.@XH.H.k.k.k.D.u.g.y.f.u.S.~.J.A.A.D.B.R.R.J.R.R.H.H.H.H.J.H.].].R.oX[.'.[.@X.X].J.H.].J.J.D.R..X.X.X.X@X[.+X].@XoX.X#X.X^..XR.OXA.OX#XR..XoX@XoX[.[.oX.X].J.R.R..XoXH.Y.oXOXoX].oX#X-XOXE.Y.E.*X2X7X8X8X@X@X@XoXoX.XJ.#X].J.oX.XY.OXoXH.].'.].J.A.R.E.@XH.-XoXJ.oX#X@XJ.D.A.D.&.D H U e.U r.k.q.e.u.D.L.u.F.~.J.F.L.u.J.r.r.F.A.A.r.A.Y.D.R.R.J.r.k.^.R.J.D.^.F.r.g.A.D.D.A.A.J.J.H.H.D.J.D.g.A.Y.Y.D.D.R..XR.oXoX#XD..XOXOXoXR.#X*X*Xr.A.J.u.R.OX8X7X#X#X].E.J.R..X^.@X*XF.oX7XF.J.F.D.R.D.u.J.D.J.R.D.Y.E.E..X.XR.oXJ.B.N.J.R.R.R.R.R.R.R.].R.J.R.H.F.u.F.R.g.D.J..XR.J.R.R.D.D.Y.Y.D.J.J.J.R.R.H.R.Y..XE.R..XoX].R.&XE..XoX.X.X@X.X.XR.E.R.D.A.A.R.R.R.R.J.R..X.X.X.XR.J.R.E.R.R.J.~.R.R.^.^.J.D.D.D.F.D.R.oX.X^.R.J.H.A.F.J.H.R.].F.F.u.A.R.J.F.A.D.D.D.u.H.R.].E..XoXH.Y.D.R.^.D.f.Y.D.A.R.oXoXoX.XJ..XE.u.&.n K ",
"n e.y.e.&...u.F.D.R.-X.Xu.A..XD.M.N.f.oXB.f.A.g.y.y.D.B.H.e.B.'.g.Y.D.g.D.A.F.J.R.R.H.A.B.A.B.f.R.E.A.k.R.E.D.D.A.g.T.D.y.H.J.5.R.].H.R.].].[.D.R.R.D.D.R.R.H.B.J.J.J.H.A.A.H.F.D.D.J.q.e.J.d.g.B.g.A.D.H.H.T.R.Y.H.D.J.D.D.E.J.R.R.E.A.g.R.R.B.O.J.J.d.A.F.A.R.R.A.J.oXJ.A.J.Y.F.D.D.J.H.A.H.T.F.R.R.].].J.].[.'.[..X].].H.D.oXJ.J.A.R.#XoX+X@X].R.+X@X#X.XD.].oXR.R.#X-XoX#XoXR.oX#X@X[.].[.@XoXJ.D.]..XJ.oX^.D.R.oXoXoXoX@X-X].H..XoX-XOX*XOX3X].oX.X.XoXoXJ..X.X7X*Xk. .R.E.@X@XD.H.D.A.E.R.].R.@X@X.XR.7X].J.D.Y.*.q.D.n o.z ~ } D.R.u.A.J.F.k.S.J.S.q.r.J.w.u.;.R.k.f.F.F.A.D.Y.Y.^.D.F.^..XR.D..XJ.u.J.R.D.D.D.D.H.J.J.J.R.R.H.H.R.R.J.oX.XR.R.R..X.XoXJ.J..X.XXX.X#X*X.Xg.D.OXA.A.R.OX.X#X@XoXE.D.].*XOX-XOX-X*XR..X.X~.oXJ.D.D.A.g..XH.D.J.E.D.Y.oXE.E.D.A.g.D.J.J.R.J.J.R.R.].R.J.R.D.k.u.R.F.u.D.A.R.R.R.R.Y.A.D.E.R.R..X.XR.J.D.D.'.Y.Y.Y.D.R..XR.R.E.D.R.oX]..X.XoX.XR.Y.R.J.D.F.^.Y.E.R.Y.R..X.X.XR.J.J.R.E.R.J.J.Y.F.F.R.R.R.R.oXF.F.F.R..X^.E.R.J.J.k.A.J.D.D.H.F.F.A.F.~.J.A.N.D.D.J.g.D.J.R.E.H.H.R.@Xq.A..Xk.OXOXE.oX-XoXR.#XR.oXf.f. .oXO.H ",
"Q D.g.g.D.e.u.R.R.oXD.e.e.A.A.H.H.'.H.T.y.Y.D.q.R.H.J.g.D.B.H.H.D.g.D.E.E.D..XJ.D.T.D.B.A.J.R.R.Y.g.D.J.g.g.F.F.D.Y.D.D.J.].'.G.D.].].].H.N.'.'.R.D.J.D.B.D.B.H.E.J.D.D.J.J.J.H.J.A.A.B.A.g.u.F.].H.H.J.D.D.D.D.Y.D.A.].R.H.Y.F.D.D.D.g.B.A.R.B.r.oXoXg.F.F.A.g.J.D.Y.R.D.R..XJ.A.J.J.H.D.H.R.J.R.R.H.R.].].@X=X+XR.u.A.@X.XH.H.y.J.J.J.].R..XR.@X+XoXD.D.oXoX*XoX.X].oXR..XoX.X@XoX.X].].[.oX@XoX].oXR.oXE..XR.J.D.D.R.oX.XR.J..XoX-XoXE.oXoXY.2X].oX]..XoXOXE.oX.XR.R.*XR.-XoXoXoXJ.oXoXR.E.D.R.-X.XA.#X].-X-X .Y.&.g.*Xg.k  .&.k ..*XR.J.D.e.A.S.S.u.k.u.u.u.J.A.y.*XoXY.oXoXy.g.g.d.E.R.Y.~..X.XJ.R.D.A.oX.XR.B.B.D.A.J.J.A.J.J.H.R.].H.J.#X.XR.R.R.^.^.OXR..XXX.XXX.X#XOXR.D.y.J..XR..XOXOX@X.X@X#XoXE.OX*X*X>XeXR.f.-XoXR.D.D.H.oXA.g.J.R.D.R.OXD.A.E.E.Y.A.D.A.A.A.k.D.A.H.R.J.J.D.D.J.B.D.J.q.g.A.A.F.D.R.R.R.Y.D.E.oXR.R.R.E.R.H.D.J.].oXE.R.Y.E..XR.R..XR.R.].B.H.H.oXoXJ.A.F.R.R.R.R.R.R.Y.D.J.R..X.XE.Y.F.Y.].].R.J.F.D.J.R.R.R..XoX.X^.R.^.^.R.R.J.A.Y.D.D.D.A.A.H.F.F.S.A.A.k.u.A.A.D.R.D.H.H.H.Y.].R.].D.F.k.F.D.Y.OXOXoX#X^.^.>XB.g.B.e.7XA.e.D ",
"^ ;...r.J.A.B.H.g.g.D.OXR..XD.u.f.T.@Xe.Q D.H.J.A.D.R.f.D.E.Y.f.g.B.B.].oXY.R.D.T.R.T.N.g.N.N.N.D.D.B.A.D.g.g.Y.R.y.B.H.T.N.H.y.H.H.'.H.C.N.T.'.R.B.H.D.u.B.f.T.J.D.R.R..X].J.F.J.H.A.D.A.f.d.D.R.J.J.H.D.J.D.f.D.J.S.D.B.B.D.A.d.A.g.D.A.A.J.D.N.D.].J.D.g.H.A.D.D.Y.D.A.Y.Y.g.D.F.D.J.R.R.].J.F.R.E.].]..X@X=X#X'.B.J.@X.X].R.D.R.].oX@XoXoX].'.+X+XoX.XOX.XoXE.].#X].].oX-XoX.XoXoXoXoXoX[.oXoXoX#XR.oX.XJ.Y.~.F.F.oXoXR.H.H.#XoXJ.oXJ.-X*X*X2X[.@XR.oXoX#XoXoX*XOXOX^.E.#XoX#XoXR..X].J..XoXD..XE.q.J.oX.X.XD.F.$.-X.Xe.H z  . . .A.u.*.g.D.F.F.J.F.J.!.J.u.D.J.].B.u..XR.e.N.B.g.f.E.^.R.R.~.XXR.F.A.A.J.F.R.B.D.D.g.A.F.d.H.].].J.H.D.J..XJ.R.R.R.R.E.oXY.OXOX.X.XR.OXOXOX.XD.oX-X^.oX#XoXoXoX-XoXY.D.R.^.OXeXoX^.E.OXD.D.g.J.D..XR.J.D.oXD.E.oXY.Y.OXOXR.D.R.D.A.A.d.A.k.J.R.J.J.D.D.J.A.D.D.&.A.F.A.d.J.D.H.H.D.J.R.Y.F.D.A.A.D.J.]..XJ.E..XE..XoXE.J.Y.oXoX.X].N.H.A.@XR.R.D.Y.J.D.Y.^.E.R.U.D.Y.E.XXoXoXJ.A.D.R..XR.J.H.J.R.].R.R..X.XoX.X^.oX.X^.oXY.D.R.J.F.F.F.J.J.A.D.D.A.A.A.A.J.k.A.D.B.D.D.J.oX].T.N.e.J.r.d.R.oX-X-X#X#XoXE.OX=XoX&.&.-XD.*.K ",
"..e.e.;.u.g.A.D.D..XOX#X*XD.u.D.@XH.R.D.q.q.q.J.e.u.D.k.A.J.D.k.6.R.D.D.H.D.D.J.D.T.D.D.J.H.A.J.R.A.D.T.D.D.Y.A.D.D.H.D.H.e.A.].|.H.(.(.H.H.H.H.T.B.D.D.g.D.B.C.g.A.E.R.R.A.H.H.H.R.H.g.d.k.k.k.u.g.D.F.R.E.Y.A.Y..XF.D.D.D.H.D.F.Y.k.D.f.A.A.R.B.B.J.oXY.g.A.g.D.F.J.D.A.A.D.D.F.D.g.F.J.A.D.D.A.E.@X@XoX.X@X@X].+X.X@X.XH..XOX].D.H..XoXoXR.R.].].H.oX].J.D.^.-XR.oX@X#X]..X.X~.oX#X@XoX].].[.+X].oX]..XY.D.Y.~.^.oX*XoXR.J.].XXA.k.OXoX*X#XOXoX'.oXD.].E.oX.XY.D.E..XF.E.oXR.OX.XJ.~.oX.XR.J.F.R.#XE.OX-X#XB.A.*XD.D.oX.XH H A. .;.u.A.Y.y.y.F.!.R.oX*X$. .*Xg.D.R.B.R.B.y.u.R.R.T.D.oX.XE.R.J.R.J.D.A.A.A.A.B.B.D.H.A.A.F.A.].oX+XR.H.R.].R.F.~.R..X^.Y.Y.Y.XX.XXX~.S..X~..XJ.#X2XoX.XoX*XoX#X-X#XD.Y.*X*XoX#X.XOX>XF.u.Y.E.R.].H.J.J.].D.R.D.D.D.Y.Y.E.oXD.D.R.k.A.D.k.D.D.R.].J.J.D.J.R.D.g.u.A.D.A.J.e.R.A.D.B.D.E.D.A.D.R.A.D.J.H.].R.u.A.E.Y.R.E.D.J.A.J..X@X@X.X.XN.].F.E.R.R.D.g.J.E.E.Y.D.Y.E.^.oXOXoXR.D.J.R.R.R.J.R.]..X.X.XoX.XR.J.J.J..XR.R..XJ.T.D.g.A.S.S.D.A.B.A.H.D.J.J.F.~.D.g.k.g.D.A.D.OX'.H.H.H..Xk.u.J.oXoX.XoX#XOXoXOX5.[.&Xg.R.Y.A.H ",
"..d.;.U w.R.D.g.k.A.Y.J.E.r.g.^.T.R.g.g.O.I e.D.Y.g.A.A.g.k.k.Y.N.T.D.R.q.%.D.oXD.A.g.D.R.H.A.].D.T.Y.T.T.T.J.J.R.].H.H.D.D.H.A.|.H.{.|.C.Z.N.H.C.T.H.].D.H.T.C.T.D.E.Y.R.D.F.J.H.H.H.B.A.D.g.z.J.J.J.R.Y.A.A.Y.A.D.A.H.].T.D.A.F.Y.R.F.A.A.e.A.oX].e.g.D.A.g.A.k.F.D.g.g.D.Y.E.R..XY.D.A.D.H.D.J.E.R.[.oX@X#X@X+X].)..X].D.R.J.R.H..XR.R.@XoX].].@XJ..XR.Y.E.oX[.@X[.R.D.oX].J.#XoX].R.]..X[.oX+X[.]..XR.Y.^.Y.~./.OX*X@X].].].XXF.oX~..XR.*X^.+X].@XD.oXoXOXOXoXoXoXJ.-XoX.X.XOXXXXXR.F.J.J.R.E.OXA.D.oXR..XA.D.D.cX-Xr. .z X...k  .A.A.g.y.g.R.R.F.Y.R.$.;.OXR.e.u.J.H.O.@XD.T.T.'.R.oXR.J.J.A.S.F.F.J.H.A.J.g.g.g.A.R.~.F.F.'.'.'.T.H.R.].R.~.~.J.#X#XJ.D.@XOXOX-X.XF.OXJ.J.J.#XoXD.OX.XoXR..XoX-XD.J.R.oX*X^.~.#XR..Xg.D.R.H.D.].J.B.R.R.J.D.D.A.Y.D.g.Y.D.D.J.u.A.R.D.J.Y.R.R.H.D.A.D.R.D.g.A.D.A.d.J.D.A.D.H.D.Y.OXJ.g.R.J.A.J.R.J..X.Xy.A.oXE.E.E.R.oXY.XXXXXXA.J.].H.+XR.^.J.R.Y.D.Y.D.Y.D.D.R.[.E.R..XE..XoXoX].R.R.R.[.@XoX.X.XoX.XH.F.F.~.oX^.R.E.D.Y.D.A.F.k.u.D.F.H.B.A.N.D.J.D.R.F.k.D.D.R.A.k.Y.].Z.H.O.~.O.;.u.oX*X#XoXR.E.E.R.D.B.tX9XB.&.*.H ",
"} e.....A.J.r.A.B.g.D.y.R.d.Y.D.A.g.y.J.J.D.D.oXA.F.F.E.D.q.y.e.y.A.A.R.D.J.J.A.H.D.D.'.H.H.].H.J.k.u.F.R.F.D.J.F.R.Y.g.B.D.H.N.].B.D.E.^.J.F.F.T.T.T.E.T.g.A.T.E.T.T.H.].A.N.N.k.J.F.g.A.D.r.e.d.J.D.R.R.B.T.'.A.A.A.D.Y.Y.A.f.k.~.F.^.F.r.u.e.J..Xu.].B.H.B.B.D.H.H.T.R.[.R.T.J.Y.oXD.D.A.E.J.D..XJ.R.@XR.R..X.X.X@X@X[.R..X^.Y./.^.R.E.E.E.E.XXXXR.oX.XH.].oXoXoX~.J.A.J.~..XR.E.^.~.J.~.oXoX.X.XJ.~.E.@XE.J.OXoX]..X].oX.XoXY.R.T.R.&X-X=X2X-XOX^.oX.X^.OX#XoX@X@X.X].].R.D.D.*.E.E.OXoXoX*X].=XD.oXR.D.F.~.oXJ.k.J.5.6.%.q.l ' u.e.w.;.r.~.H.J.R.R.A.R.R.g.J.D.J.OXu.e.OX!.~.J.F.F.J.J.R.].J..XXX.XJ.F.J.~.A.D.H.J.A.D.Y.g.k.F.D.Y.F.F.oX.XJ.D.J.].#X.X.X.XR.oX@X.XoXA.E.@X@X@XH.oX.XF.:X.XXXOXOX~.~.~.L.OX#X7X7XXXJ.@Xu.B.Y.A.g.A.A.A.F.J.D.R.J.R..XD.].D.J.k. .k.E.g.g.R.D.R.J.Y.D.Y.D.D.D.R.H.J.~.F.A.k.g.Y.OXR.D.J.F.D.H.D.J.D.J.A.J.].J.R.J.~.F..X.X.XR.oXR.g.R.].B.[.[.T.R.Y.F.J.A.D.F.F.J.E.^.R.R.R.[.[.[..XR.R.].oXoX.XoX#XoX].oX[.oXR.D.R.^.Y.E.E.!.D.F.J.R.A.A.A.A.r.A.B.A.B.D.g.S.F.A.A.J.R.D.F.Y.D.u.D.J.F.u.d./.!.~.*X>XR.D.oX.XJ.F.R.E.&.&.*.",
"~ &.U E r.F.u.J.[.R.H.B.e.R.A.D.A.A.f.A.J.E.R.A.A.J.F.g.g.E.E.D.e.D.^.A.F.R.oXu.B.J.H.].y.N.H.'..XJ.D.F.J.D.D.J.R.D.A.g.B.f.B.D.B.g.B.Y.E.R.J.J.E.Y.B.U.U.g.B.g.E.Y.D.D.H.A.D.H.A.J.F.g.D.J.A.A.A.R.D.B.D.R.R.T.B.D.J.D.A.A.D.F.F.J.~.J.A.A.R.D.N.J.D..XR.R.T.[.R.J.H.R.].R.T.C..XR.R.R.F.D.D.D..X.XJ.R.].R.+X@X#X].H.R.oXoX.XD.F.!.^..XoXoX.XoXXXXX.X].].oX.X.X^.OXoX.XJ.oXoXY.E.R.J.J.~.^.^..XoXR.~.OXE.A.A..X@X.X.X]..X#XR.oXE.oXoXOX-X@XoX].oX.XJ.J.R.oX*X^.].]..X].E.R.R.Y.R.A.OXE..XE.oX*X@X].y.y.e.oX7XXXJ.XXw.eXhXT.D z } u.u.u.e.d.k.w.g.N.H.J.u.A.J.J.XXR.R.J.k.J.!.;..XJ.A.A.F.J.R..XS.F.J..XOXoXJ.A.H.J.J.Y.D.D.Y.A.D.D.A.J.A.g.R..XJ.R.oX.XoXR..X~.D.oXR.J.OXY.E.-Xy.H.A.oXR.~.~.#X#X#XeX.Xk.J.~.S.7X7X.XXXA.A.H.u.A.D.D.D.D.A.D.J.R.J.A.J..X].R.D.k.J.D.Y.Y.A.D.Y.Y.E.R.D.J.R.J.g.H.H.A.D.D.k.k.J.R.E.Y.D.R..XD.D.D.B.D.D.R.J.R.R.F.Y.F.J.D..X.XJ.OX].J.D.oX#X'.].[.T.T.D.F.Y.D.E.J.J.J.E.^.E.R.R.].R.].].].R.]..X.X.XoXR.J.].].T..X.XR..X.XY.E.oX!.k.d.k.D.D.J.D.g.u.g.e.u.D.R.B.S.F.A.A.J..XR.J.f.D.D.S.O.oXD.E.~.r.e.*X.XR.*X-X3X2Xg.F.yXuX*.n ",
"U ;.~ ~ r.F.S./.D.g.D.k.A.A.D.D.g.e.q.g.D.f.g.g.A.g.D.E.Y.E.g.A.D.A.g.Y.J.D.J.Y.J.R.D.D.y.H.H.).J.D.S.J.J.J.D.k.F.g.g.A.H.g.D.R.B.B.D.J.R.~.].J.R.oXH.R.H.g.D.B.A.J.J.R.H.H.A.H.A.D.D.B.D.D.A.R.J.~.E.J.D.D.B.T.B.H.J.A.g.A.D.A..Xr.E ~..X.X .u.].@XJ.g.B.D.D.D.F.F.R.R.].].'.R.R.R.H.].D.R.F.D.H.D.J..X.XoX#XoX.X.X].oX].R.].R.F.R..XoXoXE.Y.R..X.X@X].R.#XXXoXE.Y.Y..XY.R.^.oXU.E.F.J..X~.R.oXoXR.~..XoXT.J.~.]..X@X.X.X@XA.].F.R..XoX].R.R.H.D..X#X-X#XoXOX^..X.X.X].].R.R.Y.oXoXOX.XY.R.R.oXoXD.O.e.D.@XoXOX@XF.A.].R.].D n } U y.e.k.r.u.q.A.J.R.J.A.R.J.y.].H.R.D.A.F.A.k.F.A.A.F.J.J.F.J.A.S.J.R.^.E.J.F.D.D.A.D.D.A.A.g.A.D.D.R.D.g.H.A.S..X#X.X.XR.XXXX.XJ.J.-XoX.XY.y.y.S.H.D.J.7X~.k.oXoX#XOX~.J.J..X.XXXXX2X#XR.A.J.Y.Y.D.J.R.J.D.H.J.J.D.D.A.^.D.D.D.R.R.A.A.J.oXoXoX.XY.g.D.Y.R.g.B.D.A.A.A.k.F..XoX.XD.D..XR.A.R.H.D.J.J.R.J.J.D.R.^.R.F.S..XXX~.J.J.oXoXH.H.R.@XR.D.D.D.F.Y.F.E.~.R.J.R.R.R.E.E.R.R.R..X.X.X.X.X.XoXR.H.J.].].R.]..X]..XR.D.E.oXF.k.g.k.B.D.J.Y.D.A.D.A.A.A.J.J.A.J.D.A.F.XX.XJ.Y.r.r.A.q.g.e.q.!.J.F.8XD.J.#X.X.X@XS.;.E.R.&.H ",
"L w...L &.J.F.k.u.E.J.w.k.*XoXd.R.R.J.B.A.B.R.H.R.R.]..XD.D.g.D.D.F.g.D.g.D.J.J.g.B.J.B.D.G.u.y.g.A.S.F.F.A.g.d.d.g.D.g.D.D.H.B.A.D.H.D.D.R..XF.D.[.R.'.T.B.R.D.R.R.D.R.H.H.H.].H.D.D.A.A.B.g.J.J.R..XoXR.B.B.D.A.D.J.D.D.A.A.f.J.g.u.J.r.u.r.u.J..XH.g.H.H.g.g.k.A.F.A.D.T.R.D.J.oX].R.g.R.D.g.R.R.J.R.R.].].]..X.X].@X@X].].H.~.^.oXoXoXR.D.F.]..X#X.X]..X.X#X@XR.Y.#X*XoXE.E.Y.E.R.~..X^.^.*X@XR.R.J.oX]..XJ.T.R.R.T..XoXD.R.R.R.^.R.J.].oX].@XR.Y.oXOXoX#X*X]..X.X.XE.E.E.R.oXoXE.E.E..XY.Y.].J.D.oXR.oX#XD.'..X.XH.@XwXz H e.e.oXu.q.&.D.D..X.XH.B.A.oXoXD.A.H.oXoX~.S.k.~.A.g.B.F.J.J.S.S.S.J..XR.D.A.F.~.D.J.D.R.E.D.A.A.D.R.D.A.D.R.oXH.A.F.R.D.R.R..X.X.XoX.X#X-X#XD.r.qXF.J.D..X#X:X>XR.#X#XR.~.XXJ.~..XeX#Xg.S.R.R.].g.k.g.k.R.E.J.E.J.oX.XD.g.F.D.d.A.D.J.A.Y.Y.Y.E.oXE.D.f.A.J.R.D.u.J.J.J.D.F.~.R.R.J.D.D.J.H.A.R.J.E..XR.F.D.D.A.R..XoXR.H.~.oXXXR.H.R.].H.D.H.R.Y.D.D.F.J.D.D.Y.~.J.J.J.R.^..XoXR.R.]..X.X].R.].oX.XJ.J.].].].@XoX].J.R.R.F.R.E.k.D.A.D.B.J.J.J.D.D.H.R.H.g.N.A.k.D.S.k.A.J.J.D.D.F.k.k.r.&.B.&.F.oXJ.:X#X#XJ.J.H.R..XoXE.zXD.n ",
"K u.q.K Q J.Y.q.n D.#XF.F.R.D.F.&XoXH.u.g.A.R.D.D.R.H.R.A.g.D.J.F.A.F.J.R.u.A.A.D.H.@XH.A.g.N.H.A.A.F.A.u.w.r.k.A.Y.Y.f.g.D.H.g.u.A.D.A.A.J.].F.H.[.'.[.oX'.[.H.A.d.e.A.D.B.g.H.].J.J.H.A.g.g.H.A.R.J.R.R.R.].B.A.J.]..XJ.D.A.D.g.oXJ.D.~.R.A.&.u.A.g.A.D.g.y.D..XR.R.D.R.Y.T.A.R.OXOXJ.g.H.R.D.J..X].R.oX.XJ.]..XR.J.oX@XoX].D.~..X].oX@X].R.~.|.@X@X@X.XR.oXoX&X].R.T.E.oXE.k.Y..XE.^.oX.XE.*X@XR..X].].H.R.~.R.[.f.B.].oX.XoX/.^.^.R.J..X#X.XoXR.J.@X*X#X*XOXoX@X@XoXE.D.A.A.E.R.D.^.^.oXR..X.X-XD.A.H.A.D.-X#XN.@XqXR.]. .H k. . .d.D.F.Y.Y.@X).A.H.D.R.^.OXH.oXJ.D.J.F.F.u.H.A.B.A.D.D.S.S.A.J.^..XR.J.J.J.D.D.A.J.R.D.A.A.g.J.D.D.J..X-X].F.J.F.A..X~.J.J.].@X.X.X.X2X#X#XJ.F.J.J.J.r.A./.R.R.oX.XJ.OXOXJ..X#X].#X].A..XA.Y.oXE.R.^.Y.D.^.H.R.D.D.R.D.^.D.A.F.F.g.Y.A.B.R.D.D.D.D.D.J.D.D.B.J.R.R.F.F.Y.D.D.g.D.D.g.A.A.A.J.R.E.R.D.D.D.D.J.Y..XoX].R..XR.oX].H.R.oXR.H.R.R.J.F.Y.J.D.D.Y.~.~.J.R.].oXoXoXR.R.].].R.J.J.R..X.XY.D.R.E.R.oX.X].J.Y.R.Y.E.E.D.D.k.D.D.].Y.A.A.D.D.D.D.D.k.d.N.N.B.B.g.A.A.A.R.~.r.A.u.O.A.R.q.A.R.^..Xu.&..X-Xk.OX-X].oXD.E ",
"I =.o.I Q R.D.K N ;.L.N ..OXA.R.T.H.D.H.J.A.H.J.B.D.D.R.R.A.H.A.A.D.F.D.A.A.F.k.R.H.D.B.u.A.A.H.F.A.u.k.k.k.k.D.g.A.D.g.D.J.T.B.r.k.D.H.H.H.J.S.H.[.@X@XoX[.'.H.g.g.g.J.].'.D.H.@X].].].J.S.A.J.D.R.A.J.H.D.[.H.R.J.J.J.J.H.H.R.H.J.N.].A.k.J.S.D.@XJ.A.D.A.H.H.J.D.J.D.J.f.g.D.oXoX#XE.H.A.R.R.g.R..X.X-X#XR..XR..X.XoXR.J.].].R.].].[.oXoX^..X].<X+X+X.XoX#XR.R.].@X@XoX^.oXR.oXoXR.R.oXoXE.^.[.oXoX].R.R.]..XY.&XD.R.oX]..X.X!.R.~.^.~.oXoXR.oX@XoXoX.XoX*XoX@X@XOXOXE.D.A.A..XR.R.E.F.R.J..X*XE.E.-XoXJ.oX7X.XN.[.@XJ.u.K  .....oXf.g.OXy.y.].'.H.].R.E.R.^.H.].e.r.J.~..X;.R.J.H.A.A.S.A.k.u.A.J.^.R.R.J.J.R.J.D.J.R.J.R.R.e.k.D..XR.D.R.H.~.~.D.N..X.XJ.J.].H.J.R.J.OXXXA.A.7XJ.u.A.u.k.F..XJ.E.oXoXoX.XOXY.OXoXoX.X.X.XJ.y.g.A.D.R.Y.Y.E.A.B.d.J.E.y.F.R.R.^.D.u.D.D.D.Y.D.D.A.H.D.H.H.H.H.D.A.J.D.g.D.J.A.g.R.H.e.g.D.A.^.R.Y.R.J.R.J.J.E.D.Y.R.].R.].R.H.@X].R.R.B.D.@XE.Y.D.F.F.k.F.R.~..X.XR.]..XoXoX]..X.X.XR.J.J.R.E.oXR.D.D..X.XY.H.R.J.E.R.J.R.R.F.F.D.D.A.H.H.A.A.J.J.J.k.d.d.F.D.d.g.A.A.g.A.S.D.k.g.O.5.q.u.'.R.F..XA.~.A.u.XX-Xu.u.7X-XoX;.L ",
"I 5.R.R.&.g.D.6...k...O.@.w.D.F.6.B.N.B.A.H.J.A.D..XoXD.J..XoXg.Y.g.e.R.D.A.D.oX'.B.g.D.H.H.H.u.A.g.u.A.R.~.F.k.e.q.f.g.R.H.H.B.p.A.J.'.H.H.H.S.B.H.].'.T.T.C.H.D.D.A.N.H.H.H.'..XJ.]..XJ.F.F..X.XE.Y.R.D.g.H.R.^.J.A.D.H.R.J.H.N.J.].A..XA.J.F.A.oXR.A.J.g.R.u.A.D.E.D.Y.A.Y.E.OXoXOX^.J.A.D.D..X.X.XJ.].oX].oXOXoXR..X].].oX].].oX[.[.[.oX].~.+X<X@X+XoX@X@XE.@X].R.g.g.k.^.OX#XoXE.R.oXOXoXY.].XX.XR.R.@X[.R.Y.OX].OXoX].R.R.R.^.^.oXOXOXoX.X].+X[.@X&X&X].f.R.E.oXoXoXE.E.oX@XR.oXR.A.R.J..XoX.XOXg.g.#X-X2XqX}.H.y.R.u.n f.$.E /. .A.D.&.D.].].A.B.D.oXE.D.A.D.r.~.OX~.XXr.N.H.J.H.H.F.A.u.u.A.F.F.A.A.J..XF.D.k.D.D.D.R.D.A.D.D.R.D.u.S.D.S.J.A.r.F.J.F.F.J.].J.S.OX.Xe.r.A.J.F.XX#XR.F.F.Y.-X#XD.].#X.X.XE.R.R.R..XXXr.~.A.D.D.J.R.Y.F.D.R.D.A.R.k...e.D.D.J.k.D.D.Y.E.A.R.J.A.B.A.H.J.J.D.A.A.J.k.u.D..XD.H..XD.y.g.D.Y..X^.Y..XR.R.D.F.E.Y.R.J.R.R.oX.X].oXH.H.R.B.D.[.E.Y.A.F.F.k.F.J.R..X.XR.R..XoXoX.X.X.X.XR.J.J.R.E.oX.XJ.D..XoXJ.A.H.J.^.R.J.E.E.J.J.J.A.N.g.D.D.g.D.D.R.k.w.q.F.D.u.u.A.A.B.A.A.A.&.k.r.e.X.t.@XD.J..Xr.A.A..X#Xg.k.S.F.#X@XD.U ",
"&.} g.oXu.u.g.&.F.@.L.| r.k.u.F.H.N.5.f.N.H.J.J.H.B.].D.].H.H.D.D.A.A.k.J.Y.oXY.'.H.H.g.e.} S.F.A.F.J.F.F.F.D.k.D.g.g.A.R.H.H.D.k.A.J.'.H.H.H.H.'.C.T.H.'.}.H.C.B.D.T.g.A.N.A.A.J.A.J.J.F.K.F.L.oXE.oXR.D.J.H.N.J.R.R.D.D.H.H.D.H.]..XR.H.].J.J.].oX].J.H.Q D.H.D.T.R.d.E.oXoXg.A.D.Y.F.D.R.R.J..XJ..XR.].@XoX].OXoXR..X].].oX].].@X+X{.@X@X.X~.<X@X2X#XoXoX].&X].]..XD..XoXk.L oXoXoXE.E.oXoXY..XR.F.oX'.T.H.T.oXE.D.Y.E.@X].R.^./.^.^.oXoX].oX#X#X+XoX[.].@X[.oXoXOXoXE.Y.D.F.@XJ.#XR.D.oX.X.XD.e.-XY.f.-XoXD.0XH.Z.H.u.J K  .B ..r.&.R.A.D.R.].'.V.A.D.D.e.*.].J.A.J.k.r.L.k.y.D.H.D.H.F.D.g.S.F.F.D.B.A.J..XY.D.D.J.D.J.R.A.D.J.D.R.J.H.J.N.S..XJ.u.D.J.J.J.R.H..XJ..XJ.J.OXA.A.0X9XOXJ.*XF.Y.D.E.E.J..XoX#XT.E.J.Y.A.XXJ.A.J..XoX.XJ.A.D.D..XH.A.D.g.d.s.Y.D.A.g.R.q.e.Y.D.Y.D.A.u.H.R.].A.D.H.R.R.g.u.D.E..XJ.D.g.g.A.D.Y.J.R.R.oXJ.D.k.D.A.Y.OXE.].R.oX.X#X@XH.R.].R.E.E.oXU.A.R.R.D.F.F.~..X.X.X]..XoX@X.X.X.X.X].R.J.J.oXE.E.E.Y.E.oXE.D.J.J.E..XE.oXoXF.A.A.g.A.H.R.H.g.D.A.J.R.F.u.u.A.e.q.u.g.g.N.r.R.D.r.g.X.y.y.y.F.R.D.e..XJ.XX7XF.A.S..X@XD.k.O.",
"! D.&.g.A.^.O.J.:.;.g.q.g.D.g.B.g.A.g.g.k.k.F.k.r.A.F.k.R.F.D.D.B.A.D.].].H.F.D.A.T.H.f.D.k.k.A.A.E.g.N.B.H.J.].].J.A.Y.oXY.A.D.B.H.H.H.D.D.B.B.B.B.'.'.D.R.D.D.D.A.A.A.A.A.A.y.H.R.].R.H.B.R.H.'.T.'.B.J.OXA.u.T.T.C.T.D.B.H.J.J..XL.F..XJ.oXJ.H.R.].T.H.R.R.T.].H.D.T.R.T.'.].A.A.A.N.B.D.H.].J.J.R.[.@X@X}.{.[.[.+X@XoX].E.[.].J..X.X.XoX'.[.@X3X@XJ.@X@XJ..XOXD.Y.oX^.E.oX^.E.Y.Y.oXOXoX].oXU.R.R.oXR.D.J.J..XR.J.R..X.XoXoXE.D.[.].@X.X]..X-X@XoX-XoXOXoXE.-XoXE.OX*X*XoXoX].R.oXA..XoX@XR.].[.[.R.H.].R.f.;XB.e.D.oXH  . .N /.Y.r.F.^.;.F.R.R.D.J..X~.r.A.7XA.D.A.F..XA..XF.J.F.J.D.A.J.H.k.F.F.F.~.A.J.J.J.A.k.J.^..XR.D.F.H.J.].].J.J.R.D.A.D.R.D.g.B.H.Y.F.Y.F.e.:.oXk.F.F.J.^.J..XJ.F.J.R.E.F.F.~..X!.D.OXA.oXS.#X.Xu.g.J.H.D.OX-XR.g.Y.A.Y.R.D.D.D.Y.F.R.f.A.H.H.].H.F.u.J.A.A.F.R.k.J..XF.R.D.D.D.D.Y.F.F.k.p.F..XR.Y.E.Y.J.J.Y.g.E.J.J.D.f.R.oXoXR.].+XH..X#X.XoXJ.oXR.J.g.A.R.D.oX[.oX+X.X].].oX@X#X].R..XR.D.D.D.E.E.R.D.H..XoXoXR.S.S.F.~..XR.E.D.D.H.D.~.A.A.R.H.N.T.'.R.N.A.A.l.k.k.t.A.G.N.g.R.H.Z.y.} r.R.Y.D.2XB.1.#XS.L.J.OXD.J.R.U .XF.Q ",
"n &.y.D.OXO.} @X/.d.D.f.&.5.N.H.D.H.B.B.k.A.D.f.w.k.~.~.R.D.D.D.A.J.J.R.H.A.F.D.A.T.T.B.J.S.A.D.A.A.D.H.B.J.].y.D.D.A.E.R.F.A.D.g.g.B.D.H.H.H.H.H.T.T.'.H.Y.H.D.A.E.A.g.f.R.A.f.u.H..XJ.H.H.oXR.'.B.B.T.A.g.D.A.R.T.H.R.R.'.oX].S.F.J.XXOXF.J.D.g.oX.X@XR.B.D.D.D.H.T.'.R.J.H.H.].H.J.H.].].].'.R.J.R.].@X@X@X}.+X[.[.@X[.'.E.@X].'.oXoX[.@X[.@X=X#X+X].[.#X+X].OXE.oXE.A.g.Y.R.E.Y.Y.^.oX.X].].^.E.E.E.oXR..XE.S..X-X-XoX.X.X.XR.R.oXD.R.@X#X+XoXoXoXoX.XOX*X*X-XOXoXoX#X-XoXE..XR..XoXy.A.D.R.oX@X@X@XR.H.R.R.R.T.B.D.E.&.Q &.^ F.!.k...&.;.k.H.R.A.XX:XF.r.u.k.F.e.r.A.k.A.E.~.J..XF.g.J.J..XXXJ.F..X*XJ.R.].D.D.D.D.A.D.J.D.H.J.J.R.J.J.J.J.H.J.J.H.D.D.H.H.D.J.D.k.w.k.;.k.~.J.F.F.A.J.J..XJ.J.J.J.R..X~.k.A.D.f.>XR.r.k.XXH.g.g.A.Y.Y.D.A.Y.D.J.F.J.R.J.D.D.R.A.D.T.H.'.H.J.g.J.J.A.u.D.F.F.F.k.Y.J.J.A.D.R.R.D.k.k.F.F.F.A.Y.Y.D.D.D.g.Y.~.J.J.oXD.oXA...@X2X@X@X@X.XoX].R.R..XA.D.oXR.R.'.oX+X.X].].oX@X@X.X.X.XJ.D.D.J.E.Y.A.A.R.oX.XR.F.A.F.F.R.^.J.Y.R.R.D.D.D.A.A.J.V.G.].H.H.D.J.F.k.F.k.r.b.A.N.D.H.B.N.y.U O.g.g.D.].t.J.J.OXOX7X#Xd.F.k.A.F.e.j ",
"n H *.g.R.F.U R.x.d.g.B.B.y.y.g.J.H.A.B.f.A.D.f.r.w.F.R.J.J.oXD.g.J.J.H.H.D.R.~.H.R.T.B.J.F.D.D.D.g.f.D.H.D.J.H.H.H.J.E.D.D.A.D.B.B.B.g.g.D.D.D.B.'.B.T.T.D.Y.Y.f.J.g.A.A.F.y.g.D.A.].J.A.A.R.].H.g.D.H.y.f.R.D.T.T.].].H.R.R.H.J.A.A.J.J.u.H.oX].J.+XD.B.R.y.H.J.R.'.R.J.J.F.D.D.A.R..XH.H.R.#XoX^.].].[.+X+X+X=X[.[.@X@X[.@X&X].'.[.[.[.}.[.@X#X#X].].#X2X#X@XE.J.oXoX*XoXY.q.F.R.oXoXR.D.R.@X^.R.D.D.oXR..X.XR..XoXoXoXoXoX.X[.OX@XB.H.@X-X.X@XoXoXoXoX^..XOX*X#X#XR.#X*X-XoXoXoXD.A.R.].A.@XoXoXH.].@X[.oXH.@X].B.s.g.s... .E &.r.x.r.d.J.k.u.u.A.r.k.A.r.F.F..Xu.d.F.A.~.A.~.F.J.k.g.R.R.]..XF.u.F.oXD.A.D.A.F.Y.D.g.A.D.D.H.J.J.H.H.R.R.J.R.R.J.D.H.D.B.D.Y.Y.D.O.D.*XF.^.J.J.R..XR.~.D.F.R.F.D.F.~..X~.A.oXE.A.oX].O.r.~.R.J.].OX.XY.g...F.F.J.D.J.E.D.A.k.D.D.A.H.J.H.R.J.g.J.R.D.A.F.J.k.k.k.A.D.Y.A.D.D.F.k.k.J.F.k.F.Y.E.E.D.J.J.D.Y.J.J.J.oXA.oX.XA.].2X2XoX].]..X.X.XR..XR.E.E.D.Y.R.[.oXoX.X.X[.[.oX.X.XR.D.D.J.R.Y.F.D.D.J.R.R.J.A.A.J.J.R.^.R.E.D.D.D.R.D.F.A.A.A.H.J.D.A.D.J.A.k.A.k.g.u.S.g.J.+XH.B.y.} O.f.y.T.H.y.F.A.A.F.#Xr.&.F.O.e.y.D.z ",
"~ e.n g.J.Q F.D.:.s.;.q.g.g.A.D.N.A.J.E.H.D.A.f.k.w.k.F.J.Y.oXD.H.R.'.H.D.D.J.Y.H.T.T.D.J.J.J.H.A.D.D.g.A.A.D.u.u.u.J..XoXR.D.f.D.].R.g.g.R.].A.N.H.B.D.U.D.D.Y.D.J.D.A.A.q.O.*.J.A.R.D.g.N.H.R.B.e.R.D.f.Y.^.^.Y.D.oXE.H.].R.T.J.D.F..XR.A.J.oX].H.H.g.B.R.R.H.].'.T.T.R.J.J.F.H.e.e.R.S.J.H..X.XE.R.].[.}..X+X@X[.[.[.@X@X@X[.R.R.R.].[.[.[.oX#X@XoX@X@X@X-X@XOXE..XY.E.R.OXoXoXR.J.~..X.X.X.X!.F.A.A..XR..X~.#XR.D.R.oXoXoXoX].R.].J.]..X#X@X@X@XoX.X>X7X7X-XoX-XoX#XE.-XOXOX].#X2XR..XoX].'.d.oXR.].oXoX-X.X@X'.g.e.g.=.&.f.N  .F./.F.k.J.k.A.~.k.k.J.k.J.A.R.D.R.~.k.S..XR.~.J.u.k.S.D..XD.~.J.A.A.Y.Y.J.J.D.D.D.D.A.D.H.A.H.J.J.H.J.].].R.R.R.D.H.R.A.u.H.J.D.e...g.R.#Xk.J.J.F.F.F.~.D.R.R.F.F.J.J.~.~.J.D.#XoXA..X7X7X~.].R.R.D.D.R.E.R.D.Y.Y.A.D.D.g.A.A.D.J.D.D.J.H.].A.g.A.g.g.D.J.D.A.D.J.g.g.Y.A.D.A.A.u.D..XF.k.F.R.Y.J.A.R.J.F.D.J.R.J.R.E.oXoXoXH.oX#X].R.R.R..XoXR.R.E.E.J.A.R.R.].oX.X].].].oX.X.XoXR.D.D.Y.R.J.J.F.J.J.D.D.D.A.D.J.J.J.^.E.E.J.D.J.J.A.J..X~.R.H.A.D.D.A.A.g.k.k.g.g.A.F.k.F.#XoXR.e.Q O.D.R.B.H.J.H.XXg.u.J.r.^.oX&.q.D.].Q ",
"Q u.d.Y.R.D.eXk.$.&.q.y. .O.k.u.H.N.D.R.T.H.H.D.A.g.D.J.E.Y.R.D.R.R.R.T.H.H.D.D.H.T.H.H.J.].J.J.D.O.e.g.g.g.R.D.A.g.J.D.J.g.A.y.5.A.H.g.B.Y.Y.f.B.D.T.D.D.D.z.Y.g.D.D.g.y.u.g.d.g.S..Xg.u.H.R.D.A.f.Y.Y.Y.oX^.*XoXY.Y.A.D.[.T.D.D.J.]..X].J.D.D.f.5.R.R.R.R.@XR.T.T.T.T.R.D.A.A.oXy.e.A.D.].J.F.D.D.H.R.]..X.X+X]..XR.R.].oXE.A..X.X.XoXoXoXoXoX-X@X@X-XoX].&XoXOXR.^..X#XoX^.J.oXR.J.R.^.oX.X^.!.R.J.Y.oXE.oX^..XE..XoXoXoXoXOX.XR.]..XoXH.R.oXoX-X@XD.oX7X9X-XOX#X#X-X7X@X#XR.J.@X#XoX#X8X'.f...R.R..X@X-XgXqX2XqX=XH.R.L t e.~ ^ /.R.e.r.k.w.r.J.d.J.~.O.D.F.~.A.R.OXF.F./.^..XJ.u.F.J.F.E.A.R.~.J.A.F.E.R.J.A.g.B.D.D.H.H.A.).H.H.J.].J.J.R.H.J.J.R..XS.N.H.J.A.;.J.u.k.oXD.J.J.F.F.J..XJ..XD.F.E..XR.J.F.k.J.D.R..X-XOXg.D.].oX]..XoXA.y.D.F.J.D.A.D.D.g.A.R.^.E.F.J.R.J.].D.D.F.d.e.A.J.J.R.J.R.A.A.D.A.J.R.D.A.J.^.F.k.F.J.D.J.R.oXJ.J.J.oXJ.A.D..XR.R..XoXoXoX].].].R..XR.R.E.Y.Y.E.Y.E.E.E..X.X.X].].oX#X@X@X.XJ.J.R.J.~.J.D.D.J.J.A.g.D.F.R.J.J.R.D.D.R.D.R.F.A.A.J.k.J.D.A.D.A.A.A.k.D.A.A.g.F.F.D.R.J.D.D.u.&.w.D.H.=X].D.y.S.R.J.R.OXJ.F.D.y.oXR.z ",
"k.w.J.!.R.^.~.k.&.:.*.q...O.d.A.R.A.N.B.H.H.B.T.H.A.B.A.].J.H.H.T.D.T.T.T.Y.D.D.D.T.T.T.D.J.A.g.R.A.g.&.5.A.D.u.J.F.R.A.A.y.k.g.N.H.J.J.F.J.D.A.g.g.R.A.D.A.g.Y.Y.Y.F.E.u.k.g.g.D.J.R.u.u.B.D.D.J..XY.Y.oXoXoXOXD.D.D.A.D.Y.D.B.H.R.R.J.D.].J.J.B.[ '.[.H.D.J.].T.T.T.T.D.g.g.T.D.A.E.g.D.F.XXJ.A.D.J.R.].]..X.XoXoX.XR.~.oX^.D..X.X.XoXOXXXoXXXY.-XY.D.#XR.D.@XoX@X#X#X.XJ.J..XR.^..X~.J.J.^.oX~.^.oX@X[.E.oX^.Y.OX*XOXoXOXOXoX@XoXoXoXoXH.E..X#X@XoXR..X~..X.XOX].].[.8X@X2X@XD.oX#XR.2X=X'.[.~.oXD.R.-X-X3XoX1X5XqX@X].y.f Q ;.;.A.w.r.A.w.@.;.k.A.J.F.w.k.F.^.oXA.oX:X~..XR.J.A.A.J.F.J.R.E.R.J.D.D.H.E.A.h.D.g.B.D.A.D.H.H.'.H.H.).J.J.F.J.D.]..XR.J.F.A.A.F.k.u.J.D.A.J.F.A.J.R.~.~..XD.k.F.J.E.^.R.J.A.e.A.A.J..X#X9XY.D.J.@X.XY.oXJ.k.oX~.D.A.B.T.Y.A.A.F.R.F.D.J.R.R.].R.F.J.F.A.D.A.D.R.A.B.A.R.D.A.H..XJ.D.D.D.k.j.F.R.J.J..X].A.J..X.XD.D..XJ.J.].#X@XoXY.J.R.R.R.E.R.E.].oXoX^.E.OXE.E.E.^..X]..XoX#X#X@XoXR.J.J.D.J.J.F.F.H.H.D.D.D.D.R.R..X.XD.A.J.D.R.R.R.F.F.;.A.J.J.J.g.A.D.A.A.A.D.u.A.k.A.J.F.N.B.u.w.&.u.D.].'.].D.g.~.R.u.OXD.e.r.f.R.f.K ",
"c U /.r.!.R.!.d.~ :.q.f.A.A.d.A.N.A.H.D.T.H.y.8.H.f.y.g.R.J.J.J.Y.T.'.T.D.D.h.k.D.T.U.T.A.D.g.y.u.g.g.g.D.J.g.D.u.S.J..XE.D.k.A.J.J.H.D.A.k.k.k.g.g.H.D.D.g.A.D.D.A.g.E.D.D.g.D.!.R.D.k.D.r.g.J.J.oXR.R.oXOX@XoX*.z.D.Y.oXE.E.oXT.R.].oX].@X].].'.B.N.R.A.e.R.J.T.T.T.T.B.B.H.].A.J.oXA.D.J..XJ.J.J.R..X.X]..X.XoXoXoXoXoXoX.XR..X.XR..XoX.X@XoXF.>Xg.u.*XR.A.@X#X@XR.oX.XoXJ.J.^.^.!.J.R.~.^.R.~..X.X@XB.D..X.XR.oXOXoXoXoXoX.X]..X.X.XOXoX-X*X#X.X.X#XOX.X.XOXR.[.g.@XH.@X@X-XeXR.oXR.@X@X=XT.R.F.D.E.#X2XqX3X3X=X3X3XH.6.W d w.S.F.w.A.A.O.q.r.F.w.F.^.F.F.} r.OXD..X:X~.%X!.A.g.k.S.F.F..X@XXX.XJ.J.Y.oXA.D.D.D.D.D.A.A.H.H.H.H.J.J.J.J.J.].J.]..XJ.F.S.A.A..XF.J.R.XXJ..XA.A.S.F.A.u.F.A.k.Y.R.R.J.D.D.A.u.A.k.g.R.OX-XoXY.D.@XoXY.oXoXR.oX~.D.A.B.D.Y.D.k.k.F.d.A.J.J.].H.D.g.A.R.J.D.f.k.D.B.g.A.R.D.D.A.J.R.A.u.d.r.r.F..XR.D.R.D.g.D.R.R.R..XoX.XJ.].[.[.oXD.D.Y.Y.^.Y.oXoXoXOXOXY.Y.oX[.E.^..X.X]..XoX@XoXoX.XR.J.J.D.F.J.~.J.D.H.R.].D.A.R.^.XXOXR.R.@X].^.R.J.!.J.A.S.J.J.J.k.D.A.A.g.A.D.d.k.A.k.F..XJ.H.w.....D.@XN.T.@XH.g.D.OXR.OXA.A.D.f.H.g. .",
"N r.F.R.!.~.k.;.E  .*.*.} r.F.k.N.R.R.N.B.B.6.f.B.f.B.H.J.D.J.H.B.D.'.C.B.D.D.D.D.U.D.T.k.F.A.g.5.u.H.D.g.J.D.D.J.R.S.R.D.D.r.g.H.J.J.D.D.F.D.k.H.H.J.Y.D.r.A.f.A.D.g.f.D.D.g.g.d.F.A.D..XD.F.R.F.d.Y..XOX*XoX7Xf.Y.A.D..XY.Y..XR.Y.].oXR.].D.].T.[.R.R.g.D.D..XD.D.D.D.H.R.R.T.D..X.XoXF.~.S.~.L.J..X.X.X]..XoXY.Y.E.OX&XoXE.[..X.XR..XoX.X@X@X-XoXk.F.E.Y..XH.H.#XoX@XH.R.H.].^..X.X!.J.R.!.!.~.R.Y.[.5.f.R.oXY.Y.oX#XOXR.E.OX@X@X.X.XoX.X*XoX#X#X.X.X~.7X7XoXoX-X-X@X@XD.@X@X~.#X@X#XR.oXT.[.oXR.E.OX-X8XtXqX'.].+XhX'.d ' I ~ w.k.k.S.S.A.S.F.k.k.A.D./.F.D.A.OXY..XOX%X:Xr.D.J.r.A.S.A.OXR.J.R.J.A.g.Y.g.z.H.H.H.A.N.D.H.A.H.H.).J.J.]..X]..XJ.J.~.J.S.K.F.q.O.r.#XJ.A.J.k.A.H.J.A.r.J.^.R.D.J.E.J.A.D.H.A.A.A.g.XX#XE.OXE.H.R.R.^.oXE.D.J.J.D.T.B.g.D.D.u.D.J.d.D..XR..XA.J.D.Y.E.D.A.g.Y.A.R.J.D.J.D.J.g.A..XD.y.k.d.r.L.R.R.D..XR.J.J.D.oX^.k.O.oX).].+XoX;XE.E.oXE.oXJ.Y.oXoXR.Y.Y.Y.Y.E.E.^..X.X.X.XoX@X.X.X.XR.J.J.R.J.~.~.J.J..XoX.XH.D.R.^.XXXX.X@XR.].E.^.A.F.A.S.H.A.k.R.F.F.k.A.f.A.g.k.D.J.k.k.J.F.A.w.k.R.].M.y.+X+XR.A.D.J..XD.f.u.Y.E.oXo. .",
"L ..U p...u.oXr. .k.w...e.H.H.y.H.'.T.R.f.D.A.g.k.d.y.B.T.N.H.'.D.H.H.D.H.H.H.H.g.A.D.J.J.A.u.u.q.q.u.g.q.D.oXE.J.g.A.g.D.D.g.g.D.A.D.D.g.g.D.D.D.B.g.e.B.u.D.u.u.R.e.A.g.H.f.f.q.g.R.R.J.'.'.'.D.^.D.R.OXT.f.[.~..XJ.D.H.R.].[.J.].oX'.@Xg.R.g.R.H.D.g.A.D.z.z.D.A.Y.J.H.H.D.].Y.D.oXR.D.J.F.D.J.A.D.R.D.J.#X.XY.^.Y.oXoXoXH.].'.'.H.R.@XOX^..X@X].@X@XR.'.'.J.E.R.oXoXR..XR.oXOXr.*XOXOXoXR.D.^.oX^.^.R.oX.XoXJ.J.@X-X].].2XoX*XOXoX.X]..X.X@X#XR.R.oXD.*X*X-X2X].oXoXoXoXOX9X2X=X3XT.oX.XoXE.Y.R.E.R.@X+X'.1X|.5X}.6X}.' [ j V l.F.| O.~.XXu.g.R.J.J.k.w.p.r.#X].g.XX@X2XH.N.N.u.k.d.D.Y.oXE..XJ.J.F.S.S.F.J.J.A.A.D.5.B.B.H.D.D.H.J.R..XR.F.F..XJ..XJ.~.F.p.u.D.H.].R.g.A.J.R.r.g.OX~..XA.F.!.S.F.J.J..XB.g.E.Y.y..X-XoXR.B.R.#XR.oXR.D.D.R..XR.J.H.D.A.A.A.y.H.R.g.H.H.].u.A.J.R.A.D.J.g.J.l.k.k.D.D.Y.D.g.D.D.D.g.k.y.d.J.F.A.].R.D.B.B.Y.R.B.R.s.f.U.[.D.H.].R.R.oX.X.XR.E..XoXE.E.g.A.Y.Y.R.E.E.Y.Y.E.E.XX].R..XE.J.F.R.H.oXY.B.J..XY.Y.A.F.A.F.R.oXR.R.R.A.E.Y.g.g.R.D.D.A.A.Y.D.A.D.A.g.D.J.A.A.D.D.F.D.D.J.g.D.Y.Y.T.r.g.oXD.g.y.H.T..X#Xu.oX#X-Xg. .",
"L ~ ;.&.;.A.D.D.k.A...q.N.H.V.i.D.T.H.T.B.'.R.H.Y.D.f.g.[.'.'.H.J.H.H.H.H.H.H.].R.D.D.Y.D.A.A.S.H.B.u.*.&.g.oXoXA.A.A.g.J.R.J.u.A.D.Y.D.D.D.J.J.J.D.H.A.D.A.R.A.F.g.g.R.D.B.N.N.d.d.D.R.].].T.|.E.Y.Y.R.T.'.T.f.y.R.D.H.R.B.B.oXXX].oX@X]. .g.oX].T.D.D.f.D.f.U.E.D.D.D.D.D.H.oXoXoXoXR.R.R.D.A.D.].D.D.oX.XoX#XY.oXoXOX.X@X.XJ.].+XoXoXoX.XR.oX.X].R.H.[.@X.X.X*X@XoXR.D.J.D.].OX..OX*XJ.D.D.oX.XoXoX.XoXE.D.A.H.R..XoX@X#X2X2X*X#XOXoXR.J..X#XXXoX#XOXoX*XoXOX#X.X@XoXoXR.-XuX[ '.N.R.;X.XA.D.*X.X.XR.oX+X@X1X5X'.}.B.[.B.] ] 3 V F.N w.J.A.XXH.D.R.OX~.;.r.S.H.F.u.J.A.u.].H.D.A.g.u.k.R.oX^.oX~..XoX.XJ.J.J.J.J.H.H.e.N.N.N.H.H.T.R.]..X.X~.J.F..XF.A.k.J.A.H.J.A.D.D.B.R.oXJ.A.oXoXOX!.~.J.F..XOX.XJ.J.u.J.Y.A.y.D.@XR.R.J..XoXJ.R.J.Y.D.D.D.H.J.J.F.D.k.g.e.D..XJ.R.g.D.R.y.D.A.A.J.g.A.A.j.k.D.F.D.F.J.D.J.^.A.q.A.D.R.OXF.A.F.A.D.H.D.Y.J.H.E.Y.D.E.OXOXN.H.H..XoXY.E.oXY.OXOXD.g.A.R.Y.D.E..XR.Y.R.E.E.OX].R.].E.Y.J.R.].oXH.g.D.R.R.E.A.J.J.^.R.R.F.R.D.A.A.J.D.B.B.D.A.F.D.A.g.g.J.D.A.D.J.D.F.J.D.R.A.A.D.A.u.E.E.D.D.f.oX*Xy.].T.B.F.J.J.#X#XA.y.} ",
"~ r.F...d.D.oXoX&.k.w.u.B.g.A.H.D.T.H.H.T.[.R.T.J.Y.B.g.'.'.'.'.R.H.H.H.J.H.J..XoXA.A.D.A.B.g.e.D.A.J.D.g.q.f.A.A.D.A.Y..XA.J.J.A.Y.Y.A.D.Y.D.D.D.J.J.D.A.A.J.D.J.k.J.oXH.B.f.g.q.g.D.A.J.[.R.T.R.Y.oXR.B.R.;XR.J.R.R.oXD.R.@XT.R..X].R.oXE.OXD.R.H.T.oXF.E.f.z.E.D.A.J.J.g.A.H.D.oXR.R.oX.XE.oXR.].J.D..XR.R.R.R.D.R.*X].R.].J.].].'.R..XoX.XoX#X@XoX+X@XB.5.H.[.Y.R.J.R..XoX2XOXg.D.A.D.D.E..X.XD.u.q.D.J.oX#X].@X#X@X2X@XN.H.OXOXoX].].@X@X@X#X#X#XJ.oXE.E.#X.X].R.oX#X.X*X^.D.2X[.@XoXoXD.oX^.A.J.R.+X2X3X6X5X}.|.B.f.W b N.e c | F.A.A.J.J.J.J.J.k.A.r.u.w.H.F.J.J.u.].N.J.J.J.g.r.d.J.R.R.J.S.J.XX.XD.A.D.A.J.H.R.g.D.B.y.T.H.H.H.J..X@X#XJ.S..XF.r.u.~.L.J.J.H.J.J.D.J.J./.~.XXF.#X!.#X.XA.XXOX^.J.D.e.R.E.J.E.OXwX-XoX].#XR.D.D.A.R.Y.Y.g.A.H.J.J.F.D.D.u..X.Xe.H.@XR.e.f.J.D.D.J.g.A.A.F.k.r.k.F.R.D.D.k.F.u.;.d.g.k.e.D.F.F.S.J.F.d.k.oXoXE.oXY.D.H.R..X#XR.D.J.oXoXD.D.Y.E.Y.g.D.Y.D.A.oXoXY.R.E.E..X#XR.J.R.E.R.Y.R.]..XH.A.Y.E.Y.Y.J.H.F..XF.F.D.F.D.D.g.A.B.R.J.A.g.D.D.D.D.D.R.D.A.k.A.A.D.J.D.^.g.D.R.d.} D.OXY.g.D..XR.D.].H.R.OXF.@XA.N.A.7X' ",
"L ~ k..X;.e.Y.A. .F.A. .A.g.y.N.A.J.H.H.R.R.H.B.D.Y.A.y.D.H.H.R.T.H.H.H.J.J.J.J.Y.R.T.A.D.H.A.r.g.J.Y.d.y.g.J.F.A.g.g.Y..Xd.g.Y.B.R.D.f.A.D.A.D.D.H.D.D.u.g.D.A.S.J.A.B.u.J.g.R.f.g.J.oXoXf. .&.oX.XH.B.B.D.T.T.R.oXH.H.H.oX].H..X@X.XoX#XoXE.A.J.D.E.oXOXE.g.y.D.D.A.R.R.A.A.g.D..X^..XE.D.R..XR.R.R.R..X.X-X].oXD.Y.OXoXR.R.].[.].R.R.].oXoX.XoX].].oX[.g.g.8X*XoXoXR..X].oXoXR.Y.#Xe.g..XD..X~.A.r.q.D.E.@X#XoXoX#X].oXoXB.R.oXOXoXR.].-X-X.X@XoXoXR.@XJ.Y..XoXoX.X]..X.X7X-X2X@X;XR.R.oXD.Y.Y.f.J.#X@X2X2X@X5X[.5.N.B.b f N.N V F.F.~.A.K.A.g.D..XD.g.u.F..XD.~.g.u.H..XA.B.H.J.f.u.d.A.k.D.F.S.J..XJ.A.A.D.A.J.D.R.D.D.D.y.D.D.D.D.D.R.oXoXJ.H.J.J.u.F.J.~.5.u.D.]..XR.D.k.F.!.F.k..XJ..X.X.XoXR.J.R.R.g.H.Y.Y.OXOX-X#XJ.D..XN.B.A.A.J.D.D.A.A.A.A.A.D.J.J.oXD.J.A.R.J.D.J.D.F.R.D.D.J.A.J.k.D.k.d.A.k.g.H.F.F.F.g.r.y.R.D.A.J.J.R.R.A.r.p.Y.oXF..XD.g.H.].g.B.A..X.XD.D.R.oXR.Y.E.A.Y.E.Y.D.oX.XR..X.XE.oXOXR.J.R.E.Y.Y.Y.Y.R.D.D.E.oXR.J.R.D.D.R.F.F.F.F.Y.A.D.D.e.J.#XD.A.g.g.J.R.F.D.k.k.d.u.r.k.F.J..XD.D.E.q.} y.E.D..XY..XoXB.D.oX@X.XOX.Xg.#Xg.e.j ",
"F.&.q.k.n OX@X} g...R.r. .y.D.q.u.D.H.T.'.T.B.N.D.D.B.y.H.H.D.H.H.H.H.H.R.].J.H.A.oX].D.D.D.A.D.A.A.g.F.A.Y.A.A.g.g.g.q.D.J.g.y.y.D.g.e.A.D.g.A.T.R.D.D.g.A.D.H.A.J.D.g.u.R.g.D.D.D.A.A.A.y.&.g.].oXH.B.T.B.f.H.H.H.H.oX].'.H.].H.H.J.oX.XR.E.OX.XE.E.E.Y.F.Y.g.J.R.J.R.R.F.R.J.D.R.]..XH.A.R.J.R..X.XR.@XoX#XoXE.oXE.Y.oX.XR.R.#X@X@XoX].R.^.oX-XoXoX.XR.R.R.@X.XR.J.H.].oX2X3XR.R.R.Y.D.D.oXD..X~.F.~.oX#X.XE.oXR.oX.XoX@XoX;X.XOXOX.X].oX+XoX2X@XoX#XoXR.R.oX#X.X#X.XoX*X7XeX-X&XOXY.*XOXoXR.oXD.E.8XoX2X2X2X5X3XR.[.T.] n R.a.u /.u.~.F.A.A.q.A.R.J.u.k.A.R.J.J.J.w.u.A.A.u.D.F.A.F.F.F.k.R..X.XXX.XF.D.D.J.H.J.D.R.D.A.A.g.A.D.J.J.J.J.J.J.R.J.D.F.J..XA.F.5.e.D.J.D.A.k.u.;.d.u.F.~.k.A.~.OX~.A.D.J.].D.A.Y.OX-XoXR.oXR.oXH.A.].J.H.Y.D.k.F.F.A.g.k.A.A.k.R.D.R.N.u.H.R.R.D.J.J.J.g.R.A.R.k.F.D.k.A.k.g.D.k.D.F.D.d.&.k.oXT.R.T.R.R.A.k.R.F.F.e.D.J.J.J.A..XJ.B.J..XJ.J.J.J.Y.Y.R.g.J.D.f.R.oX.XE.oXE.R.oXoXR.J.R.R.J.D.Y.R.Y.A.g.D.E.E.R.F.F.J.R.D.F.R.R.R.g.J.J.y.e.R..XY.A.d.A.D.A.A.k.g.g.d.e.g.J.J.R..XD.H.g.A.A.D.D.D.d.u..XB.R.A..XJ.OXR..X7Xg.&. .",
"w.F.A.e.&.f.Y.D.:...F.F.e.f.e.J.f.D.T.R.T.H.B.B.g.g.B.B.U.D.D.Y.H.T.T.H.T.].].H.D.R.H.H.E.D.r.f.S.R.u.q.} A.A.f.g.S.D.;.A..XA.u.g.T.A.g.D.D.g.A.].].D.J.D.J.R.R.J.S.J.S.g.N.B.e...g.J.g.D.OXE.A.H.+X].R.H.R.T.@XH.B.@X+XR.].].].].+X.XJ.J..XE.D..XOXoXoXg.Y.Y.Y.J..XR.R.F.F.~.J.J.D.R.oXR.R.oX].].R.R.oXR.R..XR.E..XY.D.oXE.Y.E.oX]..XoX.X.XoXoX.XD..X@X.XoXoXR..X.XR.].oX].@X@X=XT.T.D.R.oXR..X.X.XJ..X.X#XoX#X.XH.oX@X.XoXoX@X#XoXoX#X-X+XoX=X-X@X].@X].R..XoX#XJ.oXoX-X>X#XoXOXE.-X*XR.oXoXoXOX.XOX8X@X2X#X3XqX2X].} A.} K ' a.L k.XXd.F.J.p.D.].D.D.g.J.A.d.w.e.7X~.&.J.g.D.g.A.D.R.R.J.J.OX#X#X:XOXJ.F.J.D.D.A.B.D.D.A.A.A.D.D.D.D.J.R.R.J.J.F.J.A.OXOXS.k.B.g.J.D.r.w.w.w.e.e.r.A..XA.D..XR.D.B.D.D.J.D.D.q.Y.#X.XA.R.H..XJ.+X#XH.A.Y.R.k.S.A.A.A.A.D.A.u.S.u.A.F.J.~.R.A.A..XD.J.d.A.D.B.k.F.D.A.J.R.D.g.u.F.A.A.oXu...k.[.R.H.J.R.D.D.Y.R.F.e.A..X.XJ.@.q.Y..XR.R..X.XS.R.R..XoXD.D.Y.D.]..X]..XoXR.J.oXoX.XJ.J.J.D.D.T.Y.F.A.g.D.E.oXE.D.J.J.R.F.~.J.J.J.J.J.A.D.g.A.J.D.D.D.A.k.D.J.A.g.k.k.u.A.J.D.D.R..XD.B.D.oXY.E.A.f.g.J.@XoXO.R.-X.XJ.-XD.q.u.w.",
"y A.;.k O.Q B.E.s.>.r.E.A.B.f.g.D.F.D.R.B.D.B.B.f.e.D.h.h.A.F.R.H.H.R.H.H.R.].]..XT.H.R.[.T.f.q.g.u.e.e.Q q.g.J.A.J.F.g.J.D.A.J.D.E.Y.D.Y.D.A.D.'.R.D.R.H.J.R.J.J.A.A.r.e.u.J.D.k.D.E.Y.D.D.D.J.].+XD.H.H.oXT.R.H.'.].4.D.oXD.R.].'..X]..X^.oXoXD.D.oXOXA.oXA.J.J.R.oXR.F.D.A.F..XR.oXoX.X].R..XR.J.J.#XR.oX#XoXE.R.E.E.OXY.E.oX.XA.D..XoXoXoXoX#XH.R.oXR.R.].@X.XoX.X#X@X[.@X|.|.3X'.T.R.D.^.OX.X.X.X.X.XoXoXOXoXR.R..X].].@X-X*X.XE.@X;X=X=X2XD.@XoX@XoX.XR.R.#X.XOXOX#XoX-XqXE.D.7XuXoX-X-XoXoX#X-X@X-X3X#X@X2XqX6.&.}  .H H u >.XXu.w.A.p.S.D.D.u.D.k.k.D.R.U ;.J.R.g.R.R.J.u.d.D.D.A.A.J.~.XXOX#X#XoX^.R.D.g.B.D.D.F.J.D.Y.J.D.A.A.J.].].R.H.D.~.S..XOXJ.F.A.g.J.D.r.w.u.k.F.k.g.d..XE.R..XJ.J.D.R.R.R.D.J.y.Y.OXoX.X.XJ.R.).@X].u.g.A.Y.A.k.A.A.A.D.J.F.k.A.J.J..X.XR.J.F.D..XJ.A.f.g.H.g.d.A.D.A.A.R.R.D.k.r.e.;.F.D.e.A.R.R.D.J.J.F.D.d.k.D.F.~.!.F.J.p.^.oXR..X.X~.].J.OXY.D.A.A.g.D.Y.].E..X.XoX.XR.R.oX~.J.J.F.D.T.R.F.Y.F.A.D.oXoXJ.D.D.D.J.F.J.A.A.F..XJ.N.J.R.A.g.A.D.D.D.F.F.J.A.f.g.k.g.D.J.D.D.H.].D.y.f.E.R.E.e.} O.u.@X].J.#Xk.e.5..XoXe.&.w.",
"N @.;.r.~ &.} f.s.r.r.g.g.D.E.g.R.Y.A.Y.g.D.A.D.T.f.D.f.f.A.D.A.D.H.H.H.B.H.'.@XR.D.R.R.g.A.D.f.r.r.u.u. .e.A.k.D.J.k.k.R.k.A.F.T.U.D.A.D.A.A.F.T.T.D.H.H.D.J.D.r.F.u.r.u.A.A.A.e.A.OXE.B.g.D.^.H.@XB.'.R.[.g.].@XH.#Xe.D.@X'.[.=X'.J.D.R.^.E.E.k.O..XR.Y.OXg.g.R.R.oXR.D.A.A.~.R..XoX.X.XR.D.oXR.oXD..XoX@XJ.#XA.D.oXE.Y.Y.oXD.oXH.R.#XoX.X.XoXoX.XOXoX.X@X@X@X@X-X.X#XoX[.@X@X@X[.[.@X[.Y.Y.D.`..XXX.X#XoX#X*XoXoXoX-X-XoXoXoX.XoXOXoX].oX@X@XN.2X@XJ..X.XXX#XoXJ.J.#X8X#XqXwXE.OXg.oX7XoXoXg.^.OX-XJ.8XfXwX0XqX2XoX;.f.n n H u / r.e.A.u.F..XA..XD.A.J.oX-XD.J.e.R.L ]..XD.D.F.F.^.A.g.A.~.!.A.A.J.OX#X.XF.A.g.A.Y.D.J.R.D.Y.F.D.D.H.R..XJ.A.F.J..XR.D.OX!.F.H.g.J.D.r.r.k.!.R.Y.Y.A.H.oXY.R.D.R.A.J..XJ.e.y.#XOXoXR.@XoXoX.X'.+XH.A.R.A.Y.F.A.A.A.g.k.D.F.A.F.:XJ.u.A.S.S.D.Y.F.oXe.u.A.J.D.k.u.r.e.d.].].g.F.r.D.r.e.D.R.oXH.].F.F.S.F.F.r.A.r.u.k.S.k.A.@.g.Y.R.J.R.R..X`.R..X.XD.R.Y.g.&.R.]..XoXoXoX.XJ.oXR.F.F.F.Y.R.].Y.Y.Y.A.A.E..XD.A.Y.D.J.A.d.r.F.S.F.J.R.S.J.H.D.Y.D.g.D.F.A.A.k.u.u.g.A.J.R.F.R.XXD.D.g.R.U.E.^..X^.n O.oXR.R.oXR.J.g.B.D.D..Xe.",
"n &.O.A.} } u.e.:.y.;.f.y.T.H.Y.H.H.H.'.T.C.C.B.C.H.T.B.=.A.E.D.J..XJ.A.H.E.E.^.Y.A.A.g.D.R.R.T.w.A.g.g.f.^.F.&.;.^.^.F.A.N.A.u.A.g.u.A.A.D.D.A.Y.F.D.J.R.R.D.D.A.g.f.A.g.B.u.k.A.y.D.R.J.D.J.D.D.A.A.D.D.D.g.T.g.Y.d.OX~.A.A.~.].T.].'.}.#X].].oX].oXoX~..XXX.X^.oX.XE.E.D.g.D.R.R.J..XoX.XoXJ.~..X#X*XoXR.R.R.D.oXD.&XR.R.'.D.oXoXoX.X.XoX].'.@X[.].].oXoXoXoX=X3X=X&XY.OXoX*X[.R.R.oXoXoXE.A.Y.R..X.XJ.].@X#XoXD.F.@X=X=X2X@X[.].oXoX#XOXOX~.-X*X.XoX#X.XR.OX+X].]..X-X#X-X-X7X#XD.F.#XR.E.D.Y.H.@X#X2X4XaX6X6X1X;Xg.q.H D P ^ x.y.w.e.r.F.l.S.N.N.J..XoXA.u..X&.oXg.A.R.^..X.X].A.u.D.R.]..XR.^.!.R.r.e.Y.D.A.J.H..XF.r.F.J.T.T.H.D.D.J.J.J.K.S.+X.XJ..XD.D.L..XOX.Xk.R.A.A..X+X.X.X.XF.OX.XF.r.F.D.D.A.*.u..X~.#XS.^.oXF.u.A.E.#XD.A.R.J.R.J.e.O.u.g.k.g.J.F.^.R.OXR. .A.d.k.F./.;.;.J.A.D.J.w.u.D.R.D.J.A.k.r.u.k.u.q.F.d.H.H.A.J.A.k.!.F.E d.d.;.w.J.k.k.A.oXoXJ..X.XD.J.R.H.D.R.D.A..XR.E.D.Y.oX.XY.R..XE.E.F.k.k.F.R.R.Y.D.oXD.A.D.R.U.A.A.D.Y.F.D.F./.D.J.J.R.D.H.F.R..XJ.k.A.A.A.D.D.f.A.g.A..X].J.].D.g.A.H.D.;..XXXu.N.oX2XH.@Xy.H..X+XA.8XS.A.H } ",
"D z g.z f.f.e. .E &.y.g.g.D.D.Y.H.H.H.'.T.N.C.T.C.B.'.T.D.A.D.D.).].J.T.].E.Y.Y.F.D.D.e.N.R.T.g.u.g.q.g.E.A.u.D.w.d.d.J..XH.A.A.e.f.A.J.A.D.Y.E.A.A.D.Y.oXoXD.g.Y.A.g.D.D.g.r.u.oXY.g.u.J.u.D.H.D.oXg.f.B.R.@XH.Y.E.D.R.J.J.D..Xy.e.H.oX#X3X#X'.].oXY.D.D.k.XXJ.F.R.R.E..XR.Y.oXoXoXR..XOXoXoX.XoX^.D.R.-X].H.-Xf.Y.[.@X[.@X@XR..XY.Y.oX@X.X].@XoXoX+X@XOXoXOX-X}.@X[.@X@X-X*XoX=XE.R..X.XE.^.OXD.J.^..X.X].@X+XY.J.~.#X2X[.'.2X&X@X&XoXoXoX#X#X^.*X-XoXoX.X.XOX-X-X@X@X-X8XqXyXoX].-X^.R.Y.A.E.oXR.@X2X6XqX5X1XgX[.g.D.yXD ' 7.^ Y.~ ;.oXk.a.F.J.H.A.J.g.r.J.u.R..XY.k.O.e.oXD.D.D.g.g.J.R.J.D.J./..XOXJ.D.oXY.H.A.N.R.F.u.F.R.T.].].R.A.u.F.XXF.S..X].J.J.D.A.F.F.k.A.F.g. .e.+X#XXX.X.XF..XA.g.F.;.F.*XR.A.J.A.J.J.A.r.f.A.u.A.R..XA.D.J.D.A.F.A.k.k.A.D.k.g.A.A.k.e.D.;.k.^.F.e.F.A.;.e.g.R.e.U F.F.R.J.R.E.k.k.F.F.A.w.;.u.H.D.D.D.D.D.k.w...u.F.r.k.k.k.R.D.B.D.R.oX.X].H.]..XR.oXe.H.&.A.R.D.D.E.E.R.J.J.OXoXJ.D.J.E.R.H.D.D.E.A.D.T.T.D.A.D.D.F.D.A.F.F.J.].J..XR.R.A.g.R.J.A.S.D.A.D.D.y.A.A.A.].oXR.H..XA.g.J.*.u.~.F.D.O.r.2X]..Xf.y.N.].qX.Xw.u.N F.",
"H O.B.A.y. .E n ^ &.e.f.D.D.B.B.H.H.H.'.T.Z.C.H.H.6.T.D.H.Y.q.oX].T.H.].oX].F.J.D.A.D.Y.B.e.e.H.A.D.&.e.A.g.r.Y..X.XA.u.D.J.A.u.g.D.D.J.A.D.D.A.D.D.A.D.E.].H.A.B.D.D.D.g.u.e.e.g.Y.g.R.g.D.R.A.A.A.oXD.J.oXR.H.oX.XR.D.J.E.R.@X-XR.].R.M.C.].'.E.oX*XY.Y.A.^.F.R.R.R.E.^.R.Y..XoXoX.X].oXoX.X#X.XoXoX.XoXoXoXR.Y.E.*XoX].].].E.E.E.]..XoXoX.X[.#X.X.X@X@X[.[.OX=X=X=X&X@XoXoX^.R.].R.Y..XE.g.*.h.D.E.oX.X.X@XoX*Xg.D.@X=X@X'.@X2X-X-X.XE.R.OXOXoXoXoXR.oX#X#X.X#XoXR.#X-X-X-XzX.X.X-XoX.XE..XoXOX].+X2X2XqX5X,XhXH.N.T.A.R.D '.m ^ ..e.D.k.>.!.k.r.k.S.q.u.u.O.g.&.D.k.E D.E.D.J.R.J.D.J.J.A.g.A.J.J..XR.Y..XD.A.D..XXXJ.~.J.A.D.R.H.H.g.;.u.J.A.H.H.D.F.A.u.e.k.A.w.u..XR.g.A..XXXJ.D.S.F.oXJ.oX~.F.A.e.#X#XR.R.OXS..XA.D.oXE.D.E.E.D.R.J.R.D.g.D.F.A.J.D.D.D.D.#Xk.A.k.k.F.J.J.;.u.R.k.u.A.J.~.;.J.A.F.J.R.D.D.A.D.g.J.J.&.A.e.g.J.A.F.J.u.u.k.F.F.d.D.u.r.A.D.B.g.R.].R.oX].D.].D..XD.D.e.e.D.A.Y.E.J.D.D.R.R.R.E.Y.Y.R.R.J.F.J.D.u.D.Y.T.U.A.D.Y.Y.F.D.F.F.J.R.R..XR.R.D.D.J.F.k.k.d.u.A.D.g.H.D.A.R.oXY.D.A.Y.Y.D.&.k.k.R.N.g.q..X@X.XR.].oX#X2X8XD.k...g.",
"O..X2XR..X} r. .y. .*.f.D.D.D.y.B.'.].'.T.H.T.Z.B.C.%.g.f.e.q.Y.R.H.H.R.].R.J.R.R.R.J.].B.u.5.D.g.J.N.D.g.Y.g.q.D.R.R.J.D.g.g.J.J.D.A.D.A.Y.D.g.R.].H.B.A.J.J.J.D.H.D.J.A.D.A.D.g.g.u.*XA.D.J.R.J.D.R.oXR.A.].R.Y.E.R.D.].].].oX].H.'.H.y.Z.].+XY.D.-XR.R.Y.A.D.R.J.J.R.~.R.E.oXR..XoX]..X.XJ.#XJ.oX#X^.R.-X#Xg.oXR.oXoX.X].].oX.XoXoX].]..X.XR.].J.J.].oX@X@X@X2X=X=X@X[.E.oXOXR.oXR.D.E.oXA.&.g.D.E..X.X.XoXoX*X-X7XoX&X2X].@X-X@X@X].oXoXOXoXoXoX.X.X.X#X#X#XoX2X#XoX.XoX.X@XOX.XoX.X.X#X-XoX#XR.@X#X2X4X4X,X2X@Xf.6.W ].5.%.N N :.F.F.~.w.;.k.F.F.e.F.F.q.k.D.&.Q R.oXk.g.A.A.J.R.J.D.A.D.H.~.R.D.S.S.D.R.J.A.A.J.F.A.~.J.A.R.R.A.D.J.u.k.k.g.S.u.u.S.F.J.R.J.J.k.k.F.F.R.J.J..X~.J.S.g.D.k.A. .^.^...oXoXF.].-XA.R.D.A.D.A.Y.^.Y.D.R.D..X.XF.F.F.F.R.g.g.J.~.J.A.R.F.;.D.A.~.F.A.J.J.D.g.u.D.F.F.R.D.D.R.D.J.R.D.e.k.~.;.u.u.A.D.u.k.D.r.A.r.k.k.D.D.F.u.A.g.R.A.J.oXR..XR.oXoXJ.D.J.A.oXR.k.A.Y.R.D.k.F..XD.R.E.E.R.J.R.R.J.J.k.e.D.Y.g.D.A.D.Y.R.F.F.D.F.D.F.J.J.F.J.J..XJ.R.F.A.r.w.g.D.D.D.A.B.D.Y.D.Y.g.D..Xg.J.OXF.R.u..XA.R..XD.A.oXA.-XA.g.;.} &.K ",
"q.e.t.H.J.u.g.Q r.} *.D.B.D.R.H.H.[.'.H.H.T.'.D.D.R.6.e.e.e.q.D.H.H.H.H.H.J.R.R.D.H.D.g.g.y.y.R.R.R.D.B.g.D.D.g.J..XJ.D.J..X.X.XJ.R.Y.Y.A.D.A.A.R.].J.D.D.J.D.B.J.&.U A.Y.Y.5.q.R.oXD.&.g.R.R.D.R.R.R.D.D.D.oXR.D.R.J.J.oXD.'.R.T.R.].+XoX].].'.J.A.oXY.J.Y.g.Y.R.Y.R.E.R.R.R..XR.oXoXR.~.~.A..XD.R.D.D.oXOXR.^.oXoX^.#XOXoXoXR.@X].].oX.XJ.R..X]..X@XoX].[.@X&X2X@XoX[.oX.XoXoXT.R.Y.Y..XoX.XoXD.J..X.XR.R..XoX.X} u.-X=X2X@XoXoXoXOXoX@X@X2X@X@X@XoX#XR.@X#X-X.XR.oX-X7X.XoX8X#XJ.#XR.J.7X.XoX#X].-X2X4X6X5X,X2XN.3XtX[.&.D y.L L K ..w.k.r.;.r.w.F.F.J.@.F.F.q..XJ.OXA.q.J.k.J.R..XR.D.D.R..XXXR.A.g.u.k.J..XF.r.J.XX~..X~..X].oXH.R.oXR.D.k.A.J.D.D.H.D.A.A.XX.XF.A.d.e.D.R.J.J.J.~.F.g.u.r.F.J.~.OXF.A.D.*...oXE.A.D.H.J.R.E.E.A.D.R.A..X.XJ.D.D.D.R.d.d.Y.^.A.k.g.;.u.u.F.F.F.A.D.J.A.A.g.y.J.A.u.u.A.F.F.g.D.A.u.r.k.;.;.D.D.r.w.k.A.d.F.r.k.F.R.D.k.e.k.u.J.A.R.@XR.R.A.H.D.oXR.e.A.g.D.D.k.A.F.F.F.R.~.R.Y.Y.Y.R.R.H.D.F.F.g.g.Y.D.q.u.D.D.F.J.F.k.k.A.J.A.A.A.F.R.J.J.D.R.J.A.e.;.u.A.k.A.A.A.A.D.Y.Y.A.y.R.B.Y.oX^.x.A.D.J.#XoXD.B.D.u.8X ...*.yXu.Q ",
"H z U g.].E.g.d.g.&.5.A.y.B.R.T.H.H.H.'.T.H.H.H.y.&.B.o.y.B.&.D.D.H.T.H.D.H.R.H.J.R.oXg.B.&.&.r.D.J.H.e.R.g.D.h.D y..XH.D.R.R.R.J.R.^..XD.A.A.A.H.J.H.D.J.R.A.y.S.u.q.D.y.e.6.D.oXA.B.g.H.f.e.D.A.D.oXD.D.R.J.].R.[.D.J..XB.J.T.H.R.R.oX@X]..X@XE.oXR.oX.XD.D.Y.oX^.oXoXR.H.J.J.oXoX.XR..X.X~..XJ.R.R..X.XJ.~.:X#X-XoXoX.XoXE.A.oX.X.X].R.J.Y.R.@X-X2XoX[.OX&XoX=X@X@X@X].].].oXT.Y.Y.E.oXoXoXoX.X.XoXoX].R.oXoXD.H.#X@X[.&X@X@XoXOX-XOX@X@X;X@X].-X@X@X].@XoXoXoX*X2XoXoXoX-XoX@X.XoXoXoX8X#XoX@XR.2X0XqX6X6X@X2X=X@XtXgX6.D D E L ^ r.k.F.k.L.k.F.F.F.F.| H k.e.F.J.A.J.OXq..XoX.XoX.X]..XoX.XJ.S.F.R.J.A.J.R.u.w.~.#XOX.XF.G.D.].].R.oX~.A.F.e.g.A.D.J.R.D.A.F.OXJ.k.r.g.D.oXJ.D.A.J.D.F.A.A.u.!.r.d.F.F..Xe.U E.#Xu.D.J.D.D.oX^.g.F./.J.~.J.A.D.D.A.F.A.A.F.k.J.O.k.w.7XJ.9XR.e.e.A.A.g.D.D.k.A.A. .q.u.d.A.e.w.r.g.r.u.p.w.k.D.w.e.D.F.F.oXu.w.u.k.A.r.k.~.H.B.D..XJ.D..XJ.R.R.R.R.e.g.A.J.k.k.k.F.F.F.R.~.F.D.H.H.T.T.H.H.F.D.k.A.F.D.e.g.A.A.D.F.F.A.k.D.F.A.J.D.J.R.F.F.g.F.F.A.r.w.r.f.q.A.F.A.A.Y.R.A.D.A.D.g.k.F.D.D.D.D.H.R.@XoX].#Xy.E.oXJ.oXJ.q.Q ",
"z X.u.K u.oXQ k.B.y.q.5.f.g.H.H.H.H.H.'.'.H.H.H.=.=.e.=.f.6.f.B.D.D.H.T.D.H.R.D.N.).].u.J.R.k.e.B.D.D.5.g.f.T.C.y.f.H.R.H.g.y.Y.D.D.D.^.Y.Y.Y.Y.H.H.D.B.B.H.N.N.r.A.D.R.R.R.g.&.u.B.H.oXD.A.d.u.g.~.F.R.A.u.R.#X@XoXH.D.R.D.J.R.H.R.].oXJ.B.H.H.R.OXE.oXoXg.D.H.R.Y..XoX~.J.]..XoXoXR..X.X.XoX.X].oX-X-XJ.J.OX%XXXJ.R.Y.R.R.R.].].@XoX].J.Y.R.J..X@X@XoX@X;X;XOX'.oX.X@XR.oXoX-X&XoXE.Y.E.oXOXE..X.XoX#XoXoX@XoX#X.XOX#X@X2X3X@X#X*X-X@XoX@X&X[.T.=X3X-X+XR.[.2XOXE.oXOXoXoX-X@X@X;XR.*XeX9XeX.X@XJ.oXqX2X4X1X1X2X3XZ.H.].I F P >.V ;.F.k.F.a.F.k.k.k.k.e.J.O..XA.D.F.A.R.#XJ.J.R.H.R..XoX@X#XoXJ.k.J.#XXXL.~./.~.~.oX^.J..X.XJ.D.J..XR..XR.k..X^.D.A.u.g.R.J.J.S.OX~.k.w.D.H.R.D.J.R.E.J.R.A.u.F.r.u./.^.oXoXD. .A.R.A..X@XoX.XoX^.d.R.^..XJ.D.F.J.F.D.g.k.g.k..XR.u..XXXD.u.]..Xk.u.g.g.g.g.B.y.u.F.r.r.u.k.F.D.r.u.k.r.u.A.u.k.x.x.r.k.D.d.Y.J.u.u.r.u.w.r.F.].D.R.E.g.A.oXoXg.J.A.H.R.u.A.g.u.d.D.F.A.A.J..XD.D.H.J.H.H.T.T.F.k.k.k.k.J.D.J.A.F.J.F.D.F.F.D.D.k.R.D.J.J.F.R.D.R.F.D.k.u.k.d.q.A.F.A.A.Y.Y.g.^.oXg.g.D.Y.D.D.A.].J.g.R.J.R.-XA.y.Y.Y.u.Q D.g.",
"} } 5.} g.y.A.n O.y.y. .D.B.H.H.].+X'.T.H.H.].].R.B.H.B.B.f.B.R.D.A.D.T.H.T.R.H.H.).N.S.A.A.O.r.D.g.A.].y.f.U.B.'.(.].].].J.g.R.J.D.D..XF.D.D.Y.D.T.T.D.B.N.B.H.S.F.J.g.A.D.Y.D.B.#XR.B.R.H.Y.g.A.J.R.Y.A.D.A.@X&X[.H.A.J.R.J..XoXR.].#XR.H..XJ.Y.E.oXD.E.A.J..XF.F..XOXR.J.].]..XoX.XoX~.F..X~.oX@XR.R.oXoX.X:X).q.J.J..Xk.k.oX[.].oXoX.XY.R..X@X#X2X#XoX[.[.[.#X#X].oXR.@X]..X[.D.Y.OXoXE.oX*XJ.J.].@X#X#X*XoXoX2XoXoX;X&X'.].-X*X*X@X@X=X;X[.=X+X=X=XyX@X@X8X*XOX*X*XE.-X2X.X@X&XOX*X:X9XOXXX@X].J.8X[.qX2X4X2X+X].5X].7.I 5./ V ..F.r.w.r.>.>.r.F.w.w.A.F.q.F.A.e.r.OXg.~.J.R.R.oX#XoXoX#XoX.Xd.D./.F.A.!.OXOX~.J.J.F.S.F.J.J.A.F.S..XR.u..XE.g.A.u.g..XF.S.OXJ.~..Xr.R.].R.D.]..XJ.g.J.J.D.k.F./.OXD.oX^.k.g.g.A.E.oXR.R..XF.F.r.F.F.!.A.S.D.A.k.A.u.g.A.J.k.k.oX~.D..Xu.e.g.R.J.e.A.H.B.R.J.g.;.A.u.A.~.A.N.g.R.k.r.p.F.l.d.r.k.;.r.F.;.r.r.d.k.A.r.k.d.F.R.].].A.D.R.R.R.D.R.J.g.J.B.q.R.p.u.k.F.F.F.J.R.R.J.H.J.R.'.T.H.k.k.A.A.r.J.J.D.S.~.~.S.A.J.F.k.F.r.k.r.D.J.F.J.Y.Y.k.u.r.u.g.r.r.A.A.A.g.D.D.g.D.R.D.H.d.u.E.z.A.B.J.oXoXg.J.oXf.Y.7XoXJ.Y.oXQ ",
"H F e.g.T.q.q. .*.y.y.6.f.B.D.H.Y..X~.F.J.J.Y.oXW.I.I.T.T.B.oXR.N.H.T.R.].H.A.J.'.'.B.M.T.f.e.D.D.T.H.g.e.H.B.A.J.k.y.J.R.J.D.oX~..XF.D.R.R.].H.D.D.e.*.e.f.A.g.A.A.J.A.J.~.J.D.D.E.E.A.g.e.Y.g.A..XR.A.&.u.D.^.@XW.E.D.A.R.H.R..XoX#X1X@X.X@X[.].oX].J..XoXR.Y.R.R.].R.oXY.R.Y..X.XoXoXR.D.Y.*X].R.H.T.Y.oX.X*X*X=XoXD.A.R.D.oX.XJ.J.oX.XR.oX#X#X#XoX@X&X;XOX#X;XqXoXD.J.oX-XR.D.E.OX*XOXR.F.J.B.B.].].@X-X[.E.=X6X=X=X=X+X.X].-X2X;X;XoXOXoXOX-X-X8X7X#X#X-X-X#XXXOX#X#X#X-X#XOXOX#XoXD =X2XB..XL #XwX@X#X5X1X2X2XG.qX2XD f %.N >.F.S.u.A.d.&.>.k.l.r.e.k.k.e.e.A.w.O.g.D.S.D.J.~.R.^.^.R.R.F.@XF.A.S.F.R.R.F.Y.Y.z.D.D.k.!.k.g.u.g.D.A.k.F.~.J.A.A.A.d.!.r.k.^.oXF.k.k.!.R.F..XR.A..XD.H.J.D.R.R.S.k.A.k.J.k.T.g.y.F.E.r.;.F.R.-XJ.r.F.F.k.F.D.g.d.A.A.g.D.H.w.w.#Xk.A.D.g.oX#XXXu.t.J.A.g.R.].S.g...~.~.w.!.S.u.~.R.k.d.r.e.A.u.A.e.r.D.g.D.g.y.A.r.A.d.k.u.A.J.J.#XR.oXR.g.A.F.F.R.J.J.k.R.D.D.f.D.D.D.F.R.J.J.R.F.A.D.R.R.D.H.H.J.~.^.!.!.R.R.J.R.D.g.D.R.J.r.w.k.A.k.A.A.A.A.g.u.N.u.e.d.s.f.s.e.e.A.D.g.A.Y.D.g.A.q.F.F.D.A.D.oX^.D.D.f.u.J.oX].].R.q.y.",
" .] F y.g.B.E.y.s.=. .6.B.@XR.B.D.R.R.Y.R.R.J.R.I.I.f.f.&XD.H.R.B.f.y.A.J.A.B.H.'.'.B.M.M.g.g.B.f.B.B.g.e.B.B.D.D.J.D.D.H.D.A.H.J..XR.R.J.D.D.B.A.k.r.e.u.f.f.f.u.F.J.D.u.D.F.J.g.oXY.g.q.Q Y.U.D.D.A.F.g.g.D.oXE.T.E.A.J.R.oX#XoX].H.].].J.].[.'.].R.J.R..X^.Y.J.].@X].].D.F.R.R.R.oX.XR.Y.E.-X@X].]..XE.oXE.oX&XE.oX].A.R.oX.XoX.X.X#XoXR.oXoX.X.XE.&X;X&X[.OXD.oX].R.].oX@X].E.oX#X-X#XOX.XF.g.D.[.oXoX@X@X&X&X3X=XR.R.@X@XR.J.2X8X#XD.E.oXOX-X.X-X2XR.oX8X-XoX#X#X-XOX7X-XoX7X.XoXyXg.qX=XB.e.OXF.R.qX@X@XM.G.fX].].f.C.F b k ^ F.J.XXu.;.;.x.>.&.F.D.r.O.r.S.A.S.u.~.J.S.F.~.J.~.J.R.R.^.F.#XJ.A.F..XD.J.J.z.Y.F.^.R.D.~.J.g.D.F.F.F.A.F.F.D.k.p.A.x./.d.r.k.F.F.k.x.!./.F.].J.H..XD.D.R.D.k.F.XX~.p.e.F.A.f.f.g.k..X^.^.r.D.#X#XA.k.A.r.!.E.R.D.A.A.S.R.J.J.XX.XJ.k.e.A.oXJ..XR.J.oXD.A.Y.].S.D.k.A.A.F.F..Xk.F.J.k.A.r.r.g.A.D.Q ;.R.q.A.oXg.e.r.A.r.d.k.A.J.D.].#XR.H.T.F.k.r.r.k.d.D.^.E.J.u.D.F.J.A.D.!.F.D.A.A.J.J.D.D.D.D.D.~.^.R.F.H.A.g.D.H.D.D.D.F.u.u.A.A.A.F.Y..XF.S.J.R.D.A.F.g.g.z.A.A.D.A.y.g..XoXy.A.#XoXD.A.E.E.r.q.F.f..XOXk.A.H.D.y.o.e.",
"} o.n ' oXB.A.&.} Q *.g.f.E.E.D.Y.E.R.J.R.R.R.R.[.C.T.g.'.H..XH.B.D.B.N.N.D.H.H.T.'.C.B.y.D.H.B.B.T.D.D.g.N.B.D.J.D.D.J..XR.H.R.J.J.D.H.J.H.R.T.A.g.k.A.A.A.g.A.u.D.S.F.k.F.D.A.D.D.d.z.^.r.U.s.F.F.F.J.k.f.d.D.D.A.k.D..X.XXXR.oX].'.#X#X.XoXoX'.].].J.J.E.^.J.H.R.oX].].D.J..X.XJ.J.J.^.oX.X.XoXR.oXoXoXOX#X#XE.E.Y.D.B.A..XOX.XJ.S.R.oXoXOXE..X.X@X&X-X@X[.oXR.@X@X&XoXR.R.J.R.OXOXJ.D.OX>XoX@XoX].-X-XOXoX.X@X[.oX@XoX@XoX].~.OXOX#XoX#X*X*X7X.X#X-XH.R.-X#X#XoX7X7XeXR.R.oXOX^.^.-XB.@X2X2XJ.XXoX8XqX8XqXH.fXqXN.gXB.f.W b N / ;.e.J.w.&.d.d.d.k.Y.F.D.k.D.J.F.D.F..XA.XXR.#XJ.J.F.F.J.^.~..Xu.J.J.y.&.OX^.Y.^.R.^.F.r.k.D.E.^.J..X.XA.S.F.F.D.u.d.d.~.k.k.F.x.^.!.F.r.F./.R.H.A.u.g.A.J.J.F.J.~.J.F.u.u.u.y.f.u.D.g.!..Xk.J..X#XJ.R..Xk.F.^.oXJ.A.A.S.J.A.F.OXd.F.F.k.D.^.J..X.XJ.Y.A.D.J.oXA.g.~.w.;.~.J.J.k.u.F.r.k.w.u.k.e.r.O.q.k.*.r.g.g.u.e.e.w.u.p.u.XX.XA.H.oX@XB.D.k.oX~.^.OXd.F.E..XF.R.D.g.k.A.L.F.k.g.A.R.R.J.D.D.D.F.R.R.R.^.R.J.D.A.A.A.D.F.S.A.S.A.g.k.D.Y..XD.A.F.J.J.D.D.A.D.Y.oXoXE.D.g.D.E.E.Y.Y.E.J.oXF.D.OX.Xy.D.u.oXR.OXoXD.R.J.&.} ",
"K Q j  .*.D.*.OXO.Q &.f.D.*X.Xu.R.R.R.H.H.J.R.R.B.B.T.g.D.A.D.D.5.N.H.H.H.].'.B.C.T.T.H.N.T.H.g.A.B.y.D.D.B.H.H.J.H.D.A.R.A.A.H.R.H.D.D.D.H.Y.T.J.D.R.H.D.H.D.T.g.g.g.A.R.A.D.d.q.g.OXE.Y.y.y.g.k.S.F.S.u.y.u.g.e.A.g..XR.oX].].F..X#X2X@X.XoX'.[..XoX].R..X.XF.H.R.].R..X].].oX.XoX#XoX.XoX.XOXoXR.@XoXoXoX#XOX-XOXJ.D.R.J.oX.XA.R..XoXR.D.E.E.R.@X2X@X-X&XOXoX#XOX@X#X@XoX.X].D.oXoXY.R.OX*X*XR.R.R.]..XOX-X7X@XD.R.2X=X].R.]..XXX.X#X#XOXOX&X-X-X-X#X.XJ.R.oX7XqX#X-XoX-X*XwX^.R.#X8X-X8X@X-X.Xe.R.qX7XqX2XqXgX=X1XtX[.F %.b m / ;.w.A.u.r.g.g.D.R.^.Y.D.J.OXF.g.~.A.u.D.F.J.F.J.F.L.A.F..XR..XR.-X.X&.&.OXA.R.oX^.R.D.y.u.g.oXoXF.~..XF.L.~.R.J..XJ.D./.k.k.F.x.~.!.d.>.k.!.R..XD.e.R.R.J..XD.J.A.u.J.u.w.k.E.D.D.F.q.A.F.OXg.F.OX.X~.^.F.k.A.R.J.D.A.D.H.A.k.!.k.D.J..Xk.D..XJ.F.A.g.A.J.D.S.R.e.F.~.~.F.r.k.u.k.A.r.k.r.p.D.r.w.A.D.r.d.d.y.g.g.e.k.F.F.r.OXg.u.#XH.R.R.H..XR.A.oXJ..Xk.R.^.R.A.R.R.F.A.A.J.F.k.g.A.R.E.R.D.D.A.D.J.R.R.^.].].].J.D.D.S.F.A.A.S.D.A.k.D.Y.~.J.D.A.D.R.R.g.g.D.Y.E.R.J.D.D.k.D.e.A.Y.D.J.A.F.R.oXoXg.Y.E.R.A.B.B.R.].R.q.H ",
" .n j f.o.R.%.u.o.u.J.D.J.R.^.J.D.J.R.R.H.H.H.H.H.5.g.R.B.g.D.A.D.B.A.H.].].T.B.N.H.T.B.H.B.N.g.A.B.f.D.T.B.D.B.u.H.J.B.D.D.D.D.u.N.R.R.D.D.D.D.D.D.R.D.B.H.D.D.g.g.g.D.J.y.D.J.D.A.oXD.f.g.e.g.k.g.A.A.g.e.y.g.@X#XR.#X[.@X[.'.J..X@X@X].].oX[..X]..X.X].oXoXJ.R.].].]..X.X.XoXoXoX#XoXE.E.R.E.].D.oXoXoXoX*XOXOXY.R.E.A.k.oXB.J.J.J..XoXE.E.D.H..X-XoX@X@X#XOX*XoXE..X@X-X@XR.E.oXD.D.*XoXD.OX@X#XoXe.q.Y.E.E.7XoX-X;X@X&XoX]..XOXoXoX=X;X3X&X#X-X*X#X@XE.R.oXoXoX-XoX9X*X@XoX*XJ.oXOX-X-XoXqXoXJ.Y.*X*X;X[.[.3XtXyXR.[.6.6.W u ^ e.r.;.u.k.k.R.A.D.Y.Y.k.A.J.F.~.F.^.D.A.J.u.r./.F.~.S.~.#X~.S..X.XJ.J.R..Xg.e.D.D.J.J.A.B.g.F.oX~.F.F.~.OX/.Y.F.#XR.D.Y.r.d.j.z.x.l.r.F.!.x.H.R.R.H.oXXX.XJ.u.u.e.u.F.k.A.F.R.D.OXg.J.R.A.J.F.~..XOX.X^.oXF.g.R.R.R.R.J.R.].F.R.R.D.R.F.w.k.J.D.D.D.B.D.D.f.u.u.u..Xw.&.d.J.d.A.F.F.A.F.k.r.w.A.w.;.u.r.r.r.H.u.g.u.R.R.D.d..XA.u.J.g.oX.XB.^.Y.D... .eXJ.J.F.F.k.J.~.~.H.J.J.J.D.g.D.Y.D.D.R.F.A.F..XoX.XoXJ.H.R.R.]..XF.D.A.g.g.D.F.D.D.R.R.J.J.D.F.^.R.d.A.R.R.J.J.J.F.J.D.F.k.E.OXR..XA.e.F.E.@X;XOXY.R.oXo.%.oXg.].].D ",
"} } k.g.u.e.D. .o.H.D.A.J.J..XoXD.H.].'.T.H.R.R.H.R.y.g.R.D.y.A.R.J.D.A.D.H.H.D.g.B.H.B.H.g.f.B.D.D.D.T.T.B.C.B.N.G.H.H.oXoXR.T.f.N.R.R.H.R.Y.A.g.B.H.D.B.H.T.D.g.A.A.R.A.g.A.R.g.f.A.g.f.g.D.A.D.D.D.B.A.g.A.g.y.N.D.H.'.].#X}.XX.X].@X+X]..X[.+X]..XoX].E.R.F.J.].].oX]..X.XOXoX].R.R..XoXY.A.J.D.oX@X#X*X-X*XOXOXOXoXY.Y.oXJ.J.J.J.R.D.J.oXoX]..X@X#X-X].E.OX*XR.^..XoX-X.XA.R.*XY.A.oXoXD.@X#XR.J.g.g.oXE.oX>X#X7X3X*X-XOXoXoXoX].@X-X@X3X2X2XoX-X2XoXoX-X@X-X@XoX-XOX*XOX8XOXoX7X-X9X9X*X7XpXyXwXwX*X8X8X[.tX3XT.[.T.] ! ! m L ~ ;.O.d.k.F.D.D.D.D.D.A.A.k.OX~.~..XJ.OXA.A.~.!.;.F.L.~.OX~.R.S.k.F.R.R.k.;.&.r.g.g.A.D.H.H.F.R..XJ.k.F././.!.F.OXJ.k.F.r.k.j.x.l.j.r.Y.~.R.J.D.A.J.r.A.#XJ.d.r.u.D.D.k..XD.J.A.J.;.F..XD.#X*X#X~.OXOX.X:X.XY..XR.J.R.J.R.oXF.z.d.r.F.k.u.J.D.H.J.R.D.D.g.q./.u.J.9Xg.r.A.B.d.D.F.A.S.F.u...r.d.F.r.r.D.r.r.N.&.u.u.J.R.r.u.A.F.R.S.D.R.R.oXF.g.A.F.F.F.J.R.D.F.k.J.F.F.J.].J.J.D.D.E.oXD.g.F.R.R.R.R.R..X#XD.D.R.R..X.XJ..XH.D.A.D.F.k.d.D.R.J.J.R.~.R.D.k.D.E.Y.J..X.XR.R.D.q.D.*X#XD.A.R.;. .r.D.R.D.g.R.@XD.H.@Xu.].#XH ",
"n ~  .} } O.R.e. .F.u.J.D.D.~..XR.J.R.R.T.T.].R.D.'.B.g.y.f.g.y.&.A.J.D.H.R.C.f.B.f.N.B.B.g.g.g.f.u.A.g.D.D.H.C.H.H.A.].@XR.B.B.[.H.'.H.D.Y.D.g.A.B.D.J.D.H.].D.A.D.D.F.D.J.A.A.q.} g.g.A.A.D.g.N.D.H.g.A.D.D.g.} y.@X).J.H.].@X.X].'.@X].J.R.T..X.X.XoX].D.A.J.H.].].@X].R.J.XX.X.X#XoX^.E.Y.E..X~.oX#X#X*XoXoX7X7XoXT.OX-X.X.X@XR.D.J.Y.Y.R.D.#X#X#X7X#X.XR.OXoXJ.oXoXoX@XoX].D.OXOXE.#X;XoXoXR.D.].oXoXE..X7XoXJ.OX-X-XoXA.E..XoX@X=XR.5.H.2X2X@X-X2X@X@X2X=XD.].-X].oX*X7X*XOX-X-X*X7X7X*Xg.].#XoXE.*X9X;X8X8X[.[.[.[.t ] K m B / r.A.F.k.D.k.d.F.J.F.d.D.!.J..Xk.k.F.J.F.F.-XD...w.L.J.F.E.~.;.A.~.J.J.R.F.A.A.D.D.g.D.J..X/.A.^.^.A.A.S.L.l.J.#X#X^.x.k.x.c.j.j.j.r.:.k.~.R.R.e.J.q.k.OXJ.k.J.S.D.D.u.oXY.g.A.A.R.oX#XA..XOX.XR.oX~.F..XoX.X.XA.k.F.D.D.R.D.d.;.;.k.F.F.!.D.J.J.J.A.D.g.g.F.9X/.d.u.A.u.A.e.k.k.k.A.A.r.O.r.&.A.k.w.k.w.e.u.q.y.r.u.*Xr.r.A.J..XJ.J.R.R.-XD.r.R.^.R.F.D.R.~.F.u.F.J.R.F.H.F.F.D.D.oXOXY.D.d.k.F.F.D.D.J.oXH.D.].R.R.J.F..XR.E.Y.F.D.g.s.z.R.R.E.^.^.R.F.F.f.D.D.Y..XR.S.J.D.s.D.oXR.#X#XR.e.r.F.oXR.@X].A.D.oXoX].J.u.r.N ",
"j n } OXO...e.o.O.J.e.#XD.S.J.J.J.H.'.'.T.T.T.A.N.R.'.B.&. .D.D.D.R.H.J..XT.N.B.B.6.y.D.y.g.g.e.D.d.A.e.B.T.C.Z.b.'.'.].H.H.B.D.].B.R.T.B.D.D.Y.R.D.B.H.D.B.T.B.Y.D.R.f.A.J.D.g.k.Q OXA.A.g.g.D.C.B.H.B.g.*.5.q.O.y.H.A.H..XH.N.`.@X@X}.T.J..XR.].]..X[.R.A.k.~.J..X].@X].].D.F..X.XoXoXE.Y.D.R.J.R.R.oXoX#XE.OXoX*X7X&XU.oXR..XD.R.oX-XOXE.R.Y.2X8X-X2XoXoX^.#X*X^.*X#XR.]..X#X.XD.D.E.@X@XoXoXJ.R.J.R.E..XoXE.OXJ.oX*X#XJ.r.J.~.oXoXoXJ.e.'.2X=X3X=X@X2X2X=X2X2X@XoX@X&X7X*XE.R.-X-X9X7XoXeXoXJ.oXY.].9XgXtX=XtXT.s.] q.j L ! M / :.x.!.k.r.F.u.k.F.k.k.r.k.D.k..XF.e.g.F.F.~.R.J.!.r.L.~.R.OX.Xe.~.~.oXF.D.^.J.D.R.J.g.N.F..XXXk.R.J.k.!.F.F.r.!..XoXF.>.z.F.j.j.z.c.z.r.d.F.g.oXq..XF.J.S.u.F.OX&.O.R.F.oXE.^.J.e.r.J.R.R.R.OXA.k.~.OX.XR.F.R.J.r.e.F.R.J.H.Y.Y.R.r.u.~.S.S.g.H.A.D.D.R.D.Y.!.OXu.d.F.D.N.y.:.z.k.F.A.F.A.k.e.e.e.;.w.w.e.r.u.g.A.u.~ ^.e.!..XS.A..XJ.#XR.R.E.g.r.D.D.^.~.F.F.F.A.R.~.J.F.J.k.F.D.A.E.E.Y.E.D.k.k.F.oXoX.X.XH.g.R..XoX.Xk.k.D..XE.Y.F.D.D.R.F..XR.D.F.F.F.F.y.A.Y.E.~.k.u.J.R.^.Y.oXe.D.-XJ.!.OXf.E.[.R.R.J.H.=XoXB..Xf.d.H ",
"K Q N >XeX....| ;.J.r.u.y.z.OXR.R.[.A.h.A.U.U.U.H.f.e.y.R.E.Y.g.F.E.J.J.A.g.D.H.D.B.N.Z.H.f.N.M.B.N.y.N.B.N.H.C.H.H.H.B.H.B.D.H.J.].#XH.H.H.N.H.D.D.A.D.A.g.g.A.oXR.J.H.D.R.B.J.U.C.f.A.s.q.J.B.B.H.H.B.R.k.q.&.K.K.A.J.G.H.H.].'.#X].'.N.H.'.].[.oX].R.J.J.Y.R..XR.J.XX.XD.J.oX.X.X.X.XR.R.J.g.N.#X'.oXR.#XoXu.@XoXoXoX*XoXE.oX*XH.J.D.H.A.@X.XOXoX-XoX@X&X=X2X&X@X&X].]..X.Xk.#XJ.u.R.B.@X@X#X].oXJ.oX@XJ.oX-XOX@X+X=X1XoX.X!.].@X].].A.~.F.~.;X*X-X;X-X2X-X#X+X@X#X#X#X-X:X#X#X@XoX2XqX8XgXzXoXoXXX2X8XqXqX.XdXaX5.V.&.j j z  .E F.F.r.~ E q.u.u.F.~.F.w.F.k.D.r.k.g.e.A..X]..XoXJ.u.oX.XJ.:X7X.X#XOX~.F.S..XoXJ.Y.D.B.H.D.T.!.F.~.S.k.^.J.u.e.R.R.^.:.k.~.j.l.P./.k.D.R.k.D.x.j.D.k.!.J.k.w.y.*XA.~.#XOX%X%Xu.#XOX~.J.#XJ.R.L.F.Y.Y.Y.#XR.F.N.R.H.R.R.B.T.E.R.F.F..XF.D.oXd.D.U.g.A.Y.A.Y.OX%Xw.XX/.R.u.A.A.!.k.!.XXr.F.k.J.B.J.g.w.k.e.k.a.u.u..XF.r.w.k...u.R.D.D.D.E.Y.D.J.J.k.D.J.k.u.k.g.D.Y.R.Y.J.F.D.g.A.J.R.E.R.R.E.D.D.D.D.J.].].J.D.R.D.@X.XR.g.A.k.F.F.F.D.d.D.U.^.R.E.g.g.R.D.D.e.A.J.D.R.B.g.J.T.oX[.U.B.Y.&XU.J..XD.^.F.Y.~.R.T.H.H.H.D.Y.Y.%.",
"f.n Q 8XOX^.~ ..O.k.R.f.d.F.oX^.R.q.*.f.A.OX[.R.].T.H.g.B.g.A.D..X^.A.Y.D.R.H.D.N.B.C.N.N.y.N.N.N.N.g.B.B.M.H.H.H.H.H.B.T.H.H.D.A.A.g.H.A.H.y.A.D.A.D.J.J.H.F.J.R.B.D.].J.D.g.R.C.T.g.k.g.f.D.D.B.T.'.B.H.A.u.;.J.].J.'.H.'.'.'.R.@XoX@X#X#XH.t.'.[.].T.J.Y.E.OXY.E.oX@X].H.R.oX].R.R.R.J.R.].R.|.|.].oXR.*.A.^.R.].@X.XOXE..XoX-X@X#XR.J.D..XR.#X*X>XoX-X=X@X}.&X@X].[.H.E.R.F.R.J.R.oX].#XoXH.R.-XoX.X].R.#XoXOX.X@X#X2X7XoX^..X@X.XJ.J.A.w.k.;X;X;X;X-X2X2X2X@X#X#X#X-X-X#X.XR.E.-X8X8X-X.XR..X]..X#X-X2XqXqX}.|.+XH.tX&.b &.~  .w.;.;.O.u.r.k.u.k.k.F.k.F.F.R.oXu.#Xe.A.g.H.oXoXR.R..X.X.XOXOXOX:XOXL.!./.XXR.F.A.D.H.H.D.B.k.!..Xk.k.~.F.d.F./.F.!.:.~.~.r.>.F.L.k.D.R.J.A.l.;.F.k.J.R.J.k.f.E.R.OX;.%X:X$Xk.k.:XF.d.R.#Xu.....-X*XD.D.2X.XB.R.T.R.R.A.D.A.D.F.e.^.oXr.D.R.D.D.f.h.R.Y.Y.A.>.k...!.k.e.D.D.F.J.~.J.k.w.d.D.f.J.A.O.D.F.k.;.A.A.A.u.F.k.Y.w.u..X].Y.Y.oXE.D..X.XJ.J.J.A.e.e.r.u.g.A.D.J.Y.R.T.Y.J.D.R.oXR.u.D.A.J.]..XoX.XJ..XJ.R..XJ.D.R.A.k.k.w.r.k.g.U.R.^.J.^.J.F..XJ.D.E.D.B.d.J.D.A.H.B.Y.oXD.R.Y.&XY.H.Y.f.D.R.R.Y.F.f.5.].].U.R.z. .",
"U A.D g..XD.OXF.;.&.f.y.g.A.R.oX@Xe.g.D.g.OXoXY.H.H.'.].].D.D.A.Y.Y.D.oXH.].R.D.Z.B.N.N.N.f.g.g.g.B.N.H.D.N.H.H.H.H.D.H.+X+X[.R.J.R.g.J.D.H.A.F.A.A.D.T.R.J.H.F.R.R.R.oXD.B.A.A.C.A.u.e.g.D.A.A.H.'.].J.J.F.J.D.H.T.'.'.T.].].].@X@X].H.'.+X+XH.R.].oX.XoXoXE.Y.[.[.oXoX[.'.R.'..XR.]..XR.J.R.R.+X'..XoXoXy.E.*X-X@X@X].oXoX#XoXJ.^.oXoXoXoXoX.X*X>X#X#X].@X3X=X&X[.R.].H.J.Y.^.R.D..XoXoXR.oX.XR.-X#X].R.oX-XJ.l.F.*XOXoX#XR.~.@X@XoXA.J.;.~ &.&X-X;X;X;X2X2X3X2X2X2X-X7X7X-XOX3X-X8X&X@X@XR.R.-XoXOXwXfXqX5X2X,X1XaXqXgXB.n k ..~ k.F.;.w.d.;.F.!.R.;...;.r.;.&.^.F.OXu.J.g.D.oXA.R.-X.XOX~.~.J.OX:X:X.X.XOX.XE.E.A.D.R.H.].T.F././.F.J.J.k.A.k.k.k.!.r.F.F.F.w.k.k.F.R.D.k.f.k.F.D.k.#X~.J.OX#XA.*XD.z :XXX%X.Xu.:XJ.J.oX#Xe...;.J.*XoXoX~.F.E.Y.T.T.T.Y.Y.Y..X#X~.^.oXF.F.A.D.Y.D.J.D.D.E.A.>./.A.r.A.y.u.D..X.XD.u.k.r.k.F.J.D.J.A.^.r.;.J.A..X~.A.k.;.D.k.q.A.D.J.J.D.A.D.J.J.J.F.F.D.g.u.A.g.g.D.A.k.D.^.f.A.D.A.D.^.Y.u.A.D.J..XoXoXR.D.J.D.R.R.D.D.].A./.k.;.w.d.s.z.U.oXF.^..XE..XJ.J.A.A.g.k..XR.J.J.T.R.[.D.[.U.E.g.R.E.g.D.D.Y.^.D.R.R.H.B.e.D.D.o.",
"7 A.u.B.*X*XD.E.D.g.y.F.D.J.E.@XR.f.D.H.f.oX@XY.].H.T.R.[.T.H.D.D.T.E.oXD.H.J.D.B.C.f.H.D.H.A.N.g.g.u.B.H.D.H.H.R.T.H.H.'.].J.H.B.D.R.A.D.A.F.F.D.A.D.H.R.H.D.D.D.T.D.R.A.k.J.k.T.g.e.O.y.Y.J.J.R.H.D.J.H.A.J.R.[.[.'.R.T.R.T.J.g.H.'.R.].R.'.C.oXoX.XR.J.].oX].@X].].].[.@XoX@XoX]..X.XR.D.J.J.H.].J.R.].oX*XoX-XoX.XR.E..X#X.XD.D.D.R..X#X.X~.*X-XoX.X2X@XD @X=X[.[.'.].D.R.^.R.F.XXOX-X.X@X@XoXOXoX.X^.oXOXD./ >.oXOXoX#X.XoXOXoXoXJ.XXk.w.k.oX@X-X-X;X-X-X=X2X-X#X*X-X-X-X*X3XtX-X8XR.7X^.#XoX#X-X7X-X=XqXgX6X@X4XqXtX@Xj n c ^ ..r.;.~ .. .A.O.r.r.;.k.k...S.g.k.D.r.Y.k.oXg.g.D.].F.OX>XF.a.A.J.OXoXR.oXoXY..XE.Y.R.g.B.B.oX.X~.~..XF.k.A.J.r.r.;.O...k.~.k.F.F.F.~.D.g.k.k.l.r.F..XJ.~.~.A.D.~.~.A.:X:XOXOX.XF.u.d.-XoXe.R.D.g.q.#XJ.J.OXOXF.D.D.D.Y.E.E.^.J.~.J./.^.J.D.Y.D.A.A.A.D..Xg.w.~.#X..k.r.;.D.F.F.F.D.J.OXD.J.F.D.D.D.D.A.d.^.S.S.k.u.u.e.D.z.r.S.A.J.J.D.A.Y.^.J.R.F.D.D.g.u.A.g.A.J.D.g.D.OXq.f.D.F.D.J.R.D.J.J.R.R.R.].R.A.D..XJ..X]..XR.R.~.F.r.d.k.k.z.Y.oXF.R.^.R..XR.J.D.E.Y.g.g.g.J.E.oXE.R.E.E.oXY.e.R.R.J.F.d.D.oXd.f.Y.y.oXE.D.q.%.",
"0 ' U -X-X8XT.A.&.d.u.A.g.T.].T.R.B.g.D.D.OXOXU.].T.T.H.R.H.'.oX[.D.R.D.D.H.].S.N.H.B.'.H.D.A.A.B.B.N.A.D.D.H.H.H.T.J.H.J.R.H.J.y.e..XA.J.A.A.A.H.D.D.H.R.R.J.J.D.g.e.D.A.e.A.r.*.q.J.R.D.E.F.u..XJ.A.H.D.A.J.R.Y.D.B.D.].].oX#X[.].'.'.@X'.[.'.].]..XR.H.R.oXoXoX.XOXoX].R.R.#XoXR.R.R.J.D.J.].J.R.D.oXR.oX.XOXY.Y.oXoXR.J.oXoXE.D.g.D.J.oXR..X7XR.oX@XJ.2X@X&X@X[.@X].oXR.R.R.J.~..XF.J.^.oXJ.oXoXoXoX^..X^.A.>.l.!.oX#X*X#X.X*XOXoX.XoX.XJ.^.#X-X-X;X2X8X2X-X2X2X-X-X*X#XOX#X@X&XqX].7XR.eXOX#X:X7X2XqXhXqX2X3X2XqX2X5X[.=.j N u .... .y.q.e.;.w./.F.;.k.k...D.J.A.A.O.-XE.D.u.Y.D..XF.e.-X.XL.F.F..X~.D..XOXoXoX-XR.A.u.f.D.oX.X.XJ.A.A.A.u.D.A.D.u.A.A.H.D.D.F.J.u.k.J.g.A.!.k.D.F.#X^.J.D.^.#XF.u.k.r.A.F.#XOX*.r...g.J.J.OXD.D.F.7X.X#X:XE.D.D.D.A.D.D.D.r.F.R.F.OX^.Y.A.D.D.D.D.k.D.oXA.u.OXF.r.D.k.k.F.k.A.J.J.A.~.R.^.J..X~.J.u.^.oXR.^.r.u.e.e.g.A.g.A.XXJ.A.A.R.R.J.D.A.D.R.].].R.R.J.B.A.R.R.D.D..XH.D.J.R.J.R.R.D.R..X.XH.D.]..XD.D.J.A.D.D.D.A.J.F.F.D.D.F.F.D.D.^.J.J.J.J..X].R.A.E.oXd.y.u.D.F.Y.A.E.oXR.OXoXg.u.D.A.g.g.J.R.q.k.oXoXR.Y.eXA.y.",
"h K Q OX&. .&.&.&.e.A.y.T.@X@X@X@XT.y.H.J.].^.Y.H.T.].].oX'.[.+XT.B.R.B.J.J.].D.H.H.D.T.H.D.A.g.D.J.J.H.D.N.H.J.N.H.H.J.J.].].oX].B.].R.J.J.A.J.R.H.D.T.R.R.R.R.Y.D.f.g.k.w.u.O.h.d.R.J.B.T.F.k.R..XD.D.D.J..XR..XD.A.D.J.F.J..X+X].'.@X=X'.R.T.E.Y.].oXoX@X@XR.J.D..X.X~.R.D..XoXR.]..XR.J.R..X^.D.F.OXOXY.Y.oX.XE.OXoX.XJ.oX#XoXY.R.oXE.OX].@X@X[.@XR.7XA.q.-X'.[.'.[.].oXE..X~.~.J.D.F.R.R.J.J..XOX.XJ.R.^.J.F././.oXoXoXoX.X*XOXOX#X.XXXF.J.@X@X+X.XoX&X&X@X2X;X-X-X*XoX.XoX=X8X2X;X*XOX>X*XoX7X9X-X2XqX3X#X}.fX(.}.gX-.f n h N ..g.D.q...e.r.>.d.F.k.k.w.:.;.D.S.-X;.y.D.Y.A.q.u.k.J.g.r.r.XX.X.XOX.XY.^.E.].J.-XR.Y.D.E.OXoX.XE.J.r.w.k.p.D.R.D.J.R.+X].oX.X~..XS.D.H.y.A.D.K F.F.J.#X7XH.J..X.XF.S.J.S.XX*XOXQ &.D.A.A.J.^.g.y.J.R.~.OX.XD.D.z.g.d.A.D.A.R.F.!.J.&.&.8Xf.k.F.F.J.D.D..XR.k.F.;.d.F.k.k.A.F.F.F.k.r.&.R.D.R.R.R.OXD.^.oXOXOXk..XR.d.g.g.g.F.XXH.A.A.J.H.H.R.Y.D.^..XJ.D.D.].D.B.J.R.J.D.H.J.J.R.J.D.R..XA.R..X.XH.D..XoXD.R.B.J.R.R.g.R.D.d.g.A.A.J.R.k.g.R.J.H.D.R.R.R.J.q.g.Y.D.F.F.D.r.f.e.oXoXE.^.-XR.r..XA.5.A.D.Y.D.r.q.g.D.D.9X7Xe.",
"H U U *XY.q.:.B f.B.B.g.[.[.'.@XU.g.u.N.N.R.E.^.@X].[.'.[.].].'.B.B.].H.R.J.J.J.'.H.B.D.H.D.D.A.F.R.].J.D.A.D.H.A.J.D.D.D.J.F.R.@XJ.H..XD.J.D.J.R.D.B.H.T.T.H.H.D.Y.D.k.A.A.D.e.U.A.D.D.D.T.D.r.A.].B.A.A.H.J.D.A.k.A.A.R.J.]..X[.@X+X2X@X'.'.[.*XY.Y.].].@X-XoXA.g.R.R.oX#XR..X.X.XoXoX].J.R.R.!.D.D.J..XJ.Y.E.#XOX.XF.R.R..XoXOXoX7X7XOX*X[.oX#X@XoX'.H.*.D.oX'.[.T.].].oXE.oX~.R.^.#X:XoXR.^.D.^.oXJ.J.~..XoXR.R.oXoX.XoX.XoXoXOXoXoX#X#XJ..X2X2X-X@X#X2X2X;X&X@X@X*X#XoX^.oX-X8X8XwX8X7X*X^.R.oX7XqXxXvX3X+X=XqX4X5X5X'.b &.| k k.eX@Xq.&.*.$.k.j.r...>.w.r.q.F.A.D.&.^ Y.Y.q.q.oXF.S..XA..Xr.k.J..XR.^.E.R.e.u.oX#XoXY.oXE..X.XR..Xk.O.w.r.d.J.A.].J.A.N.J.J.A.A.D.D.q. .u.R.k.^.F.R.oXH.A.F.~.w.J.L.S.#X.X;.-XD.q.A.r.A.J.A.Y.oX^.#XJ.oX~.k.~.k.e.e.A.R.A...k.F.F.D.&.A.A.k.k.;.g.J.D.D.A.J.A.d.r.R.F.F.F.A.A.k.k.A.q.J.r.k.d.A.F.R.OXY.R.OXJ.OX-XoXR.A.g.J.R.A.F.J.D.D.R.A.R.d.D.R.D.J.D.H.D.B.D.J.R.R.].A.S.R.J.B.D.R.D.R.R.R.J.J..X.XR.D.g.R.R.R.A..XA.r.y.d.k.F.R.A.A.J.R.A.D.R.J.D.J.D.A.J.D.F.A.z.s.y.y.E.J.E.R.oX.XJ..Xg.&.u.A.^.oXk.A.r.k.;.:X7XU ",
"A.L y *Xz.&.L L } R.g.T.[.'.@X}.oXB.D.N.u.oXoX^.H.T.].R.].].[.'.T.R.'.B.N.H.S.J.'.T.H.D.D.g.J.R.F.F.J.D.A.A.B.A.H.R.D.H.H..X~.^.A.D.D.].J.].].H.D.B.N.D.T.T.D.D.R.Y.F.D.J.k.D.F.g.A.A.D.T.R.D.A.D..XA.J.J.A.A.B.u.k.F.D.].R.[.[.'.[.].=X[.[.'.R.J.D.].@XR.R.@X#X[.oX-XoX.XoXH.H.R.R..XR.D.D.J.].oXR.F.A.k.D.E.*XoX*X#XR..X.XOX#XOXoX>X*XoX;X&X@X+XR.+XoXY.*XoX*X@X@X[.R.oXY.R.oXXX~..X^.#X^.^..XoX.X^.R.^.^.^.#XOXY.oXoXOX*XD.D.^.OX.XR.#X.XA.J.#X#X#XoXoX&X*X&X-X@X@X-X7X-X-X>XoXoX-X-X-X7XoXR..X.X#X2XfXfX#X#XqXhXqXfXkXT.n  .#.k ..D.g.=.h.e.^ >.>.k...;.d.e.F.q.U &.F.D.Y.D.oXu.&..XXXA.F..X;.;.D.R.J.Y.J.R.D.D.#XoXJ.f.OX.XT.#X.XR.F.w.@...k.R.g.r.A.N..X@XA.A.u.D.H.u.u.J.A.9Xk.F.J.R.u.D.eX~.~ r..XA.XXA.D.D.D.D.J.r.J.D.D.@XY.J.F..XOX~.d.XXF.:.e.D.Y.q...w.7XF.k.oX>X.Xk.d.O.r.F.A.g.H.D.R.D.w.g.k.A.r.u.r.u.k.D.J.R.R.k.k.XXR.oXD.6.E.OX@XOX*XoXJ.A.F.A.J.S.J.J.J.D.H.D.oXr.u.A.g.J.D.H.J.H.A.g.A.J.R.J.A.J..XD.A.Y.J.].R.R.R.R..X.X.XJ..X].R..XR..X.XY.D.D.D.F.D.g.D.R.J.g.A.R.D.B.J.oXD.Y.F.D.r.k.x.g.A.A.g.J..XJ..X.Xu.&.5.e.B.OXD.F.A.u.F.U R.w.U ",
"} z N g.D.z.r.oXD.%.u.A.J.oX&X[.].#XH.%.oXT.T.R.f.E.oXE.oXOXE.E.D.J.N.A.J.G..X)..XJ.S..XB.D.N.R.T.T.D.y.B.g.H.D.D.J..XD.D.oXR.D.H.J.J.R.J.F.R.F.B.f.B.R.H.D.B.Y.~.A.A.k.k.r.u.e.u.e.J.J.B.A.^.D.D.D.Y.Y.R.R.J.J.N.N.'.'.oX]..XoX.X.XJ.oX.XR.oX.X].J.].#X.XS.D.R.C.+X+X].R.B.oXR..XJ.J..X].J.J.]..X!.~.!.J.J.J.~.=X=X2X&X@XOX#X#XOXOXOXoX-X[.R.OXXX.X-XoX].].@XH.C.3X=X2X@X' f.@XJ.@X2XOXOXJ.J..XoXoXR.oXR.R.[.[.=XU.oXOX-X-XA.S..XoXE.J..XOXr.d.oX-X2X#X.X@X2X6X2X#X#X-XwXyX#X-X-X=X;X8XqX[.B.[.H.@X3X2X3X2X2X7XhX=X=XgXg.n  . ./ ~ ~ k.O.^ ;.u.%.H.].g.O.A.S.r.g.A.A.d.OXr.k.F..Xu.S..X.X~.k.A.F.w.p.L.r.u.oXR.D.E.oXY.oXR.R.].XX.XF.u.r.y.r.y.D.k.e.r.u.H.T.'.D.A.g.g.A.F.J.J.r.k.OXF.A.A.oXA.g.D.A.R.oXD.A.D.r.p.w.r.F..X~.D.Y.D.f.e.w.!.~.k.s.^.r.d.^.J.R.J.J.J.~..XA.!.~.k.~.A.k.A.A.E.g.Y.r.A.f.^..Xr.r.^.!.F.U k.k.u.~.F.F.A.F.D.oXR.A.Y.9XoXu.A.J.F.g.J.J..X.X~.e.D.Y.oXH.].T.y.B.A.F.F.XXJ.F.~.D.A..XY.A.T.Y.F.R.R.k.k.J.F.~.R..X.X#XJ.Y.E.J.J.E.J.J.J.J.F.r.r.A.r.e.^.J.A.B.B.R.J.J.J.A.g.E.E.D.f.g.D.F.r.r.A.&X@XR.J.'.-XJ.t.u.g.g.D.#XA.q.H.'.f.%.g.",
"N H ~ r.OXF.k.pXoXq.e.S..X].@X&X#X.Xf.5.H.H.D.B.Y.E.R.R..XE.Y.Y.].H.u.R.@XJ.].J.J.J.].R.R.R.B.N.T.B.D.y.y.D.g.D.H.R.].J.D.J.J.J.A.H.J.D.B.k.J.J.B.B.H.R.D.T.A.g..X~.g.u.F.F.A.J.A.~ A.J.N.A.A.R.D.g.J.D.Y.D.D.J.].].N.H.'.T.@X.XD.J.]..X.X.XR..X#X'.J.H.].J.R.J.'.H.[.].]..XT.oXXXOXOXXXF.g.N.H./.!.~.J.J.R.J..X2X@X].R.R..X^.J.*XOXoXoXoXE.[.@XA..X.XJ.-X[.D.D.'.[.2X=X@X'.=XN.].oX-X*XoXoXoXoX=XoX[.@XoXoX@X[.Y.U.Y.E.R.oXR.~.oX.XoX^.eX*Xz.D.oX-X8X8X2X2X2X=X#X-X2X8X-X#X7X8X7XoX7X8XqX8X&.5.].T.-XqXqXxX2X2X&Xf.}.=X .A.^.} y u ^ r.r.r.} ;.e.J.J.F.w.J.A.u.g.A.J.OX/.u.F.F..X.X.X-X~.r.k.D.D.F.eXF.u.d.~.~.Y.R.J.g.R.R.J.A.F.~.oX.XF.A.A.A.k.g.u.A.S.J.H.N.J.H.D.A.A.A.A.F.r.r.OX;.u.E.oXOX.XR.D.A.H.D.R.E.e.O.u.p.F.A.OXJ.F.d.u.g.u.k.F.~.r..XF.F.^.J..XOXJ.k.r.A.k.w.O.r.A.r..X.XD.E.Y.A.J.u.A.R..Xp.F.D.A.k.u.J.k.w.J.k.k.A..XF.R.E.oXE.[..Xk.u.F.R.R.r.OX#X#XA.u.F.E.D.(.T.f.R.oXg.F.F.r.w.r.R.A.A.oXA.D.A.D.A.k.k.k.L.R..XJ..XJ..X.XJ.R.J.oXoX.XE.D.f.p.F.F.A.F.D.D.^.B.J.R.R.R.H.D.A.Y.f.A.A.D.D.A.f.e.;.O.;.Y.&XoXD.A.J.2X].J.e.D.R.g.O.O.q.[.[.f.%.",
"c L F.k.*XA.r.w.J.A.A.F.J.A.T.R.].H.f.D.B.g.B.T.A.D.F.A.u.f.D.^.+X].H.oX@X'.].].H.T.[.R.R.B.B.R.D.g.y.4.'.].y.y.R.R.R.].R.D.Y.R.H.H.H.J.H.D.R.F.J.R.].J.g.R.D.e.w.A.A.F.D.A.u.J.J.q.H.R.g.R.D.D.F.k.R.D.R.g.D.R.D.H.[ 6.'.].H.J.S.J.+X].oX@XY.oX@X.X@XJ..X.X@XJ.].].H.].R.].[.oXJ..XOXOX].H.R.oXJ.J.~.R.R..X.XOX.XoX.X.X~..X#X:XOXoXoXoXR.oXOXoXoXR.oX.XT.].2X@XoXB.2X=X@X=X=XN.oXoXoXOXY.OXOXR.oXT.'.].].].-XoXE.U.y.E.R..XoXoX.X].oX^.OXR.D.oX].+X-X#XoX@X#X}.@X#X-XqX#XoX8X#X-X3X8X-X[.yX2XqXvX[.=XqXgX=XqX'.H.6.g.e.! g.f. .y : L ~ ;.r.r.O.&.D.A.e.;.~.J.r.J.q.O.~..Xr.F.S.u.A.XXR.u.u.k.oXR.OXe.F.A.D.~.J.D.Y.A.f.F.J.D.A.F.J.XXoX~.F.D.D.A.A.F.S.F.H.J.J..XD.e.e.u.A.p.A.F.u.OXA..XoXD.Y.J.D.R.B.J.@XoXR.J.u.A.w.u.q..XJ.D.A.A.A.g.r.k.F.D.^.J.~.^.A.A.^.XXA.u.k.u.u.r.e.~ ..R.oXg.Y..XD.k.r.A..XF.j.A.F.} k.k.F.~.J.^.k.k.k.J.k.D.F..XoXOX^.pXOXr.k.J.u.w.A.J.S.u.~.^.R.'.N.u.u.D.^.R.oXw.u.d.R.R.D.J.A.D.A.F.A.F.F.k.w.J.~.A.R.D..XR.oXE.R.Y.D.E.E.A.E.F.A.k.k.D.J.R.F.D.J.J.R.J.J.D.D.D.f.D.A.A.D.D.y.;.;.;.e.T.E.oXR.&.N.R.g.Q g.R.e.O.q...q.e.T.%.F ",
"..*Xd.k.A.A.J.@.A.J.J.S.J.D.].].T.N.5.N.g.B.D.D.oXE.J.g.e.A.E.F.].].H.H.H.H.].'.T.].R.].H.B.y.].D.q.5.y.y.f.H.N.J.].H..X.XJ.R.J.R.J.H.R.R.Y.E.J.J.~.J.A.A.^.D.k.A.g.u.A.u.A.H.J.A.R.J.H.u.J.R.d.R.J.^.J.R.D.H.].oX'.'.'.H.].]..XR.oX@X'.+X+XR..XT.].@X]..X.XoXJ.'.+XA.H.J.R.@XR.].]..X.XoXoX.XoXJ.R.oX.X.XOXOX#X@X.XR..XOX#XOX.X].@X@XOXR.OXOXoXR..X@XoXR.R.@X@XoXD.@X@X@X[.[.&XoX.XR.R.F.oXoXJ.].R.].R.H.H.-X@XOXR.e.oXOXoXoX.X.XoXoXoXR.R.D.-X@X@X@X[.].+X2X2X@X=X=X8X2X-X8X-X&XtXyX-Xf.T.E.oXxXR.vXy.N.T.hX3X'.g.u.e. .[.E.n u y k.k... .g.e.D.A.k.;.u.r.k.r.u.q.X.u.J...k.F.w.A.u.k.J.^.OXD.^.OXF.r.A.~.OXOXE.oX.XR.R.J.J.~..XJ.D.F.~.~.~.~.D.A.k.u.A.S.J.D.E.J.A.A.D.S.F.XXJ.~..XOXoXF.oXOX.XH.R.A.D.oXk.A.H.].J.e.e.O.u.A.u.A.Y.Y.R.y.;.&.;./.oXA.A.R.J.D.g.R.R.k.w.k.F.F.w.A.k.J.Y.^.g.A.S.F.D.F.w.>.;.A.&.F.w.u.u.u.F.J.g.J.R.J.J.J.D.E.Y.OXr...A.R.R.D.r.r.u.J.F.#XF.D.N.A.oXJ.y.k.;.k.R..XJ.k.F.D.A.E.k.r.d.k.D.^.R.k.R.J.k.J.Y.D.D..X.XoXR.R.E.J.D.oX.Xr.&.r.k.F.~.F.F.A.r.A.k.g.u.D.y.q.Y.D.d.A.Y.A.w.r.p.d.T.Y.E.E.A.g.g.D.} A.Y.f.q.u.k.u.D.R.T.=.",
"j D.q.Q 9X.Xq.S.r.u.w.w.k.k.E.oXH.'.N.5.g.H.R.D..XJ.H.A.d.J.oXF.}.'.N.B.H.].+X].R.oX].J.J.F.w.r.R.A.u.J.A.N.B.'.H.J.H.J.J.A.J.H.H.H.D.H.B.g.J.R.A.F.d.d.F.R.A.^.F.A.S.D.H.D.H.A.g.E.F.R.F.D.H.R.^.^.E.E.H.].J.R.A.H.'.A.H.R.].@X^.#XR.R.[.].'.'.[.+X]..XJ.oX.XR.H.H.].J.R..XR.R..X].R.R..X.XR.J.~..XoX.X.XoXoXoX@XoX].oX-X-X+X'.J.-X#XoXoXoXE.OXoX[.@X@XR.oX2X2X*X#XOXY.[.[.[.&XoXoXE.D..XoXE.J.T.].oX[.g.g.R.oXE.^.E..XoXOXoX^.R..X.XoXoXOX^.OX2X=X-X=X=X1X6X2X2X3X3X=X-X2X2XwXtX&X8X@XR.Y.&. .qXy.yX'.'.fXfXqX5.H.7X8X&.} F j t ~ !.^.O.y.e.k.;.k.d...u.A.~.u.r.A.q.;.A.k.~.&...k.F.E.oXoXoXD.U.oXOXD.g.A.~..X.XoXE.^.E.F.k.D.J.k.e.u.D.R..XOXoXD.f.e.F.J.J.A.A.D.D.J.R.S.A.~.u.~.R.:X#XOX-XD.oXJ.J.R.R.R.O.u.J.g.q.O.u.q.u.k.g.g.k.D.F.q.q.q.;.F.oX.XR.D.F.XXe.R.u.&.R.R.u.k.F.r.F.OXF.u.D.D.a.u.d.;.r.w.A.R.~.O.} d.r.k.J.J.F.R.R.oXg.J.^.OX.Xk.r.k.oXD. .#Xk.A.~.J.D.g.g.D.%.J..XJ.g.F.k.;.J.F.~.A.k.D.r.A.e.&.y.D.D.A.D.E.u.g.e.J.oX~.J.#XE.D.D.^.u.D..Xk.D.&.;.A.D.Y..XR.D.D.J.oXD.g.u.Y.g.y.D.A.f.g.Y.A.w.u.p.e.D.[.R.g.J.D.J.A.;.D.OXR.5.r.q.q.R.R.-Xy.",
"W ! Q 6.qX&XN.A.r.A.k.w.k.A.R.E.H.'.H.y.T.H.'.].].R.oX@XE.E.oXoX#X'.H.'.].].].@XT.J..XH..Xk.r.w.&.j q.g.D.N.R.H.H.].].F.A.A.J.R.D.A.A.D.A.B.D.H.D.J.g.k.J.D.r.!.D.J.H.u.H.B.g.H.u.J.oX.XoX.XD.2XE..XR..XJ.@XR.].@XH.D.J.H.H.@X5.E.OXR.'.+X].[.'.@X@X].oXD.R.J.~.R.J.].E..XF.R..X'.].R.R.]..X.X.X.X^..XR.R.^.E..X[.[.@X&X;X2X2X6X.X8X2XoXoXoXE.*X].@X-X2X2X8X#XoX*XoXE.Y.Y.].[.T.oXOXoXY.OXY.A.g.B..XoXoXB.N.H.].Y.Y.oXE..XoXoXoXJ.R..XJ.oXoX#XOX-X@X-X;X-X=X#X@X2X2X6X@X2X8X@X2XhXtXqX;XD.} ~ d.' y.gXfX#XqX2XH.-X2XyX8XQ ..n } u L Y.e.&.J.u.y.d.k.r.A.R.A.A.D.F.r.e.OXA...d.k.F.u.D.A.E.OXe.;.*XE.g.oX].J.XX.XR.J.g.D.R.F.e.w.g.u.u.k.k.D.!.OXoXY.g.r.k.R..X~.D.D.D.J..XA.r.A.F.R.F.OXoX*XoXR.J..XJ.^.~..Xd.d.oX .} ..u.O.A.u.k.D.k.d.r.e.D.D.e.~.^.R.~.J.H.J.e..XR.g.R.B.e.g...O.;.r.~.&.u.oX;.r.d.k.w.w.F.k.r. .F.d.k.D.F.^.R.&.&.^.r.A..X^.OX#XOX#XE.[.g...d.D.D.d.g.J.A.d.&.q.q.w.e.D.k.e.g.q..X.Xd.F.k.w.e.*.s.h.D.z.z.D.R.^.f.J.A.A.d.J.D.D.g.k.q.F.F.O. .;.D.oXR.Y.R.D.f.A.D.Y.A.g.u.g.R.A.Y.A.f.k.J.A.w.r.k.d.Y.R.T.g.k.q.;.A.r.k.J.*X5.A.&.e.B.H.E.;.",
"Q L e.I qXoX .y.w.A.~.u.d.A.D.A.T.N.y.f.].H.R.J.@XR.'.oX[.E.Y.A.].'.[.+X].H.H.].(.C.].J.R.d.k.D.r.} k.q.A.5.g.'.J.J.].J.H.J.J.R.D.g.u.D.R.J.H.A.Y.Y.D.D.D.k.w.A.A.D.A.D.oX].g.u.B.Y.#XE.R.R.R.@X^..X.XoXR.@X'.'.J.].H.].].H.].H.oX[.'.[.}.[.].].R.'.].oXD.D.F.R.].oXD..X.XA..X.XoX@X@X].R.].oXoXE.Y.R.E.E.oXE.oX*XoXR.oX-X2X#X}.<X7X2X#X#XoXOX-X8X[.@X&Xg..X-XD.R.z.D.E.R.].[.[.oXOXOXoXE.A.d.s.A.oXoXoX.XR.R.].R.J.Y..XoXOXoXOX.XoX#XR.oXoX2X-X:XOX#X-X-X-X-X#X=X#X#X=X2X3X@X].}.=X6.g.g.~ ..r.} t.yXqXqXqX@X#X5X3X[.qX8Xk.j Y.B E oXu.e.g.q. ...:...e.k.k.k.k.S.N.u.J.g.k.F.u.;.d.f.d.F.^.F.p.k.e.oXq.J..X.X.XJ.R.D.J.~.~.k.d.F.F.R.~.R.R.R.!.D.D.f.e.r.F.L.~.u.A.D.D.A.;.O.A.r.F.OX*X-XJ.g.#XR.oXJ.A.k.D.oXk.F.>.d.k.k...u.u.e.J.J.F.k.F.~.k.k.F.r.D..XD.D.R.D.H.].D.A.D.S.;.p.;.~ ;..Xg.D.A.L r.r.F.r.k.~.A.r.k.F...k.k.r.k.g.} } R.R.F.D.d.J.R.oXD.D.oXg.g.&.R.J.k.q.J.g.d.~.w.k.J.F.r.;.k.H.g.R.J.w.d.S.u.s.s.q.&.e.D.F.D.J.oXD.D.k.D.D.R.Y.E.J.D.F.~.....*.D.oXoXY.Y.F.D.D.J.Y.A.D.D.A.A.D.A.D.g.k.Y..XF.r.r.j.F.oXU.D.R.*.q.q.D.r.R.A.u.5.u.y.&.g.y.d.&.",
"u U u.Q B.A.t.5.k.u.F.D.J.Y.Y.oXR.R.D.y.B.'.#X].T.'.+X[.E.oXOX^.'.].+X.X.X.XJ.D.H.H.'.R.H.J.A.f.F.S.e.F.A.H.D.'.H.A.H.H.J.].D.D.A.u.r.A.H.D.J.J.B.A.D.D.u.A.k.S.F.A.N.D.B.J.J.D.R.[.oX^.Y.A.#X.X.XR..X.X].].H.T.oXJ.H.].H.J.H.+XOXR.@X[.].].'.[.@X'.T.R.E.oXoX.XR.R.R.~.J.XXR.].[.oXoXR.R.]..X.XE.Y.E.oXOXOXE.E.oXoXoXOX@X=X#X#X#X.X#X#X-XoX*X-X[.-X-X@X].2X8X7XoX^.OXoX@X&XT.R.#XoXOX*XD.D.A.A.D.oX.XR.#X].].R.D.oXE..XY.-XOXE.oX#X.X@XoX-X@X].#X.XoX*X*X#X#X@X#X2X=X2X@X@X2X@XC.}.5.5.f.r.>.d.' @XwXfXfX3XgX6X5XtX3XqX3X .n  .E :.;.u.u.B. .&.k.d.&.r.J.r.A.J.u.u.u.S..XJ.J.F.w.k.^.y.k.OXw.#.O.w.oXF.R.A.F.#XD.oXoX.XJ.J.D.F.oXR.R.~.oX^.F.k.D.A.e.u.k.~.S.u.g.D.D.R..Xu.w.S.~.oXR.d.oXg.q.J.D.B.g.F.D.e.XXr.~.Y.j.k.A.g.u.B.f.A.g.J.k.A.~.A.J.*Xg.r.S.g.D.D.R.H.H.A.H.H.J.u.OXF.;.F.A.D.].D...Y.s.r.F.k.R.g.} k.w.k.J.k.R./.A.oXD.g.oX^.E.D.A.u.^.~.R.T.D.D.&.D.D.;.w.A.d.e.k.k.w.r.F.R.XX;.N.].D.S.A.r.p.r.s.d.d.;.e.w.;.w.r.R.oXF.^.!.oXY.E.f.A.D.A.J...F.oX&XE.A.D.R.E.E.E.E.oXY.Y.d.A.Y.J.A.D.y.A.E.Y.e.e.;.r.k.E.E.R.F.A.*.e.A.r.O.O.@.y.g.t.g.y.A.&.r.",
"z oX-Xy.Y.oXD.H.d.R.u.J.Y.oXR.].oXE.D.D.u.E.R.R.].D.].].J..XE.Y.}.].{..X).J.]..X'.].].R.S.u.r.k.D.H.q.5.].J.T.'.R.A.A.H.H.A.u.A.A.D.Y.D.D.F.D.R.g.g.A.f.Y.d.A.F.D.D.H.A.D.J.g.D.J.D.D.O.R.R.R.oX^.^.E.oX@XT.+XR.T.H.D.R.R.J.R.@X.XJ.@X2X+X].}.(.R.].].R.R.^.E.R..X.X.X.XR.R..XoXoX#X#X.XR.R..X].F.J.~..X.XoXoX].OX*X*XR.#X@X2X[.oXoX*XOX*XoX*X7X2X-X7X#X-X-XOX9X@X].oXE.OXOXg.y.@X-X@X2XD.g.[.E.].+X.X].].]..X#XR..X#XOX].oX#XoXR.-X#X.X#XoX@X@XOXOX-X#X2X1X2X1X-X@X@X8X-X-XuX*XoX#XA.D.y.y.&.e.e.f.tX'.@X=XqXqXqX3XqX6X3XD.n L k L ;.r.r.;. .r.D.F.;.e.^.oXr.oXw...e.e.D.^.g.R.F.F.R.u.R.].u.q.e.g.D.oX~.u.r..X#X.XOXJ.J.Y.A.R.OXOXJ.OXJ.F.J.J.A.H.A.u.e.u.F.~.Y.*XR.J..XJ.k.w.k.~..Xu.J.J..XJ.S.F.F.D.H.B.6.6.q.J.D.5..XA.A.N.D.J.A.d.F.k.;./.OXy.;.;..X~.g.OXoXA.A.A.].y.N.y.~.k.r...J.g.R.D.L.u.w.r.k.A.^ k.w.e.u.k.F.k.r.^.D.E.OXk.u.k.:XF..XD.D.D.R.D.f.y.k.k.d...~.:Xe.d.u.u.u. .} J. . .;...V r.F..XOXD.J.u..Xd.;.A.F.y...r.F.F..Xk.J.].H.g.J.k.A.J.F.D.Q R.oX.XOX~.R.^.D.R.R.D.D.J.~.^.D.F.k.g.e.A.A.u. .O.&.A.@X[.&XU.r.} U w.e.O.;.e.y.y.&.g...r.Y.D.",
"x u.&Xh.F..XA.y.;.u.k.k.J.R.R.#XD.D.H.J.g.R.R.R.D.y.N.D.J.Y.D.R.+X].[..X].]..X.XH.'.H.H.F.k.A.A.J.].R.y.e.t.y.D.A.T.D.T.R.H.g.u.D.D.F.A.A.D.A.D.J.A.u.e.F.g.d.D.A.D.D.D.D.Y.D.D.A.R.R.A.oX&X[.R.D.oX^.E.].'.=X].T.D.H.J.H.H.'.=X.X@X@X+X.X].].|.H.].@XoX^.^.oXoXR..XoXoXoX.X.X.XOXOXOXoXoXoX.XJ..XR.~..XR.].oX.X*X*XJ.e.].@X@X=X&X*X*X^.OX*X7X*X-X7X2X7X2XoXoX-X].@X@X-XE.y.g.E.'.[.@X2XR.R.E.R.H.J..XH..XJ.OX:XoXoX#XOX.X.XoXR.g.oXoX-X-X.X].@X*XOXOXoX2X+X5X1X2X8X-X#X*XyX*XOX#X8XoXD. .f.f.oXe.y.oXT.@X2X#X#X'.3X3XtXN.F L n ~ ~ oX&.....} w...>.&.;.g.R.k.D.F.>.k.F.A.E.R.J.p.r.A.D..XR.u.g.D.f.g.oX.XA.k.L.w.w.D.D.D.J.A.F.OXR.~.*XR.J..X~.R.R.S.e.e.D..X~.oX.XJ.D.F.k.u.F.;.k.OXoXR.D.].F.S.A.A.g.y.y.6.f.g.OX].g.8XJ.u.B..XoX].A.r.r.F.oXY.e.Y.oXu.F.R.].R.u.d.A.N.y.N.y.k.d.q.;.g.F.A.k.A.e.A.J.u.k.e.;.k.k.D.D.r.e.k.F.k.J.R.D.w.;.^.A.D.D.J.u.F.g.A.-X!.d.D.w.J.F.u.r.D.~.e. .O.q.u.g.F.;.r.S.k.F.#XeXF.F.OXd.u.d.r.r.r.k.k.r.J.D.J.D.D.D.oXg.f.k.d.r.e.A.f.A.e.~..XA.J.J.J.^.oX^.J.J.k.D.J.g.J.@XJ.y.O. .&.A.E.E.U.U.A.O.;.F.d.O...J.y.t.t.u.O.O.R.f.",
"g A.g.&XE.^.E.y...O.D.D.A.Y.E.[.e.u.A.D.A.E.[.[.oX].R.R.oXE.D.J.].R.R.'.R.].].|.|.].].'..X~.F.D.R.g.D.g.H.].J.H.B.[.H.].Y.D.A.A.D.A.D.D.A.A.A.D.F.D.d.g.D.u.e.D.A.D.D.H.F.J.R.D.} g.R.H.T.T.R.Y.Y.oXoXoX@XH.].oX[.D.g.g.H.].].'..X-X@X'..X].'.}.R.oX#XoX.X^.oXoX.X.XoXoXoX.XoXoXOX#X#X.X]..X.X.X.XJ.~..X.XoX#X-X*X*XJ.y.oX@X@X=X*X-X7XOXE.oX7X*X-X8X@X@XoX-XoXD.oXoXR..X.XA.J.R.#X].[.[.D.R.Y.R.J.].J..X.XoXoX7XOXOXOXoX.XoXoXR.].#XoX.X@XoX@X@XoX7XoX2X#X{ #X2X2XqX+X-X8X-X*X*XOX7X*Xy.oXD.f.&.q.e.Q g.@XR..XR.R.3XqX2XT.F K L y / ~ r.;.;.J.&.F.F.;...&.d.D.J.F.L ^ F.R.R.^.oXF.A.H.B.u.D.g.y.oXA.D.J.Y.~..XF.p.r.k.d.g.J.D.D.~.;.r.oXF.k.A.F.].F.r.q.g.~.J.g.E.D.D.u.A.J.A.A.u.d.D.R.].~..XK.S.S.J.B.g.g.g.g.g.A.8X.XR.J.oXg.R.oX.XR.H.F.oXU.g.D.E.oXD.D.A.R.^.D.g.H.N.N.D.N.r.R.k. .F.A.u.J.S.A.F.k.e.e.k.A.F.F.A.F.k.r.R.F.F. .D..X~.J.u.J.A.&.H.H.e.e.f.f.;.k.k.u.R.J.k.J.r.J.e.w.D.&.g.g.r.r.F.F.#X~.F.J.~.A.F.q.e.D.F.r.:.k.r.u.A.A.H.J.g.H.@XF.F.R.F.D.y.q.e.k.F.D.R.F.D.R.R.R.^.~.R.R.A.A.A.g.H.u.5.o.q.y.g.g.D.&XU.E.F.r.r.w.r.r.u.R.H.D.N.g.~...A.&.",
"k k.;XOXR.g.D.U.e.F.D.k.D.[.D.[.].R.R.D.D.E.Y.T.R.oX@X]..X.XR.D.D.H.J.H.H.'.].|.'.H.}.H.J..Xu.u..XA.D.J.].H.D.R.].R.5.A.R.E.D.A.D.k.J.Y.A.D.D.J.g.Y.D.F.J.A.y.D.D.J.D.R.D.D.^.J.g.D.J.H.@XT.@XB.e.E.oXD.].].+XR.T.T.H.J.]..XoX+X].#X@X].+X].'.}.oXoX.XR.^..XoXE..XoXoXoXoXoXoX@X@X-X-XoXR.R..XoXR.F.J.oX#X#X#X-X*XOX*XoX@X@X2X#X@XOX3X;X[.[.2X2X7X@X8X-X2XH.oX8X.X]..XR.R.oXJ.^.oX].].oXT.R.T.T.].].S..XR.#XR.@XOXOXoXE..XoX@XoXoX#X-XD.#X@X2X'.oXR.oXJ.#X-X3X#X6X3X2XqX7X-XwX7X9XuXoX&.e.q.A.&.~ ~ e.Y.#XR.g.R.y.].' [.;XB.n n N >.L u...u.S.r.D.R.r.d.F.e.&.e.D.&.e.D.^.E.g.g.u.&.u.J.g.k.k.F..XF.k.g.k.Y.oXR.!.A.D.u.e.H.oXoXOXr.A.oXR.F.F.~.~.R.F.A.g.k.F.R.D.A.H.A.S.~.F.A.d.F.F.J.oXXXD.G.F.A.g.e.g.Y.R.R.D.y.D.J.-XR.D.R.F.XX.X~.R.D.R.@XoXF.Y.Y.R.D.H.D.J.R.g.A.R.J.B.B.e.D.u.R.D..XD.u.g.r.g.r.d.&.e.D.k.k.u.F.R.k.A.!.r.w.F.~.~.~.q.;.J.oXD.u.E.D.} D.F.;.u.k.r...e.J.u.F.u...d.q.u.J.S.F.y.A.oX;.@.w.A.A.F.F.r.k.J.r.F.x.e.D..X].D.D.N.B.H.k.J.F.D.J.A.g.d.&.D.F.^.A.H..X.XJ.D.J.J.J.r.A.u.D.D. .O.%.&.y.A.g.D.oXT.T.r.r.K g.D.r.d.g.u.A.g.D.R.H d.u.",
"H g.@X[.*.r.y.e.k.^.F.D.A.[.@XR.[.R.J.D.D.E.Y.Y.B.H.oXoXH.J.R.D.D.J.R.J.H.].+X{.'.].[.'..X.XF.D.J.R.Y.D.A.&.g.oXY.D.&.g.D.Y.J.D.J.A.J.Y.H.H.D.H.D.E.A.g.A.Y.A.Y.J.R.J.R.D.D..XR.J.D.A.D.R.I.W.g.D.R.E.oX2X].].#XH.H.H.T.].+X+X@X].].].oX[.'.'.}.@X].R.R..XoXoX^.R.].oX@X@XOXoXoX#X#X#X#X#XOX.XR.R.F.J.oX#XoXoX.X*XOX-XOX].[.2X2XOXoXOX*XoX@X2X2XoX8X@XtX@X2X;X@X.X].@X.X].R.D.oXJ..XE.#X.XE.@X[.].].R.R.oXoXoXOXoXOXoXoXoXoXoXoXOXoXoXy.J.].3X2XoXoX7X.XoXqX#X2XqXH.@XqX-X8XR.8XqX@X#Xy.5.e.D.%.U L D.^.-XD.D.A.y.g.=.f.;XB.n =.k ^ ;.;.A.J.u.e.F.R.A.F.R.w.*.f.&...k.k.D.J.u.g.oXD.J.#XD.g.k.F.J.k.e.u.k.g.A.oXF.D.J.D.u.A.R.R.F.R.OXJ.D.~.~.J.!.J.R.~.~.D.g.y.A.A.J..XD.A.J.~.A.D.g.A.R.J.A.S.H.g.B.D.R.E.A.A.e.A.F.u.oX~.F.#XL.u.k.L.~.D.A.E.oXD.D.A.D.N.H.N.D.R.S.A.R.H.A.A.k.E.g.oXg.u.g.r.k.O.u.u.A.e.r.k.;.w.u.k.k.u.r.F.O.D..X~.J..Xk.~.OX~.J.A.R.J.g.oX;.O.!.p.A.A.J.A.@.F.F.;.;.&. .f.q.e.%.u.J.A.S.w.u.!.r.F.k.;.;.;.k.k.r.D.F.J.D.R.u.u.u.e.k.k.A.F.OXR.~.oXD.A.J.XX].J.J.R..XS.u.u.&.u.r.u.y.&.}  .o.O.g.D.oXH.T.T.u.Q u. .J.g.5.e.R.u.O.D.u.~ R.&.",
"H #X[.g.OXA.z.h.E d.d.e.[.D.R.R.[.[.].D.g.g.y.g.H.H.oX-XR.D.R.J.T.T.R.R.H.R.].].H.+XH.'.R.A.~.D.J.^.D.A.R.A.J.~.g.E.D.Y.g.A.J.J.J.A.A.D.T.'.H.H.f.Y.Y.Y.Y.E.A.f.R.R.R.J.A.k.F.J.H.H.D.].T.T.T.[.H.].].D.'.'.'.D.T.H.B.H.'.].].'.@XR.].@X[.'.[.@X[.oXoXoXoXoXoXoXR.].[.oX@X@X@X@X#X#X#X#X@XoX^.E..XJ.J..XoXoXoX].oXOXoXY.oX.X+X2X*X-X3X*X].@X-X@X8X7X-XoX=Xo.3X2XJ.@X].R.J.D.].R.J.#X].#X.XY.OXoX].oXoX.X.X^.oX#XE.oXoXoX@X@XoXoXOXoX#XoX@X@X@X#XoXoXD.-X-X@X2X2XqX'.'.T.yX#XA..X#XoXyXu.A.B.5.5.;.~  .Y.9Xq.Y.q..XD.g.5.-X3Xj  .k >.^ ~ A.w.k.q.k.r.F.R.A.e.g.u.F.r.D.D.f.g.A.J.S.k.A.A.u.r.r.d.D.k.r.u.F.k.k.~.J.D.D.D.A.A.A.u.A.oX8X^.F.J.~.~.J.R.F.r.w.u.A.H.g.D.H..XJ.A.~.F.#XF.D.R..X.X.XJ.H.N.g.H.oXF.k./.B.Q ..g.F.J.oX~.S.J @..X.XR.D.u.q.D.oX.XA.H.A.H.J.F.J.J.g.u.D.A.~.7XA.g.D.O.;.D.J.g.k.;.D.D.D.R.r.;.k.u.;.k.k.;.A.B.H.A.F.J.X.A..Xk.J.k.~.u.D.D.A.k.k.;.k.J.A.R...F.F.F.k.r. .} e.r.g.u.F.J.r...k.F.r.k.;.u.u...d.k.....f..XJ.g.y.A.H.g.D.D.F.k.;.D.oXJ.k.F.A.k.D.H.J.]..XF.A.A.J.u.u.q.e.g.Q  .q.&.g.g.T.N.].'.u.D.O.e.O.A.e.O.A.u.O.A.&.L d.U ",
"N g.@X@Xf.^.E.U.Q Q f.A.R.B.R.B.H.].'.R.A.D.g.Y.H.H.T.oXR.D.E..XR.H.H.J.H.J.R.J.].@XR.].].A.H.D.^.^.oXE..XF.F.k.F.F.Y.Y.D.Y.Y.g.D.A.A.A.H.R.H.H.Y.R.D.g.f.D.D.g.].R.R.F.A.k.g.A.].J.A.J.U.W.B.D.H.B.D.T.+X].].oXT.T.'.'.'.'.].@X@X].[.@X@X[.oXoX@X+X+XoXoXoXoXoXoXoXoX[.[.oX@X@X@X@X#X@X].Y.R.oX.XR.R.].].oX@XoXoXoXY.Y.oXoX+X@X&X7X3X2X[.oXoX=X@X-X8X@X2XH.6XH.D.@X.XJ.H.J..XR.F.oX.X#XoXoXoXE.R.oXR.R.D.R.R..XT.[.E.E.@X@X@X@XOXoXOX#X@X-X#X2X#X#X-XoXoX2X@X.X=XqX1XH.lX2X8XF.-X7X@X.X@XgX5.5.u.} u.OX9XA.g.D.r.B.B.y.;Xh.n b q ^ ^ ;.S.w.e.S.J.r.D.F.A.A.R.J.D.F.r.w.q.f.R.D.u.q.y.J.E.e.O.w.A.A.A.A.D.F.D.F.J.k.u.A.R.J.J.A.Y.R.oX.XD.u.F.F.!.l.r.w.g.J.Y.D.B.D.J.J.R..X~.u.A.D.OX.X].H.S.q.H.].].R.oXk...;.o.&.*.&.r.k.!.J.p.| u..Xu.g.R.D.g.A.7X7Xu.G.G.A.F.A.S.J.w.e.A.g..Xk.q.J.Y.E.A.d.g.D.d.&.A.A.k.k.u.r.d.r.;.F.A...y.H.q.y.J.J.S.w.OXF.A.k.R.u.A.A.F.F.J.A.u.~.XXR./.F.r.u.r.g.g.y.R.u.g.u.r.~ ..J.r.k./.F.;.!.~.r.g.~.k.;.e.D.H.g.N.D.R.D.D.k.d.&.r.w.k.r.F.J.F.A.g.D.J.J.R.J.J.R..Xr.;.O.&.e. .O.r.;.A.5.e.A.R.N.q.r. .g.q.D.e.&.u.u. .u.D...r.U ",
"L .XB.oX[.OX&Xh.g.&.B.].H.H.H.H.H.}.'.].D.J.g.R.H.R.D.H.J.D.J.Y.[.R.T.R.J.F.J.F.].H.].H.A.S.5.f.D.e.F.R.J.F.F.J.F.e.g.D.A.D.D.g.D.Y.Y.A.N.D.C.'.Y.D.D.D.J.Y.g. .R.J.J.D.F.F.k.F.D.A.J.B.U.U.B.U.H.B.Y.R.@X@X@XoXT.B.B.'.+X+X.X.X.XoX[.[.@X[.R.R.+X[.].]..XoXOXOX@X@X@X@X@X@X@XoX@X+X+X@XoX.XR.R..X]..XR.J.].oXoX#XY.Y.E.Y.oX2X@X[.[.E.-X&X@X].=XoX].-X@XT.2X=X6X@X]..X.XoXoXJ.R.J.~.R.R..X-X-X7X[.[.].A..X.XOX.XE.[.Y.T.].oX@X-Xq.g.#XoX.X@X=X2X].R..XoX-X#X#X@X@X2X}.yX8X7X-X8X8XqX8XgX@XwXgX@Xk.d.g.E.-X@XJ.oX.Xu.D.H.&. .b n m L N e.!.O.;.A.:Xk.d.r.A.d.q.e.e.F.&.k.J.q.A.^.g.A.A.D.oXd.;.w.A.u.A.F.k.r.k.A.D.D.A.H.J.H.J.].OXJ.R.R.A.u.~.k.F.j.r.k.F.D.D.D.].H.]..XXXXXJ.J.F.*X*Xg..X.Xu.L N.@XoXD.oXoXu.w.u.R.e.O.k.u.u.F..X.X.X].e.e.].H..X.X.Xe.y.1.} u.A.D.u.F.g.D.A.J.S.O.g.A.Y.Y.D.z.k.d.r.e.;.q.D.q.w.k.u.u.u.r.w.~ B.D.D.D.D.A.J.~.k.A.w.F.F.k.g.D.r.r.F.O.R.U g..XOXr.w.r.e.r.e.e.e.5.A.S.p...R.D.F.;.F.w.u.^.A.F.w.J.F.d.g.J.R.J.A.u.u.g.D.k.k.;.w.r.R.F...F.~.F.H.A.A.].@X].F.J.J..XA.y.e.&.g.O.r. .A.u.y.H.A.u.~ O.q.O.o.J.J.g.k.;.&.f.k.N ;.U ",
"e.xX@XoXu.} R.^ g.e.B..XE.D.A.f.oXU.B.T.D.R.].H.A.F.E.oXY.A.D.D.].'.H.H.H.D.S.J.J.A.H.J.F.H.J.D.;.w.S.F.u.J.J.R.].N.H.].G.G.H.N.k.D.A.A.J.R.D.J.Y.Y.R.R.H.H.A.k.R.D.D.Y.D.D.D.D.D.F.^..XJ.J.R.F.Y.R.[.oX@X].Y.R.+XT.D.].J.D.E.D.].@X@X@X#X].H.'.&X@XOXoX]..X#X#XoXoXoXoXoXoXOXoX@X@X2X=X@X-X@X]././.!.L.~..X.X^.oXD.J.^..X.XR.R.-X].oX2XoXoX].].=X&X-X.X.XoX^.OXoXR.#X].#XR.A.@X~.R.R.E.R.'.5.@X-XoXoXoXE.F.oXD.E.*XOX].].A.u.H.J..X~.J.OXR.#X-XOXOXoX@X#X-X-X2X2X@X3X4X4XqXqX.X3X3XhXvX8X8X#XwX8Xy.f.xX[.T.e.D.[.5.L *.f.e.I q k K ~ k.D.r.e.u.^.oXe.;.k.;.| T e.y.r.d.&...k.r.;.;.k.x.XXXX;.O.f.k.A.r.w.O.y.g.D.J.D.D.J.A.g.R.[..XD.F.~.S.J.A.g.f.g.].A.A.D.r.D.J.A.R.OXA.F.R.H..XJ.J..XJ.| w.~.F.A.A.w..XF..XoXJ.A.oXH.D.A.R.u.A.D.OXk.D. .E.R.F.R.D.D.k.Q } L.F.e.#XXXr.R.e.R.&.A.q.u.F.J.R.R.A.A.A.g.e.k.D.k.k.A.F.F.A.r.A.j.!.k.k.d.r.J.u.B.y.g.N.A.A.k.F.F.J.F.q.&.o.o..XOXw.a.!.f.*.6.&.r.^.} &.g.g.g.A.~.k.&.q.R..XJ.r.k.;.F.!.A.~.u.F.w.D.Y.^.A.A.E.f.e.J.;.u.u.u.A.R.J.A.F.R..XF.F.L.B.g.D.g.g.D.R.f...~ e. .q.f.e.g.t.O.q.Y Q A.A.&.D.q.D.A. ...F.g ",
"l ].@XoXB.U  .E e.A.A.g.D.g.D.R.Y.B.f.[.R.H.D.B.D.Y.E.E.E.J.R.J.#X+XR.T.]..XF.k.oXR.J.F.A.A.H.H.L.p.A.F..XD.A.A.R.].J.J.J.J.N.g.A.D.g.f.D.H.D.H.D.D.H.H.H.H.J.J.T.D.D.D.A.D.D.D.F.F.F.F.D.J.R.R.J.R.].[.@X[.R.E.R.'.oXoXD.J.oXE.].+X-X#X].J.].+XOXoXE.]..X#X#X@X.XoXoXoXOXOXOXOX+X+X=X@X+X#XoX].Y.R..X/.E.E.E.[.D.F..XE.D.R..X#X-X-X-X#XR.oX+X}.oX@X-X.X.XoX.XOX@XoXoX#X@XJ.g.R.oXR.J.E.@X@XN.[.8XoXR.J.E.E..X.X.XoX@XoXoXR.D.g.~.#XXXS.R.oX7X7X#X#X#X#X@X@X@X=X2X2X+X#XqXqX#XoX3XqX2X2X@XyX.XwXY.B.B.xX@XN.f.g.5.e.q.uX&Xf.D I k k L w.r.e..XJ.A.oXE.r.g.u.r..Xr.r.....w.;.e.&.j.:.d.F.Y.A...;.=.D.R.&.~ e.k.A.D.D.A.A.A.r.u.R.R.Y.R.~.~.A.S.J.D.D.A.B.J.H.7XA.D.D.A.J..XF.^./..XR.D..XS.A.O.T F.A.A.r.r.F.].J.S..X.XS.u.k.k.L.oXD.J.k.D.D.*.f.F.k.D.>Xk.;.oXg.J.e.} F.F.u.R.&.D.5.q.e.f.D.A.k.y.g..XD.oX;...k.F.F.k.k.F.A.k.A.j.k.F.F.D.u.D.g.R.g.B.J.A.r.A.:XOXw.w.J.A.e.#XB.r.k.p.k.u.B. . .J.A...d.A.e.q.g.~.R.d.g.oXF.w...;.r.L.J.k.r.g.A.r.;.e.A.A.F.R.D.D.A.O.O.r.^.k.D.J.A.S.~.F.D.F.F.g.u.g.e.e.q.g.Y.q.} q.e.g.g.T.g.O.q.U U } &.oX~ *.g.%.*.n :XF.n ",
"l @X@X.XJ.&...k.g.J.J.d.H.g.H.J.T.R.H.R.T.U.D.B.f.Y.J.oX.XoXD.A.'.R.H.H.R.R.S.A.+X[..XJ.A.A.D.D.u.d.k.A.~.J.Y.F.].H.N.A.A.H.D.H.F.J.D.D.J.R.R.H.J.J.J.H.D.D.D.D.H.H.H.D.A.D.Y.D.R.R.D.A.F.R.R.^.J.R.R.[.[.[.R.[.R.D.].oXR.R.oXOX@X.X@X#X].].+X.XR.@X#XoX.X.X.X.XoXoXOXOXOXOXoX.XoXoX@XoX.XoXoX.XE.E.E.E.[.[.oX@XR.^.oXY.D.J.R.].oX].R.@X].].T.'.[.oXoX].oX#XoX.X.XoXR..XoXR.J.J.F.y.D.R.B.H.@X=X-X*X-X.X.XR.D..X].J.].oX].oXR.q.D.OXoXF.J.OXXX.XOXOX#X#X#X@X#X-X+X3X3XqXqX8XoX[.8X@X8X2X2X-XyX7X8XR.D.&XtXf.f.e.K e.9XzXoXe.W K u N K ;.A.B.#XoXoXD.^.g.f.A.A.g.e.r.e.r.r.d.Y.D.l.>...;.k.k.;.;.f.D.k.;...k.g.A.A.r.q.r.A.u.u.J.oXE.oXA.g.A.N.F.R.OX.XD.D.q.7X7Xu.J..XD.J.oXOXD..XA.k.OXOXOX.XJ.A.A.S.S.A.A.D.q.u.u.XXJ.p.A.k.k..XF.D.A.A.*.D.Y.:X.XF.D.e.#Xg.D.A.9X:XJ.u.u.D.r.OXR.e.B.A.R.J.g.A.u.A.e.oXk...e.!.F.w.u.A.k.k.r.k.F.R.J.k.r.e.q.B.u.J.J.F..Xw.w.J.d.r.} g.q.u.B.F.@.p.J.&.f.f.e.q.u.F.J.g.d.A.D.A.F.u.q.A.e.O.r.F.p.;.k.r.D.g.g.r.r.k.D.D.D.D.R.g.R.J.q.k.F.k.f.A.A.D.Y.J.R.F.k.D.u.u.q.u.e.e.D.u.e.e.q.g.B.Y.T.q.L U U &.&.^.&.Q U.e.Q &.F.D.y ",
"l .XR.@Xe.&.R.J.A.d.A.Y.R.H..XH.T.[.@XT.D.A.g.T.D.R.B.B.D.D.D.H.'.H.D.R.].H.H.~.oXR.H.H..X.XD.w.O.A.k.D.A.D.R.R.H.t.N.].J.A.H.B.D.J.J.D.J.R.R.D.A.D.J.H.D.A.D.Y.H.D.J.J.D.D.T.U.J.R.D.D.E.E.J.R.R.].].'.[.[.].[.oXH.].].R.].].&X#XoX@X#X+X+X+X].oX#XoX.X-X-XR.D.oXoXOXoXoXoX.XR.@XoX#XoX]..X.X.XOXoXE.E.[.[.[.oX.XE..XR.J.oX.XR.R.-X-X#XoX-X@X].@X&X&X@X#XOXoXOXOXoX.X.X#XoXoXR.]..X@X@X@XR.T.H.J.R.OXE..X.X.XoXoXJ.R..X.XOXoXA..XXXoXJ.J..XR.#XoXOXOX#X#X-X-X2X2X2X3XqX2X3XE.*.g.2X3XqX8X#X7XoXY.u.g.&XD.T.B.H.R.^.wXA.f.e.H L E $.~ D.R.D.g.e.R.D.J.A.f.d.R.y.O...;.d.e.r.Y.Y.x.r.;.^ r.F.~.F.J.A.r.d.k.D.k.D.e.q.q.r.S.A.A.F.E.D..Xk.A.J.r.r.D.J.u.J.D.e.H.R.D.A..X.X.XJ.R.J.#X#XOX~.OXXXOX#XJ.S.A.S.u.J.J.A.F.O.u.u.u.J.D.F./.k.g.D.D.D.Y.E.oXD.F.F.OX^.g.g..XD.O.u.D.R.u.u.r.S.O.e.r.D.Y.A.].D.J.g.u.D.k.k.F.k.w.k.k.u.F.k.r.F.A.D.r.J.D.A.g.g.D.J.J.OXk.u.q.J.OXL w..Xk.;.u.F.l.;.g.g.u.F.....d.k.k.d.A.k.k.A.F.u.k.w.;.D.OXS.;.k.e.A.e.D.r.d.d.u.k.A.d.r.f.R.%.e.k.k.F.A.u.Y.oXD.J.D.D.~.R.g.A.u.A.A.u.u.O.&.e.I  .u.g.Y.U 7 e...} e..Xq.n *.D.g.}  .~.j ",
"n .XB.R.2XJ.J.r.D.A.D.oXH.D.D.A.H.B.[.R.R.B.%.T.D.H.R.D.@Xg.A.A.R.H.D.].&XE.D.R.T.[.+XoX].R.J.F.r.D.g.H.D.D.D.J.J.y.J..XR.g.H.B.J.J.J.D.D.H.R.T.A.D.F.D.D.D.J.Y.J.D.D.Y.Y.T.T.T.J.Y.F.F.E.R.H.J..XoX].].[.oX[.+X].@X-XH.B.R.].].].#X#X@X@X].].@XJ.#X-XoXoX.XR.E.]..XoX.X.XoX.X.XoXoX@XoXR.^.^..XR..XoX@X].J.J.]..XR..X.XR.oX.XoXOX#XoX2XoXH.J.#X+X&X-X-XoXJ.R.*XOXoXoXOX.X.XJ.R.#X.X-XoXH.B.[.T.OXoXoX.X.XR.D. ..XR.J.R.oXoX.X.X].J..XD.R.D.D.oXOX#X#X#X#X-X-X#X0X@X2X2X;X-X@Xg.e.-XwX-X2X7X7XR.f.&.Y.8X6.A.R.A.oX;.g.zX-.-.r O.$.Q H A.A.D.D.y.k..XF.k.F.A.J.F.k.r...e.E.Y.g.g.k.k.;... .u.F.R.d.y.&.e.R.J.D.q.&.r.A.u.A.u.S.D.y.&.f.u.u.u.o.y.J.D.;.g.H.oXJ.H..XD.]..XR.F.~.OX~.OXpXk.A.J..X^..XA.A.A.u.J.J.R.A.D.g.y.A.g.j j D.oXe.u.q.e.oXD.A.F.k.F.OXR..XA.A.~..XD.U D.J.A.;.u.e.r.k.S.D.J.A.A.F.D.e.k.~.J.r.k.r.F.A.r.J.!.r.S.k.r.q.d.Y.A.A.#XR.D.F.XXL...&.F..XJ.k.;.F.A.k.p.k.p.k.q.g.k.e.r.d.r.k.u.k.d.k.u.J.k.d.u.u.J.F.F.F.k.D.&.g.g.;.d.&.&.e.e.u.r.y.D.z g.u.r.r.A.Y.R.R.A.r.D.F.!.F.d.J.D.A.A.A.A...} e. .} f.Y.Y.K y O.O.U  .g.g.} f.D.&. .k.J.~ ",
"] 6.u.y.lX#XJ.e. .A.D.oXR.R.H.oXH.f.T.B.Y.T.q.T.].'.B.T.R.D.D.R.g.H.E.[.oX^.F.D.@X'.H.D.R.oXR.F.g.D.D.g.D.A.D.A.D.Y.R.g.A.f.D.D.H.H.J.H.H.H.H.D.].J.F.D.D.D.D.D.J.A.A.D.D.D.D.U.J.D.A.A.H.H.J.R..X.X].R.].oX[.oX[.oXoXH.H.'.[.[.].@X+X].#X{.|.#X@XoX.X].oXoXE.R.[.oX.X.X.X.X.X.XoX.XOXoXR.E.E..XJ.J..XoX.XR.].XX.XJ.R.].R.]..X@XY..XD.].R.].oX].+XoXR..X.XD.F.R.g.oXoX[.B.oXH.R.H.#X-X].].y.y.D.@X].R..XoXoXE. .R.R.J.R.oX].R.oXR..X#XR.#X].]..XoXoXoXoXoX#X#X#X#X#X2X8XyX@X-XqXqX].yXoX7XwXqX-XQ D.>XR.Y.oX-XQ ;.A.OX8XN. .&.A.L K Q f.J.R.R.D.k.~.XX~.XX.Xk.r.F.e.&.u.R.J.d.d.D.g.q.A. .q. .e.r.e.e.u.R.F.D.u.q.u.F.u.g.u.D.D.f.d.D.g.e.u.e.J.F.k.r.u.D.R.D.H.J.]..XJ.J.~.#X.X;.O.:Xk.k.D.oXoXJ.u.F.u.A.S.k.k.u.g.u.f.g.D.&.g.oXR.r.&.k.D.R.R.R.D.F.k.K oX.Xr.Y.J.R..Xq..XD.D.~.u.;.w.D.A.u.g.oX~.F.k.A.w.w.;.r.u.r.A.F.k.A.F.w.r.F.D.Y.g.oXR..Xd.A.k.F.L.a.j.u.R.r.F.k.w.F.r.r././.a.w.J.J.r.O.u.d.w.d.u.d.r.k.;.k.;.w.A.A.F.w.O.^.;.u.A.&.f.;.d.&.&.&.} ;.w.5.N.%.e.e.;.q.u.E.A.D.F.O.J.R.F.A.e.A.R.D.e.u.r. .O.&.g.d.r.D.D.q.&.&.e. .g.&.5.D.A.A. .;.u.J.~ ",
"f.g.R.y.yXR.%.g.q.D.D.E.E.H.H.].'.T.D.e.A.Y.D.Y.J.J.N.[.'.[.D.D.g.R.oX.XR.Y.F.F.R.H.B.g.D.D.S.F.D.D.R.g.u.u.N.g.g.Y.Y.A.g.A.D.B.H.V.D.H.H.D.A.u.J.D.k.k.D.F.F.F.H.D.D.D.A.A.A.A.Y.D.A.A.D.H.R.R.]..X].R.].[.].].@X].H.'.@X+X@X=X].].|.{.,X,X@X{.+X@X#X@XE.J.R..XoXoXoX.X.X.XXX.XoX[.&XOXE.E.E..X.XJ.J.'.].]..X@XR.A.D.J.]..X.X.XoXE.D.#XoXoX#X@X=X@X'..X#XoXoXE.g.&XE.D.T.@X@X[.+XH.]..XoXoX&XoX@X].R.H.R.^.*XE..X.XR..XoXoX.XoX.XoXJ.A.].R..X.XE.oXoX.X.XOX#X#X8X-X-X7XwX;X+X-XwX#XoXoX2XyX.XyX*X9XR.D.D.q.e.u.&.u.F.*Xf 2 f Y.&.g.s.&.O.g.A.R.k.J./.OXS.F.F.u.k.r.g.D.k.g.D.J.E.F.D.R.r.J.&.O... .r.r.w.&.O.D.u.u.D.e.g.g.J.A.u.oXoXT.g.D.N.y.S.A.A.R.oX.XH.B..XR.J..XOXJ.~.~.k.&.^.D.D.k.D.D.D.B.A.O.u.p.k.k.S.u.A.k.&.f.k.D.r.R.D.^.-Xu.J.#Xk.D.^.k.;.u.D.A.D.R.R.oXD.D.t.J..Xu...O.A.A.B.A..X~.J.k.~.k.r.A.r.k.u.u.D.F.k.r.u.r.F.F.F.f.g.y.A.e.-X~.~.F.@.r.g.t.g.OXk.r.!.!.A.p.S.k.A.J.u.L.g.&.e.r.F.F.k.k.u.r.!.r.r.F.r.u.O.A.e.u.e.&.g.f.r.r.O. .O.....~ 6.f.y.K *.r.A.k.y.y.J.D.&.A.F.R.A.u.u.H.H.t.e...} O...e.d.O.;.f.%.} q.&.I D.&.0 &.A.6.*.q.O.;.w.",
"n j o.u.yXyX].H.E.r.q.D.J.H.].'.|.'.N.e.g.g.T.Y..XA.M.f.'.T.].B.~.~.J.D.D.D.A.F.J.].'.'.[.R.D.R.U.f.g.H.N.N.N.J.Y.D.D.Y.q.D.R.U.].H.D.J.H.D.D.g.H.A.g.k.D.F.D.A.R.R.R.Y.D.D.A.g.J.A.A.H.H.J.R.H.]..XoX[.oXoX].'.D.R.H.'.].T.}.}.'.H.+X<X@X@X,X@X+X[.#X-XoXR.R.~.R.].].]..XoXOXOXoXoX;X&X.XE.E.^.~..XoX[.T.D.H.]..XR..XR.].].J.D.E.OXE..Xg.B.oX].oX;X@X@X#XOX-X#XoXE.g.f.*XD.oX].+X).+X@X@XoXY.D.H.H.].R.OXoXY.oX.XE.R.]..X.X.X]..X.XA.J.oX.X].R.oX*X>X#X.XXX#XrX-X#X2X7XOX;X2X+XoXOX#X#X-X-X8X-XeX-XeXY.J.D.D.q.k.;.k.oXH.[ = j K f.U.g.U B.D.D.~.:X;.w.} ..D.F.g.D.A.r.g.g.r.F.A.D.E.*.O.J.A.t.w. .;.&.q.F.;.A.B.A.J.g.A.g.J.D.R.*XU.T.D.H.D.t.r.~.J.J.A.oX-X'.#X#XJ.J.XXF.R.F.~..XoXA.E.oXY.A.H.oXH.u.u.p.u.w.U q.k.e.;.k.x.&.$.x.d.A.~.r.e.~..XF.R.R.k.^.oXd.A.D.D.g.u.H.u.y.r.r.O.O.;.q.g.g..XR.F.k.D.~.w.u.w.F.J.k.A.F.k.k.F.k.r.u.e.R.g.B.A.u.A.~.#Xr.j.a.u.e.w.r.;.w.L./.k.N a.k.J.g.;.~.A.e.S.O...D.d.k.u.S.XX;.;.k.w.A.~.F.g.u.A.q.e.d.w.d.r. . .r.u.r.%.f.5.Q &.e.r.r.e.6.f.} A.D.g.k.A.F.e.y.A.e.u.3.e.O.u.g.&.q.u.D.q.%.Q K q. .o.5.&. .6.&.r.A.;.O.",
"K n H A.2X@X].+XF.B.D.A.Y.E.[.E.^.F.J.Y.D.E.Y.Y.R.s.q.g.A.D.R.D.'.'.T.'.].R.D.Y.D.R.^.oXR..XJ.N.k.F.D.F.J.D.f.R.'.H.g.B.H.A.D.D.J.J.J.H.N.H.g.g.g.R.H.u.g.F.J.J.A.H.Y.F.^.F.w.F.~.D.D.R.D.R.R.R.].T.H.].[.T.H.H.E.OXE.D.A.D..XoXA..X.X.X#X=X@X@X#XoXoXOX*XOX.XR..X@XR.oXoXR.@X[.@X@X=XoX+X].oX.XJ.Y.E.[.D.f.B.oXoXY.Y.Y.D.R..XH.oX.X]..X.XR..X#X2X].&X8X*XOX-XoX#XF. .D.oX#X-XoX@XR.#XoX.X.XJ..XJ.J.k.k.R.!.F.F.oXR.D.J.^.oX/.^.^.^.oXoXoX^.R.R.].@X@X#XoXoXoX-X@X8X2X8X3X2X2X3X>X;X3X9XOX7XyX8X3X2X2X].D.H.=.=..X .H.oXT.[.D 8.L ~ ..g.q.u.J.r.].#Xu.u.O.D.J.g.;.S.F.!.F.D.A.k.k.;.^.R.} k.z.^./...;.w.F.F.r.;.y.H.g.A.u..XR..X'.'.N.N.D.D.e.D..XJ.A.J.A.A.#X].:X%XXX.X^.OXR..X~.:XA.w.u.F.S.u.S.S.r.u.A.u.u.w...H. .u.J.g.A.u.J.B.e.J.^.k.F.OX.XXXOXJ.u.OXF.Y..Xu.r.J..Xk.g.D.u.e.y.J...F./.r.F.~.A.u.r.R.&...D.F.r.r.D.d.d.F.u.A.A.A.u.u.F.r.k.F.F.w..X^.r.u.l.!.^.^.~.u.~.F.oXw.~.r.r.k.d.x.r.u.r.A.S.~.A.p.D.D.k.J.A.F.k.F.^.D.D.e.A.;.r.d.A.w.;.u.q.e.y.A.k.k.^ J ;.r.u.u.r.u.p.@.r.k.z.A.k.r.;.5.u.e.u.D.D.;.k.;.~ d.u.N.f.%.b ! o.&.! o.y.o.z  .F.@.r.T ",
" .D.H u.zX[.].+XA.y.g.A.E.E.E.oX.XE.D.E.R.q.} R.D.D.F.Y.D.D.D.T.T.'.T.H.H.J.D.D.oXE.F.Y.J..XJ.D.u.f.d.F.D.D.u.A.H.H.N.D.D.g.D.F.J.].].J.g.D.g.g.B.D.R.J.g.D.~.~.H.A.D.R.J.F.A.r.R.R.F.J.H.E.[.[.@XH.B.H.R.R.T.T..XD.OX*XoXoXJ.g.#XXXR.].@X+X+X@XoXoXoXoXoXoXoXE.oX-X8X#XR.oX].&XoXoXoXoXoXR.R.R.^.Y.Y.[.@X@X@X@XU.D.Y..XoXoXoXoXR.R.].].oXoXoX.X2X=X5.B..X*XoX^.XXJ..X#X.XoXoXu.Y.oXE.*X.XoX.XD.H.#XH.k.;.F.F.L.J..X.X^.R.^./.oXF.oX.XD.k.D.E.J.J.H.@X7XOXoXOXoX-X-X=X3XqX2X-X#X*XyX.XA.9X9X8XqX3X3XqXB.B.D.g.D.u.A.Y.D.].6.f B.k ..U 5.D.u.e.g.R.D.q.D.u.u.B.J.F.F.k.~.R.A.u.A.w.u...;.F.&.A.oX~.w.;.d.D..X&.w.5.5.t.D..X.Xg.R.'.o.f.B.A.Y.q.g.D.u.J..XJ.H.D.H.S.XXw.~..XJ.OX^..XOX.Xp.@.A.e.N.g.S.F.A.A.A.k.k.J..Xg.e.8Xk.u.A.H.B.5.r..XoXF.k./.J.A.!.~.^.k.J.F.~.k.A..XA.r.J.A.H.D.w.k.A.e.r.u.u.r.w.r.r.;.;.r.A.d.r.k.k.A.~.r.e.A.A.J.J.r..XO.;.F.g.A.A.;.OXj.d.^.R.eXr./.J.~.e.~./.r.&.D.F.b.r.A..X.XA.A.J.k.d.k.A.k.J.w.~.F.R.J..Xd.;.&.r.u.F.u.d.A.u.A..XOXk.O.~ ..;.k.u.;.A.S.u.;.d.D.Y.x.F.u.O.O.&.D.~.S.r...;.e.;.o.D.y.5.I o.o.} K Q y.e.z H ..q.O.| ",
"H A..XA.wXqX[.H.R.D.D.A.E.E.T.T.J..XY.E.E.q.K e.^.D.k.D.D.y.y.].T.H.H.H.D.D.Y.Y.D.Y.J.J.A.H.D.B.D.D.A.E.Y.D.g.r.y.y.y.B.g.g.D.Y.D.R.R.H.g.D.A.H.D.B.D.R.A.A.J.~.J.XXF.F.~.J.J.D.F.oXR.H.R.T.'.].oXD.B.H.H.T.R.T.oX*XR.oXY.g.oXOX.X~..X#X@X+X@X<X@X#X#X@X.XY.Y.E..XD.y.].oXoX[.].OXXX.XXX.XR.J.J..XoXoX.XoXoX'.T.OXY.D.R.R.J.J.R.oX].@X].oXoX-X.X'.=Xe.H.*X*XoX.XJ.#XR.@X-X@X8XJ.Y.OXOXD.y.7XJ.y.R.A.R.A.k.OXJ.^.A.R..XR.F.~.oX/.D.Y.D.D.A.D.oX^..X#X@X.X#XOXoXOX@X-X8X=X2XqXqX@XOX#XD.e.9X9XwXoXoXoX2XqXg.5.&.} q.g.Y.U.R.g.F b y L n O.u.e.g.k.D.A.u.g.u.g.u.u.F.D.D.R.J.F.A..Xw.r.e...D.q.R..X^...d.e.k.F.F.J.A.5.u.R.R. .I .XH.' D.5.g.u.g.g.A.k.R.J.D.oX].H.F.J.u.J.OXoXJ.oXJ.J.~.OXu.u.A.u.u.g.J.D.F..XD.D.OXR.e.k.7XR.u.F.u.u.D.D.F.~.F.k.F.A.w.A.!.u.k.*X.Xu.e.A.g.r.u.*.u.N.A.O.r.O.d.D.r.r.r.u.u.r.k.k.d.D.D.r.k.F.k.J.D.w.A.D.A.F.k.OXF.;.D.&.J.F.A.F.c.Y.L E *X:Xk.R..X..u.w.r.!.k.x.D.q.N..XJ.;.w.A.F.F.F.F.k.F.r.k. .D.F.!.O.A.k.u.;.u.u.u.....~.A.k.;.;.;.@.O.u.w.w.k.;.O.w.e.s.x.F.k.u.&.5.e.J.~.J.r.r.F.r.q.y.g.y.g.I %.%. .&.K y.].g. .e.A.~ N ",
"n ...X#Xg.qXH.].D.A.g.e.D.].R.B.D.Y.Y.Y.D.E.T.Y.A.D...} u.D.J.R.T.N.B.R.H.D.J.R.R.@X.XH.N.R.R.].D.Y.D.Y.D.k.k.d.g.u.y.B.D.D.Y.Y.D.H.J.D.B.D.H.].J.D.B.D.R.D.A.R.F..XS.k.D.A.D.~.g.oXE.R.2X[.=X2XR.H.R.oXT.H.R.R.D.J.D.oXq.&.E.D.J.~.#X2X+X+X@X+X.XR.].@XoXE.E.oXoXJ.t.oX@XoX].R.#XOX.XoXR.R.J.R.J.R..XR.J.T.R.H.OXoXR.^..XR.R.OXE.Y.*X.XoX.X-XoX2X2X@X-XoXY.OXOXJ.D.-X.XR.8Xg.#X>XoXOXoXA.>XA.J..XD.D.oXoXJ.^.d.J.J.D.D.J..X.X^.Y.Y.D.E.R.R.oXR.J.@X].u.].oXoX*X8X@X3X3X2X@X].+XoX.X8X8XwXeX@X=.e.&.5.7XD.*.D.g.g.q.D.U.R.q.n } k ^ L O.r.k.oXF.u.R.R.q.e.J.A.%.;.F.^.F.A.F..X.XR.e.k.&.;.F.F.&.d...^.r.D.&.e...5.5.A.D..XB.q.A.5.R.].H.D.e.g.R.~.J.D.^.J.D..X#X.XA.J.r.F.oXe..X#X>XF.J.#XD.A.R.A.B.D.D..XOX^.OXF.A.r.-XoX#XA.k.F.&.u.k.r.A.F.S.k.D.k.J.*XF.d.A.J.J.A.A.A.u.g.D.q.} A.r.r.A.k.D.d.k.A.k.w.k.A.k.r.k.A.e.k.J.e.r.A.A.A.J.D.u.k.w.D.~.F.u.d.J.~.u.k.d.^.oXF.;.k.r.k.r.u.A.F.J.k.e.B.A.~.R.F.F.J.A.~.J.A./.S.A.J.p.A.F.F.F.;.k.D.u.;.;.g.D.O.;.oX~ ~ ;.;.@.u.;.;.p.F.J.;.O..Xw.r.F.F.d.u.r.e.O.r.u.u.u.D.g.e.;.O.k.5.e.&. .Q  . .&. .e.e.z ~ O...~ ",
"n O.} A.D.].qXoXy.u.g.f.R.oXR.N.E.Y.oXoXB.Y.Y.A.J.R...o.g.B.D.g.H.N.D.H.D.D.R.R.].].D.A.B.T.H.R.y.D.D.A.A.A.D.R.D.D.A.D.D.A.A.g.J.D.D.A.D.H.H.R.].J.D.D.R.H.A.Y.J.u.D.D.u.k.F.R.R.*X[.[.2XR.R.'.J.H..XoXH.H.R.R.R.A.D.R.E.-XY.Y.~.~..X@X.X+X@X{..X].R..X.X.XE.oXJ.@X2X-XH..XR.-X.XoX].oX].].R.[..XR.R.R.E.E.E.R.D.F.F.F.R.J.J.R.T.A.oXoXOX].-XoXoXJ.@X2XoXoX>X8X:X#XY.7X@XoX].B.R.Y.Y.*XOXoXY.Y.f.D.^.OXg.oXoX^.].R.J.J.R.^..X.XR.oXOXoXJ.R.oXD.]..X@XR.oXoX-X#X-X@X2X-X=X8XoXH.R.'.&X3X@XqX@XT.;.~.e.~.g.A.&.g.D.e.D.g.Y. .n  .k w.E U u.d.F.XXq.A.Y.q.f.A.A.y.&.R.E.F.D.D..XH.k.k.d.A.k.u.D.r.O.D.A.k.J.O.H L e.e.q.D.R.R.D.e.t..XH.u.D.U g..XJ..XD.A.A.J.u. ..XJ.F.q.D.S.A..XF.u.R.J.oXoXR.J.].T.D.Y.R.k.D.R.^.^.D.F.D.F.J.D.R.5.;.d.A.F.A.F.;.r.J.F.~.k.r.e.F.oXA.e.g.B.g.F.].A. .O.F.R.J.D.J.k.R.F.r.k.r.r.w.w.k.w.k.~.u.g.u.~.u.r.^.k.F.A.g.F.E.D.~..XOXA.;.k.^.Y.l.j.j.j.k.;.k.!.r.w.F.k.A.A.Y.OX.XoXF.;..X.XA.!.F.r.A.S.A.D.A.;.O.k.D.;.r.d.g.f.D.D.q.y $.k.;.^ p.r.w.k.r.A.r.r.F...&.w.w.;.r.g.u.q.A.S.r.g.^.E.g.&. .;. .D.u.O.} Q O.r.%.o.&.K &...r.O.",
"n  .O..XoXyX].g.oXA.A.g.D.R.oXoXD.J.R.R.H.T.e.=.D.D.&.A.R.B.R.oXH.R.T.D.B.J.R.J.H.H.N.H.H.g.e.B.q.s.D.z.A.k.A.Y.B.D.A.A.k.f.g.s.F.D.J.A.H.H.H.T.J.H.J.J.A.D.R.H.J.g.J.J.J.R.D.R.D.Y.D.T.@XR.R.[.R.F.Y.Y.D.Y.[.].D.A.oXOXf.Y.oXOX.XR..X@X@X+X+X<X2X2X@XR.R.oX.XR.J..X].oXR..XoXOXT.R.E.@XoX@X[.oX#XXXR.R.E.E.E.E.F.!.!.F.J.^.^.R.OXE.oXoXOX.X@X].R.R.oX8XOX*XJ.oX#XoXE.].oX].A.y.D.Y.OXOX&X*X&XE.q.oXD.E.q.*.oXA.R.R..XoXR.J.~.OX.XY.^..XR..XoXR..X].].oX@XR.R.oX2XoX@XqX2X2X@X3X=X=X|.=X@XqXB.0.r.w.J.u XXoXd.E 6.D.D.s.} ..^ F.3 y } u.r.e.F.;.f.f.f.y.D.A.A.g.z.A.g.D.^.J.R.H.k.A.e.k..Xg.A.g.e.R.q.u.S.e.O.e.A.&.Q A.k.k..XOXJ.oXg.u.&.e.A.R.F.k.k.F.~..X....~..X~.A.oXJ.R..X.XOX:XD.k.r.k.r.H.D.g.E.XXA.k.k.k.-XOXD.oXF.A.A.D.D.g.k.~.F.p.J.u.F.OXF.k.r.D.#X8XwXJ.D.@Xg. .e.oXA.g.q.J.D.u.D.^.r.~.J.A.k.;.r.r.r.F.w.r.J.B.A.F.A.r.O.A.A.F..Xg.&.#Xg.>Xk.J.#Xk.w.D.^.%Xl.j.OXk...k.F.F.F.d.O.D.F.R.F.&...d.OXF.OXoXk.F.D.;.A.F.r.;.k.k.k.u.D.f.k.e. .d.x. .L :.w.....r.r.w.@.w.k.k.F.;.O.;.@.&.e.u.u.k.r.u.e.O.D.g.g.T.d.D.u.D.Q J..X} O.u.r.e.O.E k n E O.n ",
"d.k.O..XR.B..XA.u.e.J.].R.R..XR.OXOXR.H.D.T.e.%.D.J.J.D.D.R..XR.R.R.H.A.D.J.R.R.].+XH.H.H.B.g.[.g. .g.k.d.d.d.d.g.S.A.D.D.D.D.z.D.A.Y.A.H.D.H.T.H.D.J.R.B.D.H.B.S.F.J.J.J.D.A.F.[.E.R.[.R.].].].R.J.F.D.Y.R.E.R.Y.oXf.E.F.D.D.g.XX#X2X2X=X[.].+X@X#X@X].].oXoXoX2X@Xg.].@XE.oXD.Y.E.oXE.oXoXoXR..X~.R.J.Y.J.R.oX~.J.F.F.F.OX*XoXoXoXOXoXoXoXoX].Y.oXoX#XoX#XR.#XF.oX9XoXoX].t.H.~.A.[.oX@XR.R.oXD.A.Y.oXE.D.oXE.D.R..X.XR.R..XXXOXf.D..XoX#XoX.X].oXR.oX-X@X].8X@XqXqX2X@X&X;X=X2X5X}.=X@X2X[.N.w.@.!.g d.k.A./.D.oXD.D.D.x.r ..< k L ~ e.r.k.F.Y.D.f.g..XA.D.A.D.g.A.g.E..XJ.J.k.A.F.r.k.q.O.u.g.D.u.g.D.e.u.u.D.B.q.A.A.E.oXR.J.J.D.q.y.D.J.q.w.F.XXF.D.#XA.oXR.J.oXR.#XoXD.R.OX#X7X7XF.u.~.r.B.B.g.F.OX:XXXL.k.>X*XF.*XOXk..X[.@Xk.r.k.k.k.F.F.oXJ.A.F.g.g.J.J.S..X7XR.u.D.J.E.g.y.g.u.~ F.R.F.;.k.A.k.k.;.r.r.r.k.;.q.A.u.u.F.u.k.r.r.k.;.;.oX;.y.r.oX^.w.~.r.k.d.F...| k O.k.F.k.D.F.u.R.w.f.F.R.D.D.^.oXR.k.F..XA.R.oXk.F.A.J.u.u.u.u.&.;.d.d.r.&.e.D.k.x.$.$.;.;.k.a.r...r.S.u.r...r.;... .&.q.w.A.p.A.u.&.y.B.oXR.D.J.N  ..X@Xg.q.g.D.u.%.&.Q z k O.w.n ",
" .k.r.XXk.@XA.J.y.y.].J.A.D.oXY.E.H.R.[.H.T.D.H.H.g.J.H.D.oXR.J.T.D.B.D.J.A.A..XH..XH.D.H.T.B.B.D.H y.A.g.A.A.d.D.F.A.D.J.J.D.g.F.D.E.A.D.g.D.T.H.R.J.H.R.H.g.g.J.J.~..Xg.d.R.D.[.R.[.oXT.@XoX].F.Y.R.R..XE.Y.T.f.d.f.E.D.Y.Y.^.].#X#X].@X2X=X@X@XoX+X=XoXJ.R.oX@X@X#XoXR.R.E.OXoXoXoXJ.~.~.^.F.~.~.J.J.F.J.J.D.~.F.A.F.F..XoXF.&.A.oXoXoXOXoXoXOX-X#XoXoX.XoXR.oXoXg.].H.H.R.'.~.#X[.&X@XR.;X].oXD.f.oXE.oXE.D.H.J.J.J..XOXOX.X.Xg..XoXR.oXR.F..X].].oXR.@X#X+XH.#X-X@X3X&X&XR.o.=X2X;X7XoX8X3XL..XF.L.OXk.L XXD.=.oXf.x.F.k N < z ~ U ;.A.R.Y.A.Y.A.A.Y.q.f.A.D.D.OXy.g.oXD.A.F.F.d.w.A.y. .J.B.R.D.g.J.u.r.F.g.A.g.A.A.J.A.D.J.R.D.g.D.R..XN.!.OXF.k.r.A.r.F.oXR.J..XoXoXJ.oX.XL.^.#XoXJ.u.!.R.R.J.r.k.XX/.!.D.^.-XY.*XOXr.F.}.[.oX^.k.u.S.p.d.OXd.u.R.A.D.R.H.#XOXJ.u.y.A.D..Xq.&.F.g. .k.A.S.u.w.A.;.k.;.r.j.r.r.;.r.J.D.g.d.J.k.u.A.^.;.r.R.F.g.k..X~.r..XL.F..XR.S.+.c | ;...D.R.k.e./.F.A.A.E.oXoXD.D..XOXe.u.R.^.J.J.F.u.J.k.w.A.D.u.d.A.D.k.z.k.k.&.$.r.d.k.k.F.a.k.k.w.F.r.;.r.k...;.y.u.e.r.A.u.F.OXY.A.B.R.2X#XoXF.A.].J.D.J.F.F.F.u.q.O.H z ~ ~ z ",
"K A.&.oXOX].2Xg.O.e.B.R.D.H.D.A.U.g.Y.oXY.Y.Y.oXD.u..XoXJ.J.oXH.B.R.'.T.]..X.X@X'.'.y.D.y.g.s.:.r.k.k.F.D.D.k.F.D.D.B.H.R.R.g.A.D.y.D.D.B.].R.T.u.N.J.R.J.d.D.L.].'.H.[.B.H.D.E.oXY.^.oXR..XD.B.oXJ.J.H..X].oXoX].D.H.R.H.R.].D.R.@X2X,X1X}.+X].R.oXOXOXR.OXOXoXoXE.R.#XoX.XF.J.oXOX#X#XoXE.R.~.^.D.D.E.oXD.R.OXD.y.A.Y.A.R.#XH.OXF.R.oXoXE.*XE.*XoXT.8X[.&X[.@XOXOXY.J..XoXY.D.N.e.[.@X[.[.[.R.oXoX.XoXY.D.R.A.J.J.J.].H.H.oXE.R.D.oX@XR.R.J.J..X.XY.oXoXoX^.OXoX.X#X1X#X6X#XH.q.#X9XuX-XuX9XpXqXtX=X@X=Xy.%.-XJ.;.D.*.Y.y.} N 3 k }  .O.D.E.U.D.R.R.k.u.r.A.u.g.Y.E.Y.k.A.E.g.B..Xy.;.R.OXOXk.u.J.D..XD.J.g.H.A.k.F.R.R.F..XJ.'.H.J.A.u.k.L.L.l.!.k.XXJ.e.R.oX/.L.7XOXA.:X7XS.oXoXD.J.J.d.y.R..X.X^.OXA.A.2X@XA.D.#XoX:XF.~.J..XK.XXR.J..XA.J.r.R.A.F.F.^.Y.k.J.A.u.A.k.A.g.g..XJ.u.r.A.oXF.u.;.w.k./.k.p.A.w.r.d.w.w.A.D.e.A.k.l.k.k.r.J.k.~ d.F.9Xk.w.D.u.J.J.F.A.D.J.} n e.r.K k.d.k.F.R.k.d.k.r.J./.A.u.#X~.oXF.F.R.J.F.F.F.u.k.r.F.F.k.F.k.w.r.F.F.A.J.r.S.k.;.r.k.k.g.k.;...u...d.D.r.;.k.k.w.r.A.k.D.U.OXg.D.oXJ.].oX^.OXu.e..XoXt.%.B.e.f.&.K D D D Q ",
"..g.f.E.R.g.g.D.d.A.Y.[.'.B.g.A.E.U.Y.Y.Y.A.A.g.&.D.A.R.J.#XN.D.[.'.H.H.].].].#XT.H.H.].D.e.e.d.r.A.A.d.k.k.k.D.D.].A.g..XR.g.J.A.A.A.A.T.].T.[.].H.D.S.J.k.A.S.N.R.H.R..XE.D.E.^.A.D..XY.D.u.g.H.A.R.].@X].].H.R.e.A..XH.H.oXJ.J..X@X,X@X@X[.[.oXR.R.oXE.E.[.oXE.R.R.oXoXoXXXoX.X.X].E.E..X^.^.Y.Y.E.oXE.A.D.E.OXE.oXOX]..X.XR..X.X^..X*XoXOX#X*X@XB.&X;X[.;X&XY.E.#XOXJ.Y.oXY.B.D.[.N.C.&XOXR.R.J..XoXk.d.E.J.J.R.].].H.D.E.E..XR.oX.XR..X.X.XE.OXoX#XoXoXR.OX.X.X#X2X,X2X2X[.7XXX#X7X&XyX7XOX3XhX2X#X[.H.D.2X^.J.f.J.D.f.j ..;  . . .A.J.f.Y.D.oX.Xw.;.A..XF.A.k.Y.E.Y.Y.E.J.J.-XJ.g.k.J.F.;.J.J.R..XB.A.J..Xg.E.E.f.oXoX#XJ.H.).+XF.g.r.F..X!.F.!.:Xu.F.oX~.#XF.A.F.J.A.~.k.J.D.A.F.J.~.*XF.^./.>X&.^.oXA.].~.-X.X.XOXF.eXoXP.a.@.L.~.A.oXD.k.J.F.A.A.r.R.k.F.k..XF.e.A.f.E.L.} J.k.w.F.e.f.k.k.k.r.w.D.;.r.r.k.k.d.r.k.k.Y.A.p.k.k.D.D.r.D.A.&.k.F.q.e.D.F.J.J.A.A.e.e.} D.;.r.r.k.:.F.^.:.u.!.~.k.F.A.J.k.A.r.q.k.R.u.A.#XF.w.J.oXk.k.F.!.a.| ;.k.S.;.w.A.~.J.;.E u.r.u.A.O.r.k.e.r.r.r.e.e.r.w.w.u.q.g.D. .r.D.A.g.H.R.Y.u.r.u.#X.X&.q.u.g.e.^ U D d d n ",
"q.g.&.A.Y.Y.y.y.k.y.g.B.H.g.D.J.oXU.Y.D.y.y.oXA.Q g.A.D.R.].u.R.T.H.D.H.].].].@XH.].'.g.D.Y.R.e.k.A.A.r.k.k.F.F.F.J.J.g.D.g.D.D.F.Y.A.A.B.H.B.T.J.D.J.F.F.A.A.F.D.Y.D.g.D.D.Y.E.R.A.g.Y.R.J.B.R.].D.H.].@X@X].B.A.A.D.D.D.H.J.H.oX#X#X3X@X@X'.oX#XoXOX*XOXR.J.D.D.R..X].@X@X@X@X.X.X.XoXoX.X.X^.Y.Y.D.Y.Y.E.E.oX^..X^.^..XR.J..XoXoXoXOX-XoX.X~.oX&XD.Y.@XD.@X@Xg.Y.oXoXE.E.E.E.T.'.@XT.E.OXoXOXY.A.d.A.A.e.y.g..X].J.J.J.R.oXE..XR..X.X.X.X.XOX#X-XoXoX#X#XR..X-X#X#X#X+X+X2X-X@XXXwXwX3X;XoXeXqXhXyX'.e.'.'.-XR.&.D.oXY.q.Q &.k ..k.~ f.g.A.F.F.D.~.~.J.k.D.~.D.g.oXoXoXE.Y.E.R.g.g.f.R.~.OXR.J.F.J.J.g.J.oX].#XoXR.J.#XR.R.R.J.].].A.g.u.F..Xk.d.F.!.F.A.R.F..X#X#X.X7X~.oX*X#X@XJ.#XA.k.OX^.D.F.^.F.*X#X.X7X:XOX#XOXJ.R.#XR.v 6 @.L.r.u.A.@XD.d.y.r.OXD.A.R.~.J.J.J.g.A.k.g..XH d.} u.F.e.y.d.g.r.k.u.u.d.r.;.w.k.k.e.A.F.D.F.O.k.A.r.R.k.e.OX&.&.OXS.A.F.S.r.F.R..XD.e.J.F...d.d.r.k.d.OXr.~.J.F.F.F.k.J.F.e.OX#Xk.u.S.S.u.~.;.u.^.F.:X/.r.k.| #.| ;.w.;.T A.~.F.d.J.k.d.D.w.F.r.r.r.e.d.k.k.e.;...u.r.D.T.e.e..XD.~.e.F.D.R.D.q.A.u.J.&.g.Y.u.^ Q b t D ] ",
"y.*.g.H f.*XR.y.k.w.f.A.D.J.R.g.D.oXD.y.Y.u.e.q.A.D.H.B.u.y.g.oXH.T.H.H.J.H.D.A.T.H.J.A.D.f.D.Y.D.A.g.D.J.A.k.D..XJ.R.Y.A.A.oXR.R.F.D.Y.y.N.D.N.r.k.J.J.D.A.D..XA.d.F.D.y.g.D.A.R.R.D.D.D.H.B.D.J.H..X.XH.H.'.T.oXY.H.].oXA.N.@XR..X+X1X+X}.].oX@XoX@XR.].R.oX.XJ.oXoX].#XoX.XoX.XoX#XOX.XR.~..X^.R.D.D.A.Y.Y.Y.^.oX.X^.oX.X.X-XOXoX*X>XoXR..XJ.@X*X&XE.T.E.E.oXJ.oXE.E.oX.XR..XE.T.[.oXOX[.T.oXF.^..X^.R.A.A..XR..X.X].H.D.E.oXoXR.R.#X#X~.J.OX#X*XR.J.OX*X.X.XoX@X#X2X2X#X#X2X#X#XwX>X-X=X-XzX3X3X=XqX=X2XT.N.q.-X9XD.E.Y.n f. .~ O.k. .&.k.J.A.D.F.D.A.e.A.k.f.A.oXR.R.D.J.R.R.D.B.R.D.J.D.*XR.J.R.A.A.].-X].OXR.R.*XR.R..XR.XX.XH.u.D.k.k.A.F.k.F.F.oXd.OX/.!.F..X/.J./.oXr.u.#XF.F.J.D.*XOX!.k.w..X.XR.@X].:XJ.F.oX~.XXR.F.@.w.J c u.oXR.R.D.F.D...d.R.d.D.r.F.e.k.r.q.D.R.u.A.w.R.g.F.J.q.O.&.~.r.w.u.e.;.r.u.k.k.q.k.d.e.d.u.D.r...F.g.F.-XR.;.O.w.J.B.J.A.r..X^.A.e.D.F.r.k.F.OXF.~.^.R.r.k.k.k.u.F.d.u.F.J.A.A.F..XF.R..XR.k.k.r.k.k.k.F.p.S.w...p.S...~ ;.k.XXF.k.d.u.q.g.&.;.r.e.d.D.D.D.d.w.w.;.A.J.J.XXr...k.k.r.F.A.D.u.u.~.A.oXR.q.&.^ =.[ { 6.%.",
"D.A.g.*XA.g.D.D.k.u.q.u.A.R.J.J.f.U.Y.y.R.A.g.E.J.J.R.oXD.D.g.B.H.N.f.N.H.A.B.N.H.N.B.J.D.*.&.A.d.D.D..XJ.D.q.u.D.D.r.k.D.A.D.E.D.D.H.R.f.B.Y.D.d.k.k.k.k.S.J.R.f.r.D.Y.q.g.A.A.]..XH.J.J.T.B.D..XH.H.].+X=X[.H.Y.Y.E.R.H.J.].R..XoX-X2X2X@X&X-X].].oXJ.H.D..XoXoXoXoX].#XR.R.oX.XoXoXoXY.F.J.~.R.^.E.oXF.D.D.E.oXoX.XR.Y.E..XoX].oX-X-XH.D.OX#XoXT.E.T.D.E.E.Y.oXR.oXoXD.g.J.~.oXE.E..X.XOX.XY.k.A.OXoXg.R.-XJ.oXoXJ.J.R.R.R.D.OX.X.X#X#XR.J..X.XoXR.J..XoXoX#X.XoX.X.X@X@XXXOX.XR.:X7X3X;X*Xr.B.yX@X].N.'.qX'.#XA.g.g.y.B.f ] H } K r.;.w..X~.u.~.F.g.u.r.R.r.e.k.D.J.F.A.F.J.].J.R.f.oXR.g.g.~..XXXA.D.A.].oXoXY.J.*XR.J..X.X#X-XoXJ.oXF.r.q.d.k.F.^.D.k.OXk.k.F.r.~.#XJ.F.J..X-XJ.d.*X.X7XOX.X.X^.k.J..X].oX:X#Xk.~.#XoX!.F.OX~.L ;.~.A.#XOX.XF..X~.D.F.R.u.r.J.r.S.J.A.Y.-Xu.;..XJ.&.u.u.O.E d..XO.;.A.u.k.O.r.r.;.;.k.k.F.k.g.D.A.r.e.y.k.~.} w.#Xy.u.N.y.F.A.w.^.D.k.~.F.A.e.F.L.S..XR.D.k.!.F.e.e.J.k.J.;.w.e.O.k.F.k.A.u.A.w.g..XA.d.;.e.d.A.~.k.k.F.A. ...;.k.w.k.F.w.*.e.q.y.D.r.w.D.D.R.F.F.u.g.D.R.F.k.@.r.F.S.A.k.~.w.A.r.k.&.D.>XJ.g.&.e.y.y.8.G ",
"n  .D.*XA.oXY.y.;.u.O.q.D.A.u.*X .! D.Y.J.D.D.g.H..X.XD.D.Y.D.Y.D.5.%.N.H.H.H.H.A.J.D.g.g.A.e.w.e.J.D.H.y.A.y.B.D.D.f.F.d.r.k.!.g.D.J.D.Y.J.D.Y.k.k.d.d.g.D.J.R.f.A.D.D.d.D.y.F.R.J.H.oX[.R.D.T.R.].'.oX[.[.'.'.R.A.A.E.R.D.D.oX.XoX-X@X&X].oX[.].[.@XoXR.D.J.R.].].].oX#XR.T.].R.R.]..X.XR.F.D.!.!..XOX^.Y.Y.oXR.J.F.F.A.F.E.F.A.].R.oX.X]..XOX;XE.oXoXE.g.OXE.oXR.R.Y.k.u.D..X^.oXoXoX^.OXOXE.E.D..X.XJ..XOXJ.R.@XoXR.J.D.R..X.XOXOXOXoXoX#XoXoXoXoXR.oXoX@XoX].#XoX.X#X-X#X2XoX.XOXOX;X&XU.K R.].=X@X].@XgXgXB.A.7XoXH.f.W j g D y.r..X~.A.r.A.J.F.R.J.r.F.r.A.D.g.J..XK.F.J.B.R.J.J.J.E.g.oX.X.X.XR.R.g.A.].oXR.D.F.-XJ.F..XoX7X7X.X/.D.g.g.g.r.~.R.!.F.F.F.z oXJ.R.A.J.7XR.J.~.R.>X#X>X*XOXk.OXwX~.D.-X@X8XL.F.OX:XJ.R.#XR.&.*XOXoX#XJ.J.#XR.u.u.:X-X&.F.u.F.XXO.A.XXD.D.B.d.u.u.A.e.r.A.r.O.A.g.g.5.u.A.D.e.A.r.;.;.k.w.w.A.r.J.J.J.q.k.&.g.u.k.J.e.y.J.N./.k.k.A.w.A.k.u.J.u.A...q.F.XXe.;.k./.J..XA.e.R.r.A.#Xu.J.r.d.A.oXk.r.~.oX~ w.D.e.F.;.&.r.D.F.F.d.x.k...r.k.F...g.y.y.y.k.r.$.e.q.y.;.u.q.u.u.r.~.k.;.O.XXq.k.~.OXOXr.~.~.O...R.^.d.$.&.4.9.8.{ ",
"H O. .-XA.OXE.y...r.u.D.].g.e.Y.T.D.k.k.E.Y.u.q.A..X@XA.D.D.A.k.H.y.6.N.H.H.A.N.A.).R.A.g.A.u.F.g.J.g.u.e.H.B.H.g.g.A.J.e...d.d.u.k.J.B.Y.Y.A.B.r.k.k.D.k.D.H.J.g.T.R.D.D.Y.y.g.].J.B.].D.B.B.B.].J.B.H.'.'.B.T.Y.@XE.Y.oX.XJ..XR.oX#X@X@X@X&X=X@X@XoX.XJ.R.XXOX].R.R.@XoX].R.[.R.R.].oXoX.XJ.D.XX/..X^.R.D.D.Y.!.!.~.^.R.^.oXoXD.R.H..X@X@XR.J.*XoXoXE.Y.u.R.R.oXOXR.F.^.~.R.OXR.Y.D.^..X.XY.R.Y.oXoX.XXXF.u.OX.X@XR.J.]..XoXoX~.OXOX.XR.oX2XoX@X].oX.X@XoXoXR.O.J.oXoX:X:XoXXXoXoX#X*X8X;Xf.L B.g.yX@X'.@XqX+XJ.7XoX#XH.&.! b I H u.g.D.~.O.F.F.F.J.k.g.g.D.f.R.J.g.J..X.XS.F..XF.F.D.oXD.D.E.oX.XXXoXR.A.D.R.D.^.A.q.@X.XXXXX^.#X#XJ.Y.z.A.D.z.e.k.:.!.d.k.OX} .XN.R..XA.A.J.S.R.R.D.U oXOX*XA.F.XXOXD.@X#Xg.w.| :X:XD.R.-X^.OXR.g.D.R.J.F.r.~.#XF.~.~.;.J.F.F.#Xe.S.D.r.J.A...q.A.w.J.q.r.u.B.o.g.D.&.&.O.q.q.u.r.w.r.k.;...e.R.J.y.F.f.R.OXR.J.u.O.r.y.J.H.Y.x.F.!.u.F.#X.XL.L.A.w...~.F.r.>.l.L.F.R.A.D.].A.F.^.;.D.F.F.D.k.F..Xk.A.d.J.r...^.oXd.D.R.A.O.:.d.F...w.>.r.L B.f.q.;.;.:. ...;.r.r.d.O.&.;.&.!./.A.A.A.D.J.k.A.J.A.e.r. . .R.J.D.D.g.7.7.7.<.",
"H H  .OXOX.XoXOX;.&.u.k.g.u.D.A.s.Y.F.Y.D.A.F.J.D.D.A.J.f.E.g.g.H.B.N.g.u.H.'.A.A.H.H.N.D.J.k.D.J.F.e.u.H.[.B.N.g.J.A.D.~.u.k.r.A.q.J.A.D.J.D.y.l.F.F.F.k.D.A.H.'.T.R.f.y.F.D.D.).J.B.D.g.B.T.D.H..X].@XoXT.B.&XoXT.R.oXR.R.~.J..X@XoXoXE.[.[.oX@X=X@X].H.oX.XF.#X.XJ..XR.oX@X*XoXoX.XE.Y.R.R.~.!./.*XOX.XD.E.oX~..X^.^.oXR.Y.oX.X.X.X-XR.E.oXR.oXoXoXY.J.OXJ..XOXoXoX.XR..XOX~.oXR.&.r.oX*XD.A.D.^.oXR.XXOXF.J..X#X.XJ.J.J.~.oX.XoXoX.XJ.J.@XR.J.D..X.XR.R.oX.Xu.-XeXOX*X-XOX#X#XJ.:XoXe.g.h.f.g.B.@X@X@X].jX' 5.yXD.oXH.' W j # U y.e.F..XF.J.J.A.J.k.A.Y.F.U.A.D.A.A.A..Xi.A.p.A.S.J.D.D.D.Y..X.XoXJ.q.e.J.R.OXD.r.g.R.S.J.#X:X:X#XE.oX^.U.H.g.k.k.Y.R.F.^.~..XR..XR..X-X.XJ.S.u.oXD.y.-X#X#X~.k.7X~.^.oXqXy.u.r.F.J.*XD.R.F.OX/.D.k.oX#X.X#XOXOXJ..X~..X!.u.u.F.XX.XN.g.r.e.r.g.J.u.A.q.u.r.%.5.g.u.A.o.u.&.e.g.A.u.;.e.;.;.A.J.u.e.q.g.F.^..X.Xu.n D.R.u.H.F.r.F.eXr.J.u.;.| ..u.u.r.F.;.r.r.j.;.d.r.r.A.g.J.~.~.k.F.^.d.d.D.k.F.e.D.A.u.r.r.w.XXk.r.w.r...>.$.x.k.>.>.F...5.g.d.g.&.r.;.>.;.e.r.g.g.u.r...A.F.w.e.u.k.A.e.;.k.J.~...u.~.u.&.e.z.y.7.7.<.{ ",
"K H J.9XoX@Xf.[.u.&.D.].u.H.F.J.D.D.D.D.U.T.g.[.A.e.e.D.z.D.k.A.g.D.z.D.F.F.F.x.J.D.J..XC.T.T.f.A.g.y.e.D.R.D.H.Y.Y.f.f.d.D.g.A.e.A.S.J.D..XR.d.A.g.A.J.J.D.D.D.H.A.D.&.&.D.D.R.D.E.A.u.g.D.g..X@X@X&X@X[.R.D.D.H.].@XR.R.D.R.@XoX@X#X@X[.]..XXX<X2X].].].R.A.Q E.E..XE.oX@XR.R..X@X#XR.R..X#XoX#Xr.D.OXoXD.T.@XE.oX7X*.J.R..X~.oXoXR.J.R.R.R..XoXOXOXOX@X@XC.&X*XOXoXoXoX+X[.[.OXOXJ.oXOXD.F.Y.E..XoX.XR..X@X.XoXoX.X.XD.R.D.#XR.-XD..XoXR.oXe.D.E.E.^.oX.X~.oX-X*X;X;X*XOX*X-X].e.-XA.A.} ~ A.J.H.zXD.7X8XgXD.-X-XR.R.oXt U L =  .y.f.F.Y..XD.g.J.u.5..XR.A..XD.D.R.J.F.F.A.A.S.J.S.J.J.J..XD.J.F.D.XX~.F..XJ.oXXX.X#X.XA..XOXL.R.oXJ.oXoXR.].'.[..XD.OX~.r.l.F.S..XOXD.S.oXXX..q.g.A..XJ.+X.XS.S.F.S.A.OX.XJ.OXoXk.r.:X~.J.-X*XD.F.F.A.J.J.F.A.A.F.F.nX~.A.k..Xu.F.r.r.k.F.F.A.D.A. .f.r.J.J.5.&.u.&.g.e.g.q.;.e.w.d.&.*.e.u.g.N.u.;.k.k.e.r.r.k.u.w.R..XA.D.u.q.k..XR..X.XO.=.f.q.u.r.u.w.w.$.&.&.A.D.q.5.H.E.g.F.A.k.~.r.D.F.u.S.A.A.u.r.&.A.d.;.R.R.w.>.r.&.E.F.F.;.e.r.k.Y u.k.u.u.D.A.Y.F.u.r.g.e..XF.;.;.d...;.k.r.O.} q.O.oX.X&.y.g.y.r.k.F.&.} { o.' ",
"z F.^.uX@X[.y.H.Y.q.J.A.A.A.F.S.H.g.D.Y.U.U.A.f.Y.g.g.E.Y.E.J.D.B.h.A.D.D.D.D.D.D.B.J.].T.T.D.y.D.y.y.y.e.g.D.H.Y.A.A.Y.u.g.g.e.e.J.S.A.F.~.A.D.H.A.B.R.J.J.A.A.J.D.y.A.A.D.B.u.k.J.A.D.A.A.J.].oXT.R.@X-X].D.D.D.T.T.H.H.T.R.@X@XoX.X@X-X-X#XXX#X#X#X#XR.A.Y.E.E.E.oXoXoX@X].].oX.X.XR.R.J.oX#XoXE.^.D.oX@Xg.[.E.E.7XA.B.H..X~.oXoX.X^..X.XR.R.oXoX&XOXoX[.M.'.~.@X#XoX.X+XoX'.#XOXR.Y.oX^.J.d.oX.X#X.X.X.X.X.XE.oX.X.XoXD.oXoX.X.XA.J.F.;.R.^.E.oXE.E.oXoX.XXX.XoXOX;X-X#X@X&XoXg.eX&.A. .D.g.O.D.H.gX-X8XlX].y.'.2XH.A.Q K L : ! y.f.D.e.g.Y..Xu.u.g.A.g..XF.A.D.~.A.S.S.`.F.J.q.} e.F.J..XJ.J..XOXF.J.D.F.F.J.J.S.OX#XJ..XF.A.D.u..XOX.X.X].H.oXD.oXF..Xr.a.F.S.G.R.F.J.XXD.d.D.D.].J.F.F.J.:XJ.g.XXu.A.XXR.OXF.J..X.XJ..X-XR.F.k.F..XoX~.u.A.F.D.F.^ A.:Xk.d.k.F.F.&...J.F.A.A.f.u.F.F.A.k.5.q.u.&.e.&.u.&.&.A.d.D.r.e.D.u.g.y.u.u.r.r.u.r.O.;.r.A.F.F.A.k.J.J.~.O.A. .D.R.E.A.y.F.F.r.A.r.&.s.y.E.R.Y.B.D.A.A.F.D.D.D.F.k.r.w.k.A.A.u.k.D.g.r.r.r.k.k.r.>.r.F.F.r.F.D.&.^.J.u.r.u.&.g.Y.A.F.D.k.F.~.u.;.F.k.D.&.w.F.k.r.A.g.u.R.R..XA.e.D.J.k.k.*.} D l [ ",
"L zXeXtX@X-X@X@XF.*.g.y.J.A.F.A.g.g.T.U.A.U.Y.D..XD.A.J.A.D.D.A.E.h.D.B.g.D.U.[.B.u.J.R.[.T.D.g.g.e.f.g.f.N.N.B.e.D.A.g.A.D.u.A.A.A.F.R.A.D.J.D.A.g.u.J.A.D.A.J.A.R.e.D.A.H.A.q.^.g.;..X.XD.R.J.].'.R.R.R.H.H.T.R.R.H.T.D.R.H.].R.]..X@X#X@X.X.X].@X@XoXR.R.oXE..X.XOXoX.X.XR.R.oX].].R..XJ.].oX^.E.#Xg.OX@X&X[.oXD.oX-XoXR.H..XoXoXoXE.].H.N.u.E.oX&X&X&X@XH.[.H.oX*XoX.XoX@XoXr.k.oXR.E.R.R.D.OX^.oX].oXoX.X].Y.-XR.E.H.R..XR..XJ.oXD.OXu.oX^.OXOXE.Y..X@X.X.XOXOX&X*X-X-X-X-X:XoX#X-XD.u.D.D.} R.z D.8X.XwX8XH.3XqX2XH.K q.L t ] g.f.R.D.D.F.D.J.S.A.&.r.J.D.~.F.R..XF.r.r.e.J.} U ..S.J..X.X].XX.XOXoXD.O.F.J..XJ..XOXR.XXoXS.oXR.J.D..X#X].oXH.oXoXOXk.XX!.S.J.F.J.S.A..XF.F.J.^..XoXJ..X.XJ.#XD.J.oXJ.S.J..XF.A.~.F.~.~.w.d.-X^.F.F.A.R.F.O.r.J.XX;.@.OXk.D.F.k.J.d.r.J.k.E.D.e.y.d.k.e.r.u. .Q o.y.q.u.e.Y A.g.S.u.H.#Xy.u.u.g.A.u.k.A.u.A.J.F.S.r.;.r.q.D..X~.u.H.e.e.oXJ.D.k.A.k.O.k.w.^ e.R.D.Y.D.oXf.A.g.A.R..Xk.F.F.u.u.k.k.k.w.w.g.w.F.k.u.w.w.F.F.u.OXr.&.F.e.;.F.k.w.r.S.u.k.f.&.w.;...k.^.F.r.k.;.F.w.~ ;.;.;...e.d.d.g.2XH.e.u.X.u.F.O.' { F ] ",
";.F.uXR.H.8X'.e.k.q.e.A.R..XD.A.H.R.T.g.Y.E.D.A.D.D.D.D.A.D.R.R.A.q.D.D.z.E.Y.U.T.A.].H.'.T.y.q.e.B.g.g.R.H.y.A.D.A.A.A.f.g.D.D.f.Y.A.e.A.R.D.u.H.D.D.R.A.g.g.D.B.J.H.H.g.R.D.D.oXF.e.D.J..XR.e.H.].].R.J.H.D.g.T.R.H.H.H.R.D.Y.J..XOX#X@X+XoX@X].].oX#X].D.Y.E.Y.Y..X.X].oX].]..X.XoX.XoX]..X.X.XR.Y.*XoX@X&X&X^.OXR.D..XoXR.oXoXoXE.E..XR.H.H.@X@X&X@XoX[.H.[.E.].oXoX].].oX@XD.B.-XoX#XoX.XR.OX#XE.R.J.J.R.R.oXE.-XoX#XR.J.^.R.oXD.J.A.OX.X^.*XOXR.J..X@XoX.XoXOX&X&X*X#X*X*X!.^.^.2X;X3X3X@XF.D.X.R.-X7X8X].[.f.g.e.Y.u.n U j Q g.r.y.A.^.OXF.A..XoXg.u.A.D.u.;.&.~.A.u.u.S.F.q.u.e.F.J.~..X.XOXJ.F.J.J.r.J.J..XF.S.A.B.J.oXg.r.R.J.J.J.]..XD.J.-XJ.u.u..X~.J.XXS.J..X~.#XOXR.D.^..X#XF.XX.XR.oXOXF.R.XXXXJ.A.#X~..X~.R..Xw.d.*XF.f.k.k.J.k.w.w.F.F..Xu./.k.A.k.;.r.A.D.r.w.D.k.A.k.D.A.d.A.' &.y.%. .q.g.A.w.w.;.A.u.u.D.D.g.u.u.S..XJ.e.A.w.r...w.L.J.w...k.r.u.u.g.e.O.g.O.^..Xk.D.d.k.r.&.s.D.Y.r.A.^.E..XA.k.A.~.F.k.J.O.q.q.u.D.k.g.A.k.A.u.;.A.O.k.F.;.u.u.;.w.D.;.r.r.r.q.r.r.A.d.e...$.w.r.d.A.r.;.w.D.r.;.r.} ~ ..Q A.D.e.g.A.J.r.| u.A.} o.H.y.W ",
";.&.7X*XN.g.[.f.k.u.e.D.H.].B.g.D.].R.D.Y.E.Y.d.k.A.D.J.D.D.R.A.A.w.k.r.e.J.J.D.H.J.R.R.T.T.6.} O.u.u.u.J.F.r.A.oXA.g.A.g.u.A.R.F.R.d.e.F.R.A.N.5.4.y.B.D.g.A.D.g.A.J.R.D.A.A.R.A.g.y.D.H.J.A.H.+XJ.A.R..XH.D.g.B.D.D.D.R.Y.E.oXR..X@X#X@X@X@X+X-XoXoXoXE.R.R.R..XR..X].Y..XE.Y.^..XOXoXoX.XoX.X#XR.oXOX*XT.U.oX.XoXR.R.oXY.Y.#X^.^.E.R..X].].].OX@X@X[.@XoXE.[.@XoX].R.R.R.]..XoXJ.-XR..XoXoXXXQ g.A.#XoXR.R.J.Y.oX#X*.y.J.oXR..XR.^.R.R.R.F.^.oX.X].R..XOXOX.X~.@X;X;X-X#XoXoXXXOX#XT.[.T.'.[.q.O.cX7X#X8XwX#X8X@X6.U.g.g.} }  .z  .J.J..XR.~..XJ.A.H r.R.D.k.k.u.r.J.r.r.q.r.D.g..XA.J.R.J.J.J.J.J.b..XA.~.F.OX#X.XR..X].]..XJ.u.J.J..X.X.XoX.XF.~.F.;.k.k.~.eX0XXXoX.XD.J.J..XR.J.#XoX.XoXoXOXOXOXXXJ.J..XOX:X#XA.r.A.J.#XoXF.A.r.d.F.~.J.A.d.R.*XR.u.F.OX^.D.F.D.R.F.F.F./.g.D.R.Y.F.D.k.A.g.o.q.u.u.u.&.f.F.;.k.F.e.;. .r.J.;.e.A..XD.O.D.g.A.k.F.D.k.&.u.u.u.D.Y.u.r.u.oX;.D.J.w.d.Y.A.k.U.&.e.s.D.q.Y.E.J.R.g.;.f.J.f.g.e.g.y.g.A.u.e.e.e.r.k.r.r.u.^ OXr.r.e.....F.k.w.e.w.u.J.J.~.B.O.;...e...k.k.;...q.d.e.e.A.;.;.;.*.q.} q.&.;.A.F.#XF.r.e.y.M.V.7.",
"q.&.g.3X[.f.[.f.u.e.q.B.A.D.g.A.B.D.T.R.y.F.oXD.D.D.A.D.J.D.R.g.k.g.J.F.S..XF.r.H.J.J.R.B.B.6.Q U ..u.u.u.A.k.k.D.Y.A.q.B.B.B.D.u.g.D.A.A.A.J.H.y.e.N.B.].D.H.B.A.J.H.J.H.u.H.A.&.A.D.B.D.#XR.R.].].H.H.R.D.R.D.H.H.H.B.R.D.E.oXR..X@X@X.X].].[.#XoXoXJ.Y.*XoXD.oXR.oX.XY.E.E.Y.Y.Y.E..XoXY.E.oXoXR.#XD. .*XF.Y.J.#X-XoX.XoX#Xg.^..XE.E.].].R.R.[.E.oXoX&X*X*XOXoX@XoXR.].OXoXR.H.J.#XD.H..X.XR.A.oXA.R.R..X.XR.R.oXJ.*XoXY.Y.^..X.X.X#XJ..XA.R.J.J.R.oXoXoXoX.X.X#X;X-X#XOXOXOX/.7X#XoX'.[.H.-X..#X7X#XoXwX2X#XD.[.h.8X8Xg.j t  .l } oXJ.D.u.S.J.p.J.J.w.D.F.F.F.A.F.S.S.r.r.D.A.e.H.A.R..XR.J.S.S..X.X%XA..XF..X.XR.R..X].R.H.R..XA.D.A.R.oX'.7Xk.J.w.r.A.F.XXJ..X.XXX.XD.J.OX.XJ.J..X^.F.^.Y.R.OX~.wXA.A.oX~.oXR.wX:XR.#X#XJ.*Xg.A.^.oX^.J.oXoXF.F.D.D..XF.A.R.F.F.OXk.r.OX.XY.oXD.F.r.k.k.k.k.q.u.r.q.q.*.g.r.>.F.w. .r.;.d.R.;.g.e.u.g.r.A.oX^.E.g. .y.u.g.f.f.*.A.J.R.e.A.J.w.F.A.f.D.u.e.z.&. .g.g.f.e.e.F.#XJ.J.J.E.J.A.q.u.y.N.u.t.u.u.F.F.r.k.k.!.U r.k.k.;...e.;.R.r.u.g.r.A.J.A.r.g.;. .;.e.&.d.u.r.e.g.u.u.J.A.k.;.A.u.Q u.r.;.r.F.F.e.;.y.t.{ 7.5.",
"g.e.[.=X[.R.g.f.w.e.u.D.D.A.A.A.Y.R.B.H.t.J..Xd.H.A.g.A.J.J.-X].R.R.R.J.D.J.J.S.J.].R.R.f.6.e.} } O.k.A.u.F.F.u.k.g.D.y.q.B.D.%.L Y.R...e.A.A.A.y.e.B.N.H.D.R.D.J..XH.H.H.J.J.A.A.D.A.R..X].A.D.N.].]..XE.Y.oXD.'.'.'.T.R.Y.Y.R.T.[.@X@X.XR.].oXoXD.E.OXE.Y.D.oX.XJ..X.XR.oXOXoXD.D.E.E.E.D.E.oXR.D.#Xu.&.OX*XD..XoXR.].R.D.oXD.R..XoXoX@X@X@X@XoX@X&XoXoXE.oXR.'.@X@X]..X#XOX~.].]..XH..X#XR.A.E.E.g.q.D..XJ.D.Y.E.E.E.*XY.^.F.oX^.E.d.A.R.^.Y.J.H.R.oX^.E.oXoX.XoX@X].].XX#X#X^.oXE.f.'.2X@XD...eX-X#X.X#XqX2X[.D.D.[.A.Q u.D.u.} } g.D..XF.S.J.L.A.~.r.J.k.u.].u.A.u.F.u.e.J.D.u.A.g.D.].R.J.S.+X$XK.S.J..XJ.J.F.J.R.J.R.R.R.D.R.D..X].].].+XA.A.R.q. .~..XA..XF.F.J..X.XJ.J..XJ..XJ.J.u.Y.k.S.9XA.F.J.F.R.oX#XJ.-X7XF.#XoX&.*XD.Y.R.R.R.D.^.^.D.g.d..Xk.r.F.OXJ.F.~.F.k./.F.D.^.k.Y.k.k.F.d.g.&.&.e.q. .e.U.k.;...O.~ &.r.Y.k.u.A.&.e.u.D.y.k.!.oXJ...u.g.g.d.g.u.O.k...O.q.L k r.D.D.D.A.f.s.g.s.s.Y.z.s.&.A.A.J.R.A.A.D.g.t.y.e.N.6.o.y.A.w.r.k.r.J.w.A.r...;.k.k.k.r.D.d.r.A.w.w.g.u.&.S.F.q...g.;.D.R.e.g.e.e.g.F.w.u.;.q.OX.XR.k.F.~.A.r.r.u.&.y.2.5.4.",
"B.R.g.6.e.B.&Xf.;.r.g.R.A.u.q.*.f.].B.J.y.J.J.D.H.D.D.H.J.A.oXR.H.R.T.T.D.D.D.A.H.F.H.H.f.6.T.g.r.H.F.u.A.J.A.u.;.q.q.q.B.g.g.f.g.D.g.&.u.B.H.A.B.D.H.B.g.g.D.D.J.u.A.J.H..Xy.A.g.A.y.R..XR.R.D.H.].H.].E.D.E.R.H.R.T.].R.E.J.R.C.D.H.R.oXoX[.R.OXY.Y.R.E.oXY.R.oX.X#XoXJ.R.E.Y.D.E.*X.X.XE.oXE.J.].H.OX#XY.F.Y.J.eXoXoXoXD.oXOX^.oXoXoXoX[.].[.@X&X;XOXOX^.#XoX[.[.[.oX.X~.~.~.H.].oX.X.X.XJ.XXoXE.oXq.D..XJ.J.g.Y.E.Y.Y.7XR.x.D.E.F.D.k.oX.X.XoXR..XoXR.R.oX#X.X@X&X@XoX#X#X#X>X.XT.B.].].qXuX:X#X2XD.].yX'.H.C.T.B.@Xg.Q D.g. . . .e.J.J.A.A.~.~.J.~.k. .d.k.D.g.H.A.J.S.H N R.R.R.A.g.H.H.A.J.).XXu.F.S.S.J.R.D.J.R.R..X].].A.F.R.u.H.@X].H.k.F.>X7Xu.D.D.A.rX.XOX.XR..XF.F..X.XoX#XR.E.*XOXXX.XA.u.~.~.oX~.:XOXJ.7Xu.u.#XJ.g.E.*XY.k.D.F.^.r.~.J.A..XR.F.k.~.!.^.A./.F.r.~.F.~.D.F.D.e.F.w.u.u.O.&.f.y.D.*.k.p.| k.e. .%.Q e.g.y.&.D.q.f.q.T ~ L k.F.F.f.g.D.z.....e.e.r.q.w.@.D.q.g.f.A.q.D.Y.e.z.Y.Y.g.z.J.&.R.y. .A.Y.g.y.y.5.H.y.o.t.N.F.k.F.F.e.r.u.w.;.r.w.F.w.;.^.q.u.r.;.;.q.u.r.;.S.u.q.q.F. .R.H.g.g.A.e.w.;.F.r.*.q.d.R.F.k.F.r.A.F.F.X.O.U } i.",
"H A.@XB.&.D.7X-X..*.f.g.H.H.%.W y.Y.g.D.u.F.A.F.R.J.A.J.B.H.'.H.F.J.].A.V.A.y.J.F.F.J.E.u.u.D.J.J.u.u.e.J.g.A.A.D.B.H.e.D.A.A.A.A.F.w.r.6.B.f.e.g.A.A.R.u.u.u.H.g.A.g.D.F.d.d.d.f.R.y.E.A.]..XV.A.H.H.].[.H.H.].T.B.A.R.U.g.A.F.H.D.oXR.oX@X.XR.].oXoX'.].@X#X].@X-XR.oXR.~.~.J.R.J.R..XoX.X@X.X&XD.E.OXOX#XoX.XoXR.oXoX#X^.^..X].*XoXY.oXOXE.oXE.oXoXE.OXE.oXoXOXoX.XoXR.oXoXE.].oX[..XE..XR.#XJ.D.J..X~.~.D.^.F.J.F.Y.J.E.@XE.~.!.F..X~.oX~..X.Xg.J.XXB.J.*XR.].+X@X2X@X&X8X;X.XH.'.+X@XH.T.tX5X1X2X].qX[.5.B.~.r.J.R.q.A.*.f 8 [ o.A.a.w.g.@XOXA.g.R.u.e..XA.g.g.g.J.A.r.z l A.u.OX#XA.R.H.J.H.].g.B.oXH.A.D.J.R.D.D..XH.oXR.D.#XF.A.D..XJ..XoXf..X7Xg.u.R.H.y.H.H.N.D.R.J..XH.].].+X].H.2X#X#X).@X8X@X@XoX-X.XJ.oXR.-XY.T.R.A.g.J.R.D.f.D.J.J.u.D.g.u.D.k.u.J.A.A.u.A.S.A.~.A.;.].H.u.N.H.N.1.u.A...u.k.w.r.*.&.e.q.R.A.e.e.u.D.u.e.F.k.A.S.u.f.} g..XR.....H.y.4.5.N.y.6.o.J.k.k.J.e.q.e.d.J.D.F.D.F.u.....S.F.XXu...J.2X=XD.N.u...O.t.5.5.d.w.F..Xu.r.} @.F.e.r.J.u.r.r.p.u.O.;.;.r.;.F.F.R.k.g.k.O.g.oXF.l.l.a.!.k.r.J.;.;.S.;.u.;.r.A.g.k.A.k.q.' f d 7.",
"} ..J.oXD.^.>XOX&.&.&.5.g.B.e.%.f.g.R.A..Xu.J.OX-XJ.r.N.y.f.'.'.J.A.H.J.J.H.H.+XJ.J.D.D.y.e.y.D.e.A.A.u.D.D.g.OXH.N.D.B.B.g.f.g.A.F.F.S.D.T.f.o.u.D.R.S.e.A.A.A.A.D.g.A.g.u.k.D.u.y.J.7X-X].@XG.H.).N.].[.+X'.R.U.A.g.T.T.k.Y.E.oXT.].H.].@XoX].oXoX@X@X].'.].+XH.#XoX.XR..X@X.X.XR.D..XJ.oX.X.XR.R.oX#XoX^.OXOX'.H.D.T.A.R..XoX.XoX-XoXB.g.oXD.F.F.R.R.oXoXoXOX*X.X.X.X.X^.^.E.@X].].oX.X@X#X.XD.J.OX~.F.R.^.R.R.F.F.~.^.R.oXE.XX.XR.R.J.^.~.!.J..X.XD.oX.XR.E.H.@X@X2XyX2X@X&X-X2X].oX2XN.3X@XtXqX=X#X2XD.oX@X.Xg.D.R.&.y.r =.H O.y.%.u.p.XXT S.J.r.^.r.A.A.J.d.D.A.g.J.&.A.J.J.S.A.oXJ.R.R.D..XJ.H.B.6.D.T.T.D.D.g.R.J.R.J.J..X@X.XA.A.@XD.R.R.A.e.A.u.D.].D.5.'.].].H.oXy.R.].'.].].H.].'.+XJ.J.#X].OXOX;.O.R.].H.o.D.R.Y.A.R.D.D.y.e.D.Y.^.J.B.g.J.&.g.A.u.u.q.u..XN.y..X.XJ.;.J.J.N.N.f.1XJ...J.g.F.k...w.*.D.r.*.A.D.g.D.A.e.D.S.g.g.S.J.E.7X.XO.u.D.q.} y.J.y.y.N.H.B.D.J.F.u.J.u.w.k.;...A.d.....r.r.T u.r.u.F.y.D.H.T.J.F.F.q.~.~.J.].F.!.F.k.r.J.k.k.S.S.J.u.A.r.A.S.w.~.u...k.&.F.k.F.u.k.k.k.J.A.k.r.L.l.r.J.A.;.A..X!...;.w.A.A.O.w.O.w.A.O.l 5.5.",
"A.K .X-X*.oX^.k.w.g.g.B.D.H.H.D.Y.g.F.g.D.A.S.A.D.g.k.J.R.H.[.T.].G.J..X].R.R.R.R.R.J.H.Y.D.u.R.i.S.D.F.H.oXE.A.B.N.B.D.y.B.u.d.e.k.J.u.e.B.g.g.k.q.w.;.u.A.k.u.H.A.q.q.u.g.A.d.f.D.7XJ.q.y.@X].].H.H.H.=XB.[.'.D.oXR.R.Y.J.E.g.].R.oX].]..X.X.X@XoXoXoX].J.H.J.]..XR.oX].R.R.J.R.R..XR.R.]..XR.Y.OXOX*XE.J.OXoX[.].].].D.oX*XoX.XJ..X7XD.e.OXOX-X~.oX.X#XOX.X~.^.J.E.R.oX.XoX.XR.oXoX@X@XoX#XJ..XoXJ.~.} J.J.R.~.!.!..X~.J..XoXJ.OX*XR.R.^.oX^..XJ.R.R.J.R.].OX#X#X@X-X7X@XoX@X7XoX-X2XD.g.&X&XH.tX8X@X].].yX5.u.R.oX*.q.D.r q.p.Z o.t P #XrXs w.J.p.OXk.R.u.u.D.A.F.*.D.e.y.t.A.A.R.F.D.y.R..XH.H.oX@XH.-Xy.e.u.R.F.k.A.A.A..XR.[.B.g.H.T.H.e.[.D.e.g.J.g.g.Y.B.B.H.].5.R.D.oX@X+X#X].#XJ.#X).#XR.8XR.OXJ.J J u.wX7XO.A.#XR.g.g.OXA.A.oXD.#XJ.g.D.A.A.D.N.u.H.@XB.].H.5.u.A.u.q.oX.Xu.O.' H.+XwXA.A.u...k.k.w.R.Y.OXY.A.r.J.A.F.k..XXXF.XXr.A.Y.E.R.Y..XD.R.A.)..XH.J.u.N.A.H.A.F.e.F.~.A.k.O.p.p.r.OXH ..J.u.r..Xp.q.N.g.y.T.g.k.F.q.A.J..XD.L.S.L.@...k.O.;.H.F.q.U k.q.S.A.q.~.u.q.;... .D.e...k.;...~.~.r.w.~.F.k.~.A.w.A.k.F.e.k.w.u.N.i.;.e.L A.H.N.H.X.",
"D. .g.D.k.*.oX^.~ ;.e.B.D.D.H.D.*.u.F.k.&.J.A.u.g.g.A.F.R.D.'.g.].H.].H.J.].H.D.oX].R.D.Y.D.*.q.S.S.A.A.g.u..Xd.e.g.D.J.e.A.u.5.e.r.k.w.e.H.f.y.w.r.r.r.A.A.k.w.q.g.A.A.D.D.k.r.u.R.e.O.u.y.5.+X@X@XH.].}.T.@X=X@XoXD.R.A.*.A.oX'.'.+X+X].].]..X@X@X.XR..XoXR.D..XJ.H..XoX.XR.].J..X-X.X.X].oXJ.A.Y.Y.E.R.Y.^.^..XE.oXY..X.XOXR.J.#X~.oXD.Y.E.E.E.D.#XoX.X.X.X-XR..XoXE..XoXoXF. ..XE.E.^.F.A.A.J.D.J.oXA.E.R.Y.R.R.R.!.F.J..X/.R.^.oXD.oX*XoXf.S.D..XJ..X.XR.]..X].@X#X2XoXoXoX*XOX;X7XOX&X8XyX@X[.;X8X&XA.B.A.u.J.A.&.Y.R.K O.5.D F q U p.R.#XOXF.w.u.;.O.e.o.;.;.u.g.J.J.5.5.k.F.#XXXJ..XN.A.*XE.&.R.R.u.e.u.;.T } u.A.A.A.J.J.@XJ.J.D.N.].].5.N.oXA.g.y.k.R.oXT.R.].g..XoX-X].@XH.+X+X+X8XOXJ.g.2XR.D.k.@.q.N.H.R.8XD.2XJ.D.[..XD.Y.A.&XoXu.N.H.2X@XoX@XJ.H..XoX@XoX.Xu.5.&.~.k.J.D.u.z Q =X~.O.w.oXu.A.D.r.R.F.#XR.F.y.d.Y.F.d.7XA.~.S.A.J.].[.R.3XR.A.A.g..XOXJ.A.].e.e.R.^..XF.g.k.A.g.r.S.p.u.p.u.e.H.e.A.F.J.u.y.e.f.y.A.u.k.F.F.&.A.].k.F.L.L.F.F.F.&.A..XA.e..Xw.w.k.r.u.&.O.*.g.e.D.r...~.A.O.d.D.u.k.F.A.u.r.k.~.F.;.r.e.D.r.y.y.i.F.p.| H 5.N.I } ",
"&.&.&.A.&.D.D...&.e.5.g.H.D.B.e.&.q.R.D.g.].R.H.D.D.k.A.J.B.'.D.'.H.T.e.H.].D.oXR.D.H.A.A.J.D.g.S.A.A.D.].d.g.F.N.B.A.g.&.e.g.e.g.u.k.u.6.B.%.5.A.k.;.k.A.w.r.u.q.g.A.g.A.F.D.A.A.D.%.e.g.g.q.e.G.#X'.'.T.@X1X[.D.].H.H.B.e.A.D.@X].'.]..X+X.X].oXoX.X].]..XR.J.H.R.].J.J.]..X.XOXXXXXOXR.@XR..X.XY.E.E..XE.J.E.^.^.F.k./.^././.OX.XJ..X#X.XD.OXB.f.[.oX@XoXR.].R.oXoX.XY.oX^.D.O.OXE.oXoX.XR..XD.D.R.OXOXR.F.D.T.D.D.R.J.J..X^.~.^..Xk..XoXE.*.D..XJ.].} 7XoXH.N.'.'.H.2X=X[.-XuXuXyX8XD. .E.! D.;Xq.D.#XB.oXR.k.D.g.k.d.q.~ q.7.N.qXB.u.e.y.T.k.e.q.g.E.e.H.&.;.;...D..XA.H.H.O.;.~.u.J.D.J.].A.A.F.k.-Xw.J $X;.q e 0 A.F.A.S.`.L.F..XS.XXO.X.'.].'.D.5.A.#XJ.R.R.R.oX#XoXF.D.#X@X@X#X+X7X.X.X.XO.&.B.[.R.f.e.f.y.R.].@Xg.N..X^.J.~.;.^.R..XF.H.oXH.H.u.@XOXOXOXOXOXu.J.F.e.w...U @.q.} n D g.A.} F.F.F.J.J.Y.F.F.*X>XD.J.q.g.;.d.OXJ.g.#XoXy.6.8.f.T.y.g.e.D.J.A.J.H.].g..X].;.r.F.D.k.k.k.u.q.S.J.e.u.y.6.f.w.e.q.e.o.R.H.N.q.R.&.O.r...w.A.| | p.p.u.OXOXu..XJ..Xw.#X#X| } g.A.g.Q f. .D.q.6.6.g.y.e.y.B.U.D.A.R.&.O.A.@.q.d.e.;.A.A.S.g.S.u.J.w.;.H D g Z ",
"7 e.o.J.r.~ k.z.k.g.e.u.B.g.f.y.R.g.F.Y.D.J.J.J.z.F.A.J.oXH.].oX'.H.T.f.[.R.B.@XY.D.].T.g.g.R.A.S.A..X.XR.OXd.J.R.B.u.e.5.O.A.F.u.D.J.F.e.B.e.u.A.k...r.g.w.u.A.D.D.k.e.r.D.D.D.oXg.A.].y. .g.y.e..X<X'.T.T.[.T.].H.N.'.'.u.g.oX@X@X].@X+X+X@X].+X.XoXoXJ.g.A.^.R.J.].J.J.R.].[.XXS.J..X.X.XJ.].oXR.oXE.E.R.A.R././.F.F.^.oXY.oX.XJ.#XR.#XoX*XOX7X@XOXR.].[.@X=X#XoX.X#XR.^.R..XoX*XoXoXY.E..XD..X@XR.R.D.D.D.D.T.T.R.OXE.A.Y.oXR..X#XD.E.E.OXY.oX.XR.-Xj -X2X+X3X2X1X'.=X@X'.'.R.g.tXyXR.Y.D.R.y.A.&.H g.E..XR.O.O.g.k.A.O.L N _ 9 y.5XT.oX].J.u.oXD.f.Y.H.[.y.S.r.F.A.XXS.XXJ.~.F.r.k.D.J.S.S.p.S.S.p.w.$X< A #.q @.c k w X.K.L.3.A L.t.| x 1.J.'.5.+Xo.u.].&.oX.XR.R.*X*X.X#XXX.XoX.X#XOX#XJ.u.#XoXf.f.'.[.f.R.].R.R.J.@X.X#XP.P.#.L.~.J.r.OXN.H.' o.t.1.b.+XXXrXu.p.3.T w.Y T @.O.k.e.J.D.D.A.;.F..X.XJ.J.OXk...J.>XF..XF.J.B.D.D.y.y.g.g.y.[ W ] T.g.] &.D t.y.e.u.N. .o.g.A.A.&.g.J.} ' %.O.q.O.o.b [ D 8.} H } F o.%.B.4.;.~.R.oXr.N N ~ m.#.A h e L OXOX$XXXt.h X.u.S.} j f.g.g.=.Y.Y.D.T.H.f.6.e.f.B.s.&.y.D.g.D..XA.r.g.e.&.u.u.g.e.A.J.S.K.O.q y.i P ",
"K &.O.F.} r.D.k.g.d.g.g.A.D.A.Y.J.F.F.J.f.D.J.R.;.F.S.A.F.D.H.].T.'.H.B.@XD.B.D.D.D.E.oXR.D.@XT.A.H..XR.e.D.A.J.B.g.f.B.A.w.A.S.f.F.F.A.B.R.g.5.U g.J.e.u.A.k.u.u.D.E.D.k.k.k.F.g.J.J.t.u.y.y.*.i..X<X2XH.'.B.T.N.H.T.B.D.D.u.g.H.].].@XJ.'..X].@X].].R.D.u.k.R.R.D.J.H.].].].oXJ.S.OXJ..X.X.X.XJ.R..XE.oXoXE.OXOX/.^.#XoX@X[.E.eXoX7XwX#XA.].OXD.oX7X*XoXR.].+XoX^..XOXE.D.D.R.D.g.D.D.R..X*XoXD.D.R.A.Y.A.E.g.A.D.R.^.D.u.D.E.^.R.^.D.E.E.@XoXoXY.oXE.B.oXH.N.'.N.#X#X2X2X3X@X@X].R.[.R.D.= D.OXoXg.K g.A.>X.XN.g.u.&.e.N ~ k.< 9 9 u.u.r.q.X.;.F.k.;.&.D.D.u.@.| L.S.S.A.J.J.J.J.J.~.~.k.A.S.P.| J J c 3.3.< V e c @.h : h | @.i.J 3.@.x x 0 } H.y.J.P t.].A.J.U oXoXg.J.#Xy.#XOXu.g.p.u.D.q.e.R..Xg.f.f.R.f.e.O.} } K.J.p.A.P.v v P.w.i.O.S.].u.N.J.S.t.i.t.p.p.u.eXw.T U | x 3.F.r. .J.D.E.r.~.F.~.F.-X-X#XeXS.p.O.;.H L } y.y.o.T.g.W r f.I.f.-.W F l 5.F Z.5.y.'.4.H K  .oXA.K K } n  .g.D.].q.z t l 7 [ ;.&.q f b b G %...L ....H ~ | J v 5 x v 0 w 9 w w v p.Y H A.A.D.F f f.&X&XD.D.&X'.N.f.[.@XW.T.f.C.T.T.E.D.F..XA.E.D.y.r.d.A. .O.F.S.A.J L u.a a ",
"H D q.J.k.;.k.r.g.u.A.A.D.D.y.d.g.Y.R.f.A.]..Xe.u k.F.A.F.].R.H.C.'.B.g.].B.].B.A.g.d.J.T.y.D.y.N.J.u.J.oXu.r.g.A.A.y.y.r.w.A.S.D.R.u.} ! %.5.' 5.O.N.5.g.q.O.u.;.e.u.w.r.k.k.F.D.&.u.t.O.&.&.! i.A.+XV.R.].B.6.y.N.y.' ' %.5.B.A.D.u.A.u.H.'.H.J.N.y.e.g.k.k.d.k.D.R.g.u.g.g.g.5.A.J.q.U r.i.i.e.A.u.u.f.r.f.y.u.&.g.f.6.5.f.%.A.F.u.R.%.I Q =.w.r.r.w.A.A.A.b.}  .y.u.g.r.g.g.d.d.J.y.g. ...&.e.5.q.A.f.g.g.&.w.u.r.w.r.A.J.g.D.D.E.D.A.q.f.A.^.r.&.A.g.2X[ l y.y.H.u.A.y.y.S.f.oX .oXY. .r U.9X&.H N E.O..X&.N.A.y 0 U N z ;.U H 5 6 v v } y.w.~ O.;.~ @. .&.L y w @.} ~ } _ O.~ ~ U H } H U q w V | 6 < 1 6 $ $ $ q g ; J.a e c Y J +.@ g x a U e.].N.V.4.<..Xg.R.g *...&.OXu...u...J.k.S.O.q.I e.A.y.H O.} J N O.J T T 3._ 1 6 < #.#.H U A.O.t.N.O.} A.Y U | ` h } h t.} L T @.U U e.e.u.Q ..} .... .t.} O.+.J c J J J r.O.4.4.%.=.f.f.! ! 8.C.T.D W K d &.7.7.y.N.o.P H I L K &.L 7 j =.b ].} i H z N.{ y.B Q K W %.%.B.7 c : z z q w q e v 5 5 5 e J e e v h h | z X. .l j j A.@XD.H.yXD.y.H.g.B.].[.f.e.[.T.R.D.y.q.O.q.y.g.q.....;.B E u.u.O.} N H i H "
};
